; generated by PrusaSlicer 2.2.0+win64 on 2021-04-09 at 23:38:44 UTC

; 

; external perimeters extrusion width = 0.45mm
; perimeters extrusion width = 0.45mm
; infill extrusion width = 0.45mm
; solid infill extrusion width = 0.45mm
; top infill extrusion width = 0.40mm
; first layer extrusion width = 0.42mm

M201 X500 Y500 Z100 E5000 ; sets maximum accelerations, mm/sec^2
M203 X500 Y500 Z10 E60 ; sets maximum feedrates, mm/sec
M204 P500 R1000 T500 ; sets acceleration (P, T) and retract acceleration (R), mm/sec^2
M205 X8.00 Y8.00 Z0.40 E5.00 ; sets the jerk limits, mm/sec
M205 S0 T0 ; sets the minimum extruding and travel feed rate, mm/sec
M107
G90 ; use absolute coordinates
M83 ; extruder relative mode
M104 S200 ; set extruder temp
M140 S60 ; set bed temp
M190 S60 ; wait for bed temp
M109 S200 ; wait for extruder temp
G28 ; home all
G1 Z2 F240
G1 X2 Y10 F3000
G1 Z0.28 F240
G92 E0.0
G1 Y190 E15.0 F1500.0 ; intro line
G1 X2.3 F5000
G1 Y10 E30 F1200.0 ; intro line
G92 E0.0
G21 ; set units to millimeters
G90 ; use absolute coordinates
M83 ; use relative distances for extrusion
; Filament gcode
;BEFORE_LAYER_CHANGE
;0.2


G1 E-5.00000 F3600.00000
G1 Z0.200 F9000.000
;AFTER_LAYER_CHANGE
;0.2
G1 X100.274 Y100.275
G1 E5.00000 F2400.00000
G1 F1200.000
G1 X101.459 Y99.220 E0.04976
G1 X102.250 Y98.638 E0.03080
G1 X103.607 Y97.822 E0.04964
G1 X105.045 Y97.170 E0.04951
G1 X105.978 Y96.848 E0.03093
G1 X107.512 Y96.473 E0.04951
G1 X108.422 Y96.338 E0.02888
G1 X110.003 Y96.246 E0.04964
G1 X111.583 Y96.338 E0.04964
G1 X112.555 Y96.486 E0.03080
G1 X114.091 Y96.868 E0.04964
G1 X115.569 Y97.425 E0.04951
G1 X116.456 Y97.856 E0.03093
G1 X117.806 Y98.675 E0.04951
G1 X118.547 Y99.225 E0.02895
G1 X119.725 Y100.274 E0.04943
G1 X120.775 Y101.453 E0.04951
G1 X121.323 Y102.193 E0.02888
G1 X122.145 Y103.546 E0.04964
G1 X122.575 Y104.431 E0.03088
G1 X123.131 Y105.907 E0.04943
G1 X123.514 Y107.447 E0.04977
G1 X123.662 Y108.418 E0.03080
G1 X123.754 Y109.999 E0.04964
G1 X123.663 Y111.575 E0.04951
G1 X123.528 Y112.486 E0.02888
G1 X123.153 Y114.020 E0.04951
G1 X122.830 Y114.955 E0.03101
G1 X122.177 Y116.394 E0.04956
G1 X121.361 Y117.751 E0.04964
G1 X120.779 Y118.542 E0.03080
G1 X119.727 Y119.725 E0.04964
G1 X118.547 Y120.775 E0.04951
G1 X117.807 Y121.323 E0.02888
G1 X116.458 Y122.143 E0.04951
G1 X115.569 Y122.575 E0.03100
G1 X114.093 Y123.131 E0.04943
G1 X112.553 Y123.514 E0.04977
G1 X111.586 Y123.662 E0.03067
G1 X110.001 Y123.754 E0.04977
G1 X108.425 Y123.663 E0.04951
G1 X107.514 Y123.528 E0.02888
G1 X105.980 Y123.153 E0.04951
G1 X105.045 Y122.830 E0.03101
G1 X103.609 Y122.179 E0.04943
G1 X102.249 Y121.361 E0.04977
G1 X101.458 Y120.779 E0.03080
G1 X100.275 Y119.726 E0.04964
G1 X99.225 Y118.547 E0.04951
G1 X98.677 Y117.807 E0.02888
G1 X97.857 Y116.458 E0.04951
G1 X97.425 Y115.569 E0.03100
G1 X96.869 Y114.093 E0.04943
G1 X96.486 Y112.553 E0.04977
G1 X96.338 Y111.586 E0.03067
G1 X96.246 Y110.001 E0.04977
G1 X96.337 Y108.425 E0.04951
G1 X96.472 Y107.514 E0.02888
G1 X96.847 Y105.980 E0.04951
G1 X97.170 Y105.045 E0.03101
G1 X97.821 Y103.609 E0.04943
G1 X98.639 Y102.249 E0.04977
G1 X99.221 Y101.458 E0.03080
G1 X100.234 Y100.320 E0.04776
G1 X100.515 Y100.570 F9000.000
G1 F1200.000
G1 X101.700 Y99.510 E0.04986
G1 X102.455 Y98.955 E0.02939
G1 X103.784 Y98.155 E0.04862
G1 X105.190 Y97.519 E0.04838
G1 X106.083 Y97.210 E0.02963
G1 X107.582 Y96.843 E0.04838
G1 X108.459 Y96.713 E0.02781
G1 X110.004 Y96.623 E0.04854
G1 X111.549 Y96.714 E0.04850
G1 X112.475 Y96.855 E0.02939
G1 X113.980 Y97.229 E0.04862
G1 X115.424 Y97.773 E0.04838
G1 X116.274 Y98.186 E0.02963
G1 X117.593 Y98.987 E0.04838
G1 X118.306 Y99.515 E0.02781
G1 X119.459 Y100.541 E0.04842
G1 X120.490 Y101.700 E0.04862
G1 X121.045 Y102.455 E0.02939
G1 X121.845 Y103.784 E0.04862
G1 X122.481 Y105.190 E0.04838
G1 X122.790 Y106.083 E0.02963
G1 X123.157 Y107.582 E0.04838
G1 X123.287 Y108.459 E0.02781
G1 X123.377 Y110.001 E0.04842
G1 X123.286 Y111.549 E0.04862
G1 X123.145 Y112.475 E0.02939
G1 X122.771 Y113.980 E0.04862
G1 X122.227 Y115.424 E0.04838
G1 X121.814 Y116.274 E0.02963
G1 X121.013 Y117.593 E0.04838
G1 X120.485 Y118.306 E0.02781
G1 X119.459 Y119.459 E0.04842
G1 X118.300 Y120.490 E0.04862
G1 X117.545 Y121.045 E0.02939
G1 X116.216 Y121.845 E0.04862
G1 X114.810 Y122.481 E0.04838
G1 X113.917 Y122.790 E0.02963
G1 X112.418 Y123.157 E0.04838
G1 X111.541 Y123.287 E0.02781
G1 X109.999 Y123.377 E0.04842
G1 X108.451 Y123.286 E0.04862
G1 X107.525 Y123.145 E0.02939
G1 X106.020 Y122.771 E0.04862
G1 X104.576 Y122.227 E0.04838
G1 X103.726 Y121.814 E0.02963
G1 X102.407 Y121.013 E0.04838
G1 X101.694 Y120.485 E0.02781
G1 X100.541 Y119.459 E0.04842
G1 X99.510 Y118.300 E0.04862
G1 X98.955 Y117.545 E0.02939
G1 X98.155 Y116.216 E0.04862
G1 X97.519 Y114.810 E0.04838
G1 X97.210 Y113.917 E0.02963
G1 X96.843 Y112.418 E0.04838
G1 X96.713 Y111.541 E0.02781
G1 X96.623 Y109.999 E0.04842
G1 X96.714 Y108.451 E0.04862
G1 X96.855 Y107.525 E0.02939
G1 X97.229 Y106.020 E0.04862
G1 X97.773 Y104.576 E0.04838
G1 X98.186 Y103.726 E0.02963
G1 X98.987 Y102.407 E0.04838
G1 X99.515 Y101.694 E0.02781
G1 X100.475 Y100.615 E0.04529
G1 E-3.50000 F3600.00000
G1 F7200.000
G1 X101.700 Y99.510 E-0.78366
G1 X102.455 Y98.955 E-0.44527
G1 X102.809 Y98.742 E-0.19606
G1 E-0.07500 F3600.00000
G1 X102.873 Y102.937 F9000.000
G1 E5.00000 F2400.00000
G1 F1200.000
G1 X103.347 Y102.487 E0.02049
G1 X103.811 Y102.100 E0.01895
G1 X104.299 Y101.741 E0.01901
G1 X104.808 Y101.412 E0.01901
G1 X105.336 Y101.114 E0.01901
G1 X105.840 Y100.869 E0.01758
G1 X106.443 Y100.616 E0.02049
G1 X107.014 Y100.419 E0.01895
G1 X107.555 Y100.268 E0.01758
G1 X108.193 Y100.129 E0.02049
G1 X108.790 Y100.038 E0.01895
G1 X109.394 Y99.983 E0.01901
G1 X110.000 Y99.965 E0.01901
G1 X110.560 Y99.982 E0.01758
G1 X111.212 Y100.038 E0.02049
G1 X111.809 Y100.129 E0.01895
G1 X112.402 Y100.256 E0.01901
G1 X112.986 Y100.419 E0.01901
G1 X113.559 Y100.617 E0.01901
G1 X114.119 Y100.849 E0.01901
G1 X114.664 Y101.114 E0.01901
G1 X115.192 Y101.412 E0.01901
G1 X115.701 Y101.741 E0.01901
G1 X116.189 Y102.100 E0.01901
G1 X116.655 Y102.488 E0.01901
G1 X117.063 Y102.873 E0.01758
G1 X117.513 Y103.347 E0.02049
G1 X117.900 Y103.811 E0.01895
G1 X118.259 Y104.299 E0.01901
G1 X118.588 Y104.808 E0.01901
G1 X118.886 Y105.336 E0.01901
G1 X119.131 Y105.840 E0.01758
G1 X119.384 Y106.443 E0.02049
G1 X119.581 Y107.014 E0.01895
G1 X119.744 Y107.598 E0.01901
G1 X119.871 Y108.191 E0.01901
G1 X119.955 Y108.745 E0.01758
G1 X120.017 Y109.396 E0.02049
G1 X120.035 Y110.000 E0.01895
G1 X120.017 Y110.606 E0.01901
G1 X119.962 Y111.210 E0.01901
G1 X119.871 Y111.809 E0.01901
G1 X119.744 Y112.402 E0.01901
G1 X119.581 Y112.986 E0.01901
G1 X119.383 Y113.559 E0.01901
G1 X119.151 Y114.119 E0.01901
G1 X118.886 Y114.664 E0.01901
G1 X118.588 Y115.192 E0.01901
G1 X118.259 Y115.701 E0.01901
G1 X117.900 Y116.189 E0.01901
G1 X117.512 Y116.655 E0.01901
G1 X117.096 Y117.096 E0.01901
G1 X116.655 Y117.512 E0.01901
G1 X116.189 Y117.900 E0.01901
G1 X115.701 Y118.259 E0.01901
G1 X115.192 Y118.588 E0.01901
G1 X114.664 Y118.886 E0.01901
G1 X114.119 Y119.151 E0.01901
G1 X113.559 Y119.383 E0.01901
G1 X112.986 Y119.581 E0.01901
G1 X112.402 Y119.744 E0.01901
G1 X111.809 Y119.871 E0.01901
G1 X111.255 Y119.955 E0.01758
G1 X110.604 Y120.017 E0.02049
G1 X110.000 Y120.035 E0.01895
G1 X109.394 Y120.017 E0.01901
G1 X108.790 Y119.962 E0.01901
G1 X108.191 Y119.871 E0.01901
G1 X107.598 Y119.744 E0.01901
G1 X107.014 Y119.581 E0.01901
G1 X106.441 Y119.383 E0.01901
G1 X105.881 Y119.151 E0.01901
G1 X105.336 Y118.886 E0.01901
G1 X104.808 Y118.588 E0.01901
G1 X104.299 Y118.259 E0.01901
G1 X103.811 Y117.900 E0.01901
G1 X103.345 Y117.512 E0.01901
G1 X102.937 Y117.127 E0.01758
G1 X102.487 Y116.653 E0.02049
G1 X102.100 Y116.189 E0.01895
G1 X101.741 Y115.701 E0.01901
G1 X101.412 Y115.192 E0.01901
G1 X101.114 Y114.664 E0.01901
G1 X100.849 Y114.119 E0.01901
G1 X100.617 Y113.559 E0.01901
G1 X100.419 Y112.986 E0.01901
G1 X100.256 Y112.402 E0.01901
G1 X100.129 Y111.809 E0.01901
G1 X100.045 Y111.255 E0.01758
G1 X99.983 Y110.604 E0.02049
G1 X99.965 Y110.000 E0.01895
G1 X99.983 Y109.394 E0.01901
G1 X100.038 Y108.790 E0.01901
G1 X100.129 Y108.191 E0.01901
G1 X100.256 Y107.598 E0.01901
G1 X100.419 Y107.014 E0.01901
G1 X100.617 Y106.441 E0.01901
G1 X100.849 Y105.881 E0.01901
G1 X101.114 Y105.336 E0.01901
G1 X101.412 Y104.808 E0.01901
G1 X101.741 Y104.299 E0.01901
G1 X102.100 Y103.811 E0.01901
G1 X102.488 Y103.345 E0.01901
G1 X102.832 Y102.981 E0.01570
G1 X102.557 Y102.722 F9000.000
G1 F1200.000
G1 X103.096 Y102.205 E0.02342
G1 X103.578 Y101.803 E0.01968
G1 X104.085 Y101.431 E0.01972
G1 X104.613 Y101.089 E0.01972
G1 X105.161 Y100.780 E0.01972
G1 X105.685 Y100.525 E0.01827
G1 X106.309 Y100.264 E0.02121
G1 X106.902 Y100.059 E0.01968
G1 X107.464 Y99.902 E0.01827
G1 X108.124 Y99.758 E0.02121
G1 X108.745 Y99.663 E0.01968
G1 X109.371 Y99.606 E0.01972
G1 X110.000 Y99.587 E0.01972
G1 X110.582 Y99.605 E0.01827
G1 X111.256 Y99.663 E0.02121
G1 X111.877 Y99.758 E0.01968
G1 X112.492 Y99.890 E0.01972
G1 X113.098 Y100.059 E0.01972
G1 X113.692 Y100.264 E0.01972
G1 X114.273 Y100.505 E0.01972
G1 X114.839 Y100.780 E0.01972
G1 X115.387 Y101.089 E0.01972
G1 X115.915 Y101.431 E0.01972
G1 X116.422 Y101.803 E0.01972
G1 X116.905 Y102.206 E0.01972
G1 X117.329 Y102.605 E0.01827
G1 X117.795 Y103.096 E0.02121
G1 X118.197 Y103.578 E0.01968
G1 X118.569 Y104.085 E0.01972
G1 X118.911 Y104.613 E0.01972
G1 X119.220 Y105.161 E0.01972
G1 X119.475 Y105.685 E0.01827
G1 X119.736 Y106.309 E0.02121
G1 X119.941 Y106.902 E0.01968
G1 X120.110 Y107.508 E0.01972
G1 X120.242 Y108.123 E0.01972
G1 X120.330 Y108.699 E0.01827
G1 X120.394 Y109.372 E0.02121
G1 X120.413 Y110.000 E0.01968
G1 X120.394 Y110.629 E0.01972
G1 X120.337 Y111.255 E0.01972
G1 X120.242 Y111.877 E0.01972
G1 X120.110 Y112.492 E0.01972
G1 X119.941 Y113.098 E0.01972
G1 X119.736 Y113.692 E0.01972
G1 X119.495 Y114.273 E0.01972
G1 X119.220 Y114.839 E0.01972
G1 X118.911 Y115.387 E0.01972
G1 X118.569 Y115.915 E0.01972
G1 X118.197 Y116.422 E0.01972
G1 X117.794 Y116.905 E0.01972
G1 X117.363 Y117.363 E0.01972
G1 X116.905 Y117.794 E0.01972
G1 X116.422 Y118.197 E0.01972
G1 X115.915 Y118.569 E0.01972
G1 X115.387 Y118.911 E0.01972
G1 X114.839 Y119.220 E0.01972
G1 X114.273 Y119.495 E0.01972
G1 X113.692 Y119.736 E0.01972
G1 X113.098 Y119.941 E0.01972
G1 X112.492 Y120.110 E0.01972
G1 X111.877 Y120.242 E0.01972
G1 X111.301 Y120.330 E0.01827
G1 X110.628 Y120.394 E0.02121
G1 X110.000 Y120.413 E0.01968
G1 X109.371 Y120.394 E0.01972
G1 X108.745 Y120.337 E0.01972
G1 X108.123 Y120.242 E0.01972
G1 X107.508 Y120.110 E0.01972
G1 X106.902 Y119.941 E0.01972
G1 X106.308 Y119.736 E0.01972
G1 X105.727 Y119.495 E0.01972
G1 X105.161 Y119.220 E0.01972
G1 X104.613 Y118.911 E0.01972
G1 X104.085 Y118.569 E0.01972
G1 X103.578 Y118.197 E0.01972
G1 X103.095 Y117.794 E0.01972
G1 X102.671 Y117.395 E0.01827
G1 X102.205 Y116.904 E0.02121
G1 X101.803 Y116.422 E0.01968
G1 X101.431 Y115.915 E0.01972
G1 X101.089 Y115.387 E0.01972
G1 X100.780 Y114.839 E0.01972
G1 X100.505 Y114.273 E0.01972
G1 X100.264 Y113.692 E0.01972
G1 X100.059 Y113.098 E0.01972
G1 X99.890 Y112.492 E0.01972
G1 X99.758 Y111.877 E0.01972
G1 X99.670 Y111.301 E0.01827
G1 X99.606 Y110.628 E0.02121
G1 X99.587 Y110.000 E0.01968
G1 X99.606 Y109.371 E0.01972
G1 X99.663 Y108.745 E0.01972
G1 X99.758 Y108.123 E0.01972
G1 X99.890 Y107.508 E0.01972
G1 X100.059 Y106.902 E0.01972
G1 X100.264 Y106.308 E0.01972
G1 X100.505 Y105.727 E0.01972
G1 X100.780 Y105.161 E0.01972
G1 X101.089 Y104.613 E0.01972
G1 X101.431 Y104.085 E0.01972
G1 X101.803 Y103.578 E0.01972
G1 X102.206 Y103.095 E0.01972
G1 X102.516 Y102.766 E0.01417
G1 X102.241 Y102.507 F9000.000
G1 F1200.000
G1 X102.845 Y101.923 E0.02635
G1 X103.346 Y101.506 E0.02042
G1 X103.871 Y101.120 E0.02044
G1 X104.418 Y100.766 E0.02044
G1 X104.986 Y100.446 E0.02044
G1 X105.529 Y100.181 E0.01896
G1 X106.174 Y99.911 E0.02192
G1 X106.790 Y99.699 E0.02042
G1 X107.372 Y99.536 E0.01896
G1 X108.055 Y99.387 E0.02192
G1 X108.699 Y99.289 E0.02042
G1 X109.349 Y99.230 E0.02044
G1 X110.000 Y99.210 E0.02044
G1 X110.604 Y99.228 E0.01896
G1 X111.301 Y99.289 E0.02192
G1 X111.945 Y99.387 E0.02042
G1 X112.582 Y99.524 E0.02044
G1 X113.210 Y99.699 E0.02044
G1 X113.826 Y99.911 E0.02044
G1 X114.428 Y100.161 E0.02044
G1 X115.014 Y100.446 E0.02044
G1 X115.582 Y100.766 E0.02044
G1 X116.129 Y101.120 E0.02044
G1 X116.654 Y101.506 E0.02044
G1 X117.155 Y101.924 E0.02044
G1 X117.595 Y102.338 E0.01896
G1 X118.077 Y102.845 E0.02192
G1 X118.494 Y103.346 E0.02042
G1 X118.880 Y103.871 E0.02044
G1 X119.234 Y104.418 E0.02044
G1 X119.554 Y104.986 E0.02044
G1 X119.819 Y105.529 E0.01896
G1 X120.089 Y106.174 E0.02192
G1 X120.301 Y106.790 E0.02042
G1 X120.476 Y107.418 E0.02044
G1 X120.613 Y108.055 E0.02044
G1 X120.704 Y108.653 E0.01896
G1 X120.770 Y109.349 E0.02192
G1 X120.790 Y110.000 E0.02042
G1 X120.770 Y110.651 E0.02044
G1 X120.711 Y111.301 E0.02044
G1 X120.613 Y111.945 E0.02044
G1 X120.476 Y112.582 E0.02044
G1 X120.301 Y113.210 E0.02044
G1 X120.089 Y113.826 E0.02044
G1 X119.839 Y114.428 E0.02044
G1 X119.554 Y115.014 E0.02044
G1 X119.234 Y115.582 E0.02044
G1 X118.880 Y116.129 E0.02044
G1 X118.494 Y116.654 E0.02044
G1 X118.076 Y117.155 E0.02044
G1 X117.630 Y117.630 E0.02044
G1 X117.155 Y118.076 E0.02044
G1 X116.654 Y118.494 E0.02044
G1 X116.129 Y118.880 E0.02044
G1 X115.582 Y119.234 E0.02044
G1 X115.014 Y119.554 E0.02044
G1 X114.428 Y119.839 E0.02044
G1 X113.826 Y120.089 E0.02044
G1 X113.210 Y120.301 E0.02044
G1 X112.582 Y120.476 E0.02044
G1 X111.945 Y120.613 E0.02044
G1 X111.347 Y120.704 E0.01896
G1 X110.651 Y120.770 E0.02192
G1 X110.000 Y120.790 E0.02042
G1 X109.349 Y120.770 E0.02044
G1 X108.699 Y120.711 E0.02044
G1 X108.055 Y120.613 E0.02044
G1 X107.418 Y120.476 E0.02044
G1 X106.790 Y120.301 E0.02044
G1 X106.174 Y120.089 E0.02044
G1 X105.572 Y119.839 E0.02044
G1 X104.986 Y119.554 E0.02044
G1 X104.418 Y119.234 E0.02044
G1 X103.871 Y118.880 E0.02044
G1 X103.346 Y118.494 E0.02044
G1 X102.845 Y118.076 E0.02044
G1 X102.405 Y117.662 E0.01896
G1 X101.923 Y117.155 E0.02192
G1 X101.506 Y116.654 E0.02042
G1 X101.120 Y116.129 E0.02044
G1 X100.766 Y115.582 E0.02044
G1 X100.446 Y115.014 E0.02044
G1 X100.161 Y114.428 E0.02044
G1 X99.911 Y113.826 E0.02044
G1 X99.699 Y113.210 E0.02044
G1 X99.524 Y112.582 E0.02044
G1 X99.387 Y111.945 E0.02044
G1 X99.296 Y111.347 E0.01896
G1 X99.230 Y110.651 E0.02192
G1 X99.210 Y110.000 E0.02042
G1 X99.230 Y109.349 E0.02044
G1 X99.289 Y108.699 E0.02044
G1 X99.387 Y108.055 E0.02044
G1 X99.524 Y107.418 E0.02044
G1 X99.699 Y106.790 E0.02044
G1 X99.911 Y106.174 E0.02044
G1 X100.161 Y105.572 E0.02044
G1 X100.446 Y104.986 E0.02044
G1 X100.766 Y104.418 E0.02044
G1 X101.120 Y103.871 E0.02044
G1 X101.506 Y103.346 E0.02044
G1 X101.924 Y102.845 E0.02044
G1 X102.200 Y102.551 E0.01265
G1 X102.629 Y102.607 F9000.000
G1 E-3.50000 F3600.00000
G1 F7200.000
G1 X102.845 Y101.923 E-0.42758
G1 X103.346 Y101.506 E-0.30939
G1 X103.871 Y101.120 E-0.30959
G1 X104.418 Y100.766 E-0.30959
G1 X104.544 Y100.695 E-0.06884
G1 E-0.07500 F3600.00000
G1 X118.195 Y104.408 F9000.000
G1 E5.00000 F2400.00000
G1 F1200.000
G1 X116.467 Y102.700 E0.07723
G1 X116.015 Y102.323 E0.01873
G1 X115.540 Y101.974 E0.01873
G1 X115.045 Y101.654 E0.01873
G1 X114.712 Y101.466 E0.01218
G1 X118.534 Y105.288 E0.17184
G1 X118.874 Y105.957 E0.02384
G1 X119.026 Y106.321 E0.01254
G1 X113.677 Y100.972 E0.24046
G1 X112.835 Y100.671 E0.02843
G1 X119.329 Y107.165 E0.29194
G1 X119.518 Y107.894 E0.02395
G1 X112.106 Y100.482 E0.33322
G1 X111.443 Y100.359 E0.02144
G1 X119.641 Y108.557 E0.36855
G1 X119.712 Y109.169 E0.01957
G1 X110.832 Y100.289 E0.39920
G1 X110.257 Y100.255 E0.01829
G1 X119.745 Y109.743 E0.42651
G1 X119.744 Y110.283 E0.01716
G1 X109.717 Y100.256 E0.45075
G1 X109.205 Y100.284 E0.01632
G1 X119.716 Y110.795 E0.47253
G1 X119.665 Y111.285 E0.01564
G1 X108.715 Y100.335 E0.49224
G1 X108.246 Y100.407 E0.01509
G1 X119.593 Y111.754 E0.51012
G1 X119.498 Y112.199 E0.01448
G1 X107.802 Y100.504 E0.52578
G1 X107.371 Y100.613 E0.01414
G1 X119.387 Y112.629 E0.54017
G1 X119.262 Y113.044 E0.01379
