; generated by PrusaSlicer 2.2.0+win64 on 2021-04-10 at 01:43:31 UTC

; 

; external perimeters extrusion width = 0.45mm
; perimeters extrusion width = 0.45mm
; infill extrusion width = 0.45mm
; solid infill extrusion width = 0.45mm
; top infill extrusion width = 0.40mm
; first layer extrusion width = 0.42mm

M201 X500 Y500 Z100 E5000 ; sets maximum accelerations, mm/sec^2
M203 X500 Y500 Z10 E60 ; sets maximum feedrates, mm/sec
M204 P500 R1000 T500 ; sets acceleration (P, T) and retract acceleration (R), mm/sec^2
M205 X8.00 Y8.00 Z0.40 E5.00 ; sets the jerk limits, mm/sec
M205 S0 T0 ; sets the minimum extruding and travel feed rate, mm/sec
M107
G90 ; use absolute coordinates
M83 ; extruder relative mode
M104 S200 ; set extruder temp
M140 S60 ; set bed temp
M190 S60 ; wait for bed temp
M109 S200 ; wait for extruder temp
G28 ; home all
G1 Z2 F240
G1 X2 Y10 F3000
G1 Z0.28 F240
G92 E0.0
G1 Y190 E15.0 F1500.0 ; intro line
G1 X2.3 F5000
G1 Y10 E30 F1200.0 ; intro line
G92 E0.0
G21 ; set units to millimeters
G90 ; use absolute coordinates
M83 ; use relative distances for extrusion
; Filament gcode
;BEFORE_LAYER_CHANGE
;0.2


G1 E-5.00000 F3600.00000
G1 Z0.200 F9000.000
;AFTER_LAYER_CHANGE
;0.2
G1 X106.612 Y106.783
G1 E5.00000 F2400.00000
G1 F1200.000
G1 X107.558 Y106.366 E0.03241
G1 X108.364 Y106.260 E0.02549
G1 X110.680 Y106.255 E0.07262
G1 X111.717 Y106.271 E0.03252
G1 X112.527 Y106.437 E0.02592
G1 X113.317 Y106.798 E0.02725
G1 X113.989 Y107.319 E0.02665
G1 X169.065 Y162.396 E2.44220
G1 X169.534 Y162.990 E0.02374
G1 X169.847 Y163.597 E0.02140
G1 X170.062 Y164.345 E0.02439
G1 X170.119 Y165.040 E0.02187
G1 X170.032 Y165.805 E0.02416
G1 X169.822 Y166.463 E0.02164
G1 X169.441 Y167.150 E0.02463
G1 X168.978 Y167.692 E0.02235
G1 X168.401 Y168.149 E0.02309
G1 X167.834 Y168.449 E0.02009
G1 X167.214 Y168.649 E0.02045
G1 X166.532 Y168.741 E0.02157
G1 X162.932 Y168.705 E0.11288
G1 X162.106 Y168.484 E0.02681
G1 X161.346 Y168.013 E0.02804
G1 X106.188 Y112.861 E2.44567
G1 X105.662 Y112.085 E0.02941
G1 X105.447 Y111.176 E0.02926
G1 X105.463 Y108.634 E0.07971
G1 X105.617 Y108.025 E0.01971
G1 X105.901 Y107.486 E0.01909
G1 X106.569 Y106.826 E0.02946
G1 E-3.50000 F3600.00000
G1 F7200.000
G1 X107.558 Y106.366 E-0.51767
G1 X108.364 Y106.260 E-0.38623
G1 X109.461 Y106.257 E-0.52110
G1 E-0.07500 F3600.00000
G1 X109.076 Y109.680 F9000.000
G1 E5.00000 F2400.00000
G1 F1200.000
G1 X109.758 Y109.680 E0.02140
G1 X109.728 Y109.819 E0.00444
G1 X109.728 Y110.183 E0.01141
G1 X109.758 Y110.320 E0.00440
G1 X109.076 Y110.320 E0.02141
G1 X109.076 Y109.740 E0.01816
G1 X108.699 Y109.303 F9000.000
G1 F1200.000
G1 X110.314 Y109.303 E0.05064
G1 X110.168 Y109.576 E0.00970
G1 X110.105 Y109.860 E0.00912
G1 X110.105 Y110.141 E0.00881
G1 X110.166 Y110.415 E0.00881
G1 X110.306 Y110.697 E0.00987
G1 X108.699 Y110.697 E0.05040
G1 X108.699 Y109.363 E0.04180
G1 X110.482 Y109.901 F9000.000
G1 F1200.000
G1 X110.525 Y109.708 E0.00620
G1 X110.662 Y109.452 E0.00911
G1 X110.804 Y109.306 E0.00641
G1 X110.970 Y109.198 E0.00621
G1 X111.156 Y109.129 E0.00620
G1 X111.351 Y109.101 E0.00620
G1 X111.640 Y109.140 E0.00912
G1 X111.826 Y109.223 E0.00641
G1 X111.990 Y109.344 E0.00639
G1 X112.165 Y109.570 E0.00893
G1 X112.241 Y109.758 E0.00638
G1 X112.273 Y109.953 E0.00620
G1 X112.241 Y110.242 E0.00910
G1 X112.167 Y110.425 E0.00620
G1 X112.051 Y110.593 E0.00639
G1 X111.826 Y110.778 E0.00912
G1 X111.645 Y110.857 E0.00620
G1 X111.445 Y110.897 E0.00640
G1 X111.155 Y110.872 E0.00912
G1 X110.970 Y110.802 E0.00620
G1 X110.799 Y110.691 E0.00640
G1 X110.609 Y110.471 E0.00911
G1 X110.525 Y110.292 E0.00620
G1 X110.482 Y110.099 E0.00620
G1 X110.482 Y109.961 E0.00432
G1 X110.322 Y109.784 F9000.000
G1 E-3.50000 F3600.00000
G1 F7200.000
G1 X110.525 Y109.708 E-0.12190
G1 X110.662 Y109.452 E-0.13805
G1 X110.804 Y109.306 E-0.09711
G1 X110.970 Y109.198 E-0.09405
G1 X111.156 Y109.129 E-0.09389
G1 X111.351 Y109.101 E-0.09395
G1 X111.640 Y109.140 E-0.13810
G1 X111.826 Y109.223 E-0.09708
G1 X111.990 Y109.344 E-0.09684
G1 X112.165 Y109.570 E-0.13533
G1 X112.241 Y109.758 E-0.09663
G1 X112.273 Y109.953 E-0.09398
G1 X112.243 Y110.222 E-0.12810
G1 E-0.07500 F3600.00000
G1 X108.450 Y108.942 F9000.000
G1 E5.00000 F2400.00000
G1 F1200.000
G1 X108.618 Y108.926 E0.00526
G1 X111.366 Y108.926 E0.08619
G1 X111.543 Y108.940 E0.00554
G1 X111.707 Y108.980 E0.00529
G1 X111.862 Y109.044 E0.00528
G1 X112.006 Y109.132 E0.00528
G1 X112.134 Y109.241 E0.00528
G1 X112.243 Y109.369 E0.00528
G1 X112.331 Y109.513 E0.00528
G1 X112.395 Y109.668 E0.00528
G1 X112.435 Y109.832 E0.00528
G1 X112.448 Y110.000 E0.00528
G1 X112.435 Y110.168 E0.00528
G1 X112.395 Y110.332 E0.00528
G1 X112.331 Y110.487 E0.00528
G1 X112.243 Y110.631 E0.00528
G1 X112.134 Y110.759 E0.00528
G1 X112.006 Y110.868 E0.00528
G1 X111.862 Y110.956 E0.00528
G1 X111.707 Y111.020 E0.00528
G1 X111.543 Y111.060 E0.00529
G1 X111.366 Y111.074 E0.00554
G1 X108.623 Y111.074 E0.08602
G1 X108.378 Y111.038 E0.00777
G1 X108.321 Y111.010 E0.00197
G1 X108.321 Y108.988 E0.06342
G1 X108.393 Y108.959 E0.00242
G1 X108.599 Y109.020 F9000.000
G1 E-3.50000 F3600.00000
G1 F7200.000
G1 X108.618 Y108.926 E-0.10785
G1 X111.366 Y108.926 E-1.30574
G1 X111.390 Y108.928 E-0.01141
G1 E-0.07500 F3600.00000
G1 X120.076 Y120.680 F9000.000
G1 E5.00000 F2400.00000
G1 F1200.000
G1 X120.758 Y120.680 E0.02140
G1 X120.728 Y120.819 E0.00444
G1 X120.728 Y121.183 E0.01141
G1 X120.758 Y121.320 E0.00440
G1 X120.076 Y121.320 E0.02141
G1 X120.076 Y120.740 E0.01816
G1 X119.699 Y120.303 F9000.000
G1 F1200.000
G1 X121.314 Y120.303 E0.05064
G1 X121.168 Y120.576 E0.00970
G1 X121.105 Y120.860 E0.00912
G1 X121.105 Y121.141 E0.00881
G1 X121.166 Y121.415 E0.00881
G1 X121.306 Y121.697 E0.00987
G1 X119.699 Y121.697 E0.05040
G1 X119.699 Y120.363 E0.04180
G1 X121.482 Y120.901 F9000.000
G1 F1200.000
G1 X121.525 Y120.708 E0.00620
G1 X121.662 Y120.452 E0.00911
G1 X121.804 Y120.306 E0.00641
G1 X121.970 Y120.198 E0.00621
G1 X122.156 Y120.129 E0.00620
G1 X122.351 Y120.101 E0.00620
G1 X122.640 Y120.140 E0.00912
G1 X122.826 Y120.223 E0.00641
G1 X122.990 Y120.344 E0.00639
G1 X123.165 Y120.570 E0.00893
G1 X123.241 Y120.758 E0.00638
G1 X123.273 Y120.953 E0.00620
G1 X123.241 Y121.242 E0.00910
G1 X123.167 Y121.425 E0.00620
G1 X123.051 Y121.593 E0.00639
G1 X122.826 Y121.778 E0.00912
G1 X122.645 Y121.857 E0.00620
G1 X122.445 Y121.897 E0.00640
G1 X122.155 Y121.872 E0.00912
G1 X121.970 Y121.802 E0.00620
G1 X121.799 Y121.691 E0.00640
G1 X121.609 Y121.471 E0.00911
G1 X121.525 Y121.292 E0.00620
G1 X121.482 Y121.099 E0.00620
G1 X121.482 Y120.961 E0.00432
G1 X121.322 Y120.784 F9000.000
G1 E-3.50000 F3600.00000
G1 F7200.000
G1 X121.525 Y120.708 E-0.12190
G1 X121.662 Y120.452 E-0.13805
G1 X121.804 Y120.306 E-0.09711
G1 X121.970 Y120.198 E-0.09405
G1 X122.156 Y120.129 E-0.09389
G1 X122.351 Y120.101 E-0.09395
G1 X122.640 Y120.140 E-0.13810
G1 X122.826 Y120.223 E-0.09708
G1 X122.990 Y120.344 E-0.09684
G1 X123.165 Y120.570 E-0.13533
G1 X123.241 Y120.758 E-0.09663
G1 X123.273 Y120.953 E-0.09398
G1 X123.243 Y121.222 E-0.12810
G1 E-0.07500 F3600.00000
G1 X119.450 Y119.942 F9000.000
G1 E5.00000 F2400.00000
G1 F1200.000
G1 X119.618 Y119.926 E0.00526
G1 X122.366 Y119.926 E0.08619
G1 X122.543 Y119.940 E0.00554
G1 X122.707 Y119.980 E0.00529
G1 X122.862 Y120.044 E0.00528
G1 X123.006 Y120.132 E0.00528
G1 X123.134 Y120.241 E0.00528
G1 X123.243 Y120.369 E0.00528
G1 X123.331 Y120.513 E0.00528
G1 X123.395 Y120.668 E0.00528
G1 X123.435 Y120.832 E0.00528
G1 X123.448 Y121.000 E0.00528
G1 X123.435 Y121.168 E0.00528
G1 X123.395 Y121.332 E0.00528
G1 X123.331 Y121.487 E0.00528
G1 X123.243 Y121.631 E0.00528
G1 X123.134 Y121.759 E0.00528
G1 X123.006 Y121.868 E0.00528
G1 X122.862 Y121.956 E0.00528
G1 X122.707 Y122.020 E0.00528
G1 X122.543 Y122.060 E0.00529
G1 X122.366 Y122.074 E0.00554
G1 X119.623 Y122.074 E0.08602
G1 X119.378 Y122.038 E0.00777
G1 X119.321 Y122.010 E0.00197
G1 X119.321 Y119.988 E0.06342
G1 X119.393 Y119.959 E0.00242
G1 X119.599 Y120.020 F9000.000
G1 E-3.50000 F3600.00000
G1 F7200.000
G1 X119.618 Y119.926 E-0.10785
G1 X122.366 Y119.926 E-1.30574
G1 X122.390 Y119.928 E-0.01141
G1 E-0.07500 F3600.00000
G1 X131.076 Y131.680 F9000.000
G1 E5.00000 F2400.00000
G1 F1200.000
G1 X131.758 Y131.680 E0.02140
G1 X131.728 Y131.819 E0.00444
G1 X131.728 Y132.183 E0.01141
G1 X131.758 Y132.320 E0.00440
G1 X131.076 Y132.320 E0.02141
G1 X131.076 Y131.740 E0.01816
G1 X130.699 Y131.303 F9000.000
G1 F1200.000
G1 X132.314 Y131.303 E0.05064
G1 X132.168 Y131.576 E0.00970
G1 X132.105 Y131.860 E0.00912
G1 X132.105 Y132.141 E0.00881
G1 X132.166 Y132.415 E0.00881
G1 X132.306 Y132.697 E0.00987
G1 X130.699 Y132.697 E0.05040
G1 X130.699 Y131.363 E0.04180
G1 X132.482 Y131.901 F9000.000
G1 F1200.000
G1 X132.525 Y131.708 E0.00620
G1 X132.662 Y131.452 E0.00911
G1 X132.804 Y131.306 E0.00641
G1 X132.970 Y131.198 E0.00621
G1 X133.156 Y131.129 E0.00620
G1 X133.351 Y131.101 E0.00620
G1 X133.640 Y131.140 E0.00912
G1 X133.826 Y131.223 E0.00641
G1 X133.990 Y131.344 E0.00639
G1 X134.165 Y131.570 E0.00893
G1 X134.241 Y131.758 E0.00638
G1 X134.273 Y131.953 E0.00620
G1 X134.241 Y132.242 E0.00910
G1 X134.167 Y132.425 E0.00620
G1 X134.051 Y132.593 E0.00639
G1 X133.826 Y132.778 E0.00912
G1 X133.645 Y132.857 E0.00620
G1 X133.445 Y132.897 E0.00640
G1 X133.155 Y132.872 E0.00912
G1 X132.970 Y132.802 E0.00620
G1 X132.799 Y132.691 E0.00640
G1 X132.609 Y132.471 E0.00911
G1 X132.525 Y132.292 E0.00620
G1 X132.482 Y132.099 E0.00620
G1 X132.482 Y131.961 E0.00432
G1 X132.322 Y131.784 F9000.000
G1 E-3.50000 F3600.00000
G1 F7200.000
G1 X132.525 Y131.708 E-0.12190
G1 X132.662 Y131.452 E-0.13805
G1 X132.804 Y131.306 E-0.09711
G1 X132.970 Y131.198 E-0.09405
G1 X133.156 Y131.129 E-0.09389
G1 X133.351 Y131.101 E-0.09395
G1 X133.640 Y131.140 E-0.13810
G1 X133.826 Y131.223 E-0.09708
G1 X133.990 Y131.344 E-0.09684
G1 X134.165 Y131.570 E-0.13533
G1 X134.241 Y131.758 E-0.09663
G1 X134.273 Y131.953 E-0.09398
G1 X134.243 Y132.222 E-0.12810
G1 E-0.07500 F3600.00000
G1 X130.450 Y130.942 F9000.000
G1 E5.00000 F2400.00000
G1 F1200.000
G1 X130.618 Y130.926 E0.00526
G1 X133.366 Y130.926 E0.08619
G1 X133.543 Y130.940 E0.00554
G1 X133.707 Y130.980 E0.00529
G1 X133.862 Y131.044 E0.00528
G1 X134.006 Y131.132 E0.00528
G1 X134.134 Y131.241 E0.00528
G1 X134.243 Y131.369 E0.00528
G1 X134.331 Y131.513 E0.00528
G1 X134.395 Y131.668 E0.00528
G1 X134.435 Y131.832 E0.00528
G1 X134.448 Y132.000 E0.00528
G1 X134.435 Y132.168 E0.00528
G1 X134.395 Y132.332 E0.00528
G1 X134.331 Y132.487 E0.00528
G1 X134.243 Y132.631 E0.00528
G1 X134.134 Y132.759 E0.00528
G1 X134.006 Y132.868 E0.00528
G1 X133.862 Y132.956 E0.00528
G1 X133.707 Y133.020 E0.00528
G1 X133.543 Y133.060 E0.00529
G1 X133.366 Y133.074 E0.00554
G1 X130.623 Y133.074 E0.08602
G1 X130.378 Y133.038 E0.00777
G1 X130.321 Y133.010 E0.00197
G1 X130.321 Y130.988 E0.06342
G1 X130.393 Y130.959 E0.00242
G1 X130.599 Y131.020 F9000.000
G1 E-3.50000 F3600.00000
G1 F7200.000
G1 X130.618 Y130.926 E-0.10785
G1 X133.366 Y130.926 E-1.30574
G1 X133.390 Y130.928 E-0.01141
G1 E-0.07500 F3600.00000
G1 X142.076 Y142.680 F9000.000
G1 E5.00000 F2400.00000
G1 F1200.000
G1 X142.758 Y142.680 E0.02140
G1 X142.728 Y142.819 E0.00444
G1 X142.728 Y143.183 E0.01141
G1 X142.758 Y143.320 E0.00440
G1 X142.076 Y143.320 E0.02141
G1 X142.076 Y142.740 E0.01816
G1 X141.699 Y142.303 F9000.000
G1 F1200.000
G1 X143.314 Y142.303 E0.05064
G1 X143.168 Y142.576 E0.00970
G1 X143.105 Y142.860 E0.00912
G1 X143.105 Y143.141 E0.00881
G1 X143.166 Y143.415 E0.00881
G1 X143.306 Y143.697 E0.00987
G1 X141.699 Y143.697 E0.05040
G1 X141.699 Y142.363 E0.04180
G1 X143.482 Y142.901 F9000.000
G1 F1200.000
G1 X143.525 Y142.708 E0.00620
G1 X143.662 Y142.452 E0.00911
G1 X143.804 Y142.306 E0.00641
G1 X143.970 Y142.198 E0.00621
G1 X144.156 Y142.129 E0.00620
G1 X144.351 Y142.101 E0.00620
G1 X144.640 Y142.140 E0.00912
G1 X144.826 Y142.223 E0.00641
G1 X144.990 Y142.344 E0.00639
G1 X145.165 Y142.570 E0.00893
G1 X145.241 Y142.758 E0.00638
G1 X145.273 Y142.953 E0.00620
G1 X145.241 Y143.242 E0.00910
G1 X145.167 Y143.425 E0.00620
G1 X145.051 Y143.593 E0.00639
G1 X144.826 Y143.778 E0.00912
G1 X144.645 Y143.857 E0.00620
G1 X144.445 Y143.897 E0.00640
G1 X144.155 Y143.872 E0.00912
G1 X143.970 Y143.802 E0.00620
G1 X143.799 Y143.691 E0.00640
G1 X143.609 Y143.471 E0.00911
G1 X143.525 Y143.292 E0.00620
G1 X143.482 Y143.099 E0.00620
G1 X143.482 Y142.961 E0.00432
G1 X143.322 Y142.784 F9000.000
G1 E-3.50000 F3600.00000
G1 F7200.000
G1 X143.525 Y142.708 E-0.12190
G1 X143.662 Y142.452 E-0.13805
G1 X143.804 Y142.306 E-0.09711
G1 X143.970 Y142.198 E-0.09405
G1 X144.156 Y142.129 E-0.09389
G1 X144.351 Y142.101 E-0.09395
G1 X144.640 Y142.140 E-0.13810
G1 X144.826 Y142.223 E-0.09708
G1 X144.990 Y142.344 E-0.09684
G1 X145.165 Y142.570 E-0.13533
G1 X145.241 Y142.758 E-0.09663
G1 X145.273 Y142.953 E-0.09398
G1 X145.243 Y143.222 E-0.12810
G1 E-0.07500 F3600.00000
G1 X141.450 Y141.942 F9000.000
G1 E5.00000 F2400.00000
G1 F1200.000
G1 X141.618 Y141.926 E0.00526
G1 X144.366 Y141.926 E0.08619
G1 X144.543 Y141.940 E0.00554
G1 X144.707 Y141.980 E0.00529
G1 X144.862 Y142.044 E0.00528
G1 X145.006 Y142.132 E0.00528
G1 X145.134 Y142.241 E0.00528
G1 X145.243 Y142.369 E0.00528
G1 X145.331 Y142.513 E0.00528
G1 X145.395 Y142.668 E0.00528
G1 X145.435 Y142.832 E0.00528
G1 X145.448 Y143.000 E0.00528
G1 X145.435 Y143.168 E0.00528
G1 X145.395 Y143.332 E0.00528
G1 X145.331 Y143.487 E0.00528
G1 X145.243 Y143.631 E0.00528
G1 X145.134 Y143.759 E0.00528
G1 X145.006 Y143.868 E0.00528
G1 X144.862 Y143.956 E0.00528
G1 X144.707 Y144.020 E0.00528
G1 X144.543 Y144.060 E0.00529
G1 X144.366 Y144.074 E0.00554
G1 X141.623 Y144.074 E0.08602
G1 X141.378 Y144.038 E0.00777
G1 X141.321 Y144.010 E0.00197
G1 X141.321 Y141.988 E0.06342
G1 X141.393 Y141.959 E0.00242
G1 X141.599 Y142.020 F9000.000
G1 E-3.50000 F3600.00000
G1 F7200.000
G1 X141.618 Y141.926 E-0.10785
G1 X144.366 Y141.926 E-1.30574
G1 X144.390 Y141.928 E-0.01141
G1 E-0.07500 F3600.00000
G1 X153.076 Y153.680 F9000.000
G1 E5.00000 F2400.00000
G1 F1200.000
G1 X153.758 Y153.680 E0.02140
G1 X153.728 Y153.819 E0.00444
G1 X153.728 Y154.183 E0.01141
G1 X153.758 Y154.320 E0.00440
G1 X153.076 Y154.320 E0.02141
G1 X153.076 Y153.740 E0.01816
G1 X152.699 Y153.303 F9000.000
G1 F1200.000
G1 X154.314 Y153.303 E0.05064
G1 X154.168 Y153.576 E0.00970
G1 X154.105 Y153.860 E0.00912
G1 X154.105 Y154.141 E0.00881
G1 X154.166 Y154.415 E0.00881
G1 X154.306 Y154.697 E0.00987
G1 X152.699 Y154.697 E0.05040
G1 X152.699 Y153.363 E0.04180
G1 X154.482 Y153.901 F9000.000
G1 F1200.000
G1 X154.525 Y153.708 E0.00620
G1 X154.662 Y153.452 E0.00911
G1 X154.804 Y153.306 E0.00641
G1 X154.970 Y153.198 E0.00621
G1 X155.156 Y153.129 E0.00620
G1 X155.351 Y153.101 E0.00620
G1 X155.640 Y153.140 E0.00912
G1 X155.826 Y153.223 E0.00641
G1 X155.990 Y153.344 E0.00639
G1 X156.165 Y153.570 E0.00893
G1 X156.241 Y153.758 E0.00638
G1 X156.273 Y153.953 E0.00620
G1 X156.241 Y154.242 E0.00910
G1 X156.167 Y154.425 E0.00620
G1 X156.051 Y154.593 E0.00639
G1 X155.826 Y154.778 E0.00912
G1 X155.645 Y154.857 E0.00620
G1 X155.445 Y154.897 E0.00640
G1 X155.155 Y154.872 E0.00912
G1 X154.970 Y154.802 E0.00620
G1 X154.799 Y154.691 E0.00640
G1 X154.609 Y154.471 E0.00911
G1 X154.525 Y154.292 E0.00620
G1 X154.482 Y154.099 E0.00620
G1 X154.482 Y153.961 E0.00432
G1 X154.322 Y153.784 F9000.000
G1 E-3.50000 F3600.00000
G1 F7200.000
G1 X154.525 Y153.708 E-0.12190
G1 X154.662 Y153.452 E-0.13805
G1 X154.804 Y153.306 E-0.09711
G1 X154.970 Y153.198 E-0.09405
G1 X155.156 Y153.129 E-0.09389
G1 X155.351 Y153.101 E-0.09395
G1 X155.640 Y153.140 E-0.13810
G1 X155.826 Y153.223 E-0.09708
G1 X155.990 Y153.344 E-0.09684
G1 X156.165 Y153.570 E-0.13533
G1 X156.241 Y153.758 E-0.09663
G1 X156.273 Y153.953 E-0.09398
G1 X156.243 Y154.222 E-0.12810
G1 E-0.07500 F3600.00000
G1 X152.450 Y152.942 F9000.000
G1 E5.00000 F2400.00000
G1 F1200.000
G1 X152.618 Y152.926 E0.00526
G1 X155.366 Y152.926 E0.08619
G1 X155.543 Y152.940 E0.00554
G1 X155.707 Y152.980 E0.00529
G1 X155.862 Y153.044 E0.00528
G1 X156.006 Y153.132 E0.00528
G1 X156.134 Y153.241 E0.00528
