; generated by PrusaSlicer 2.2.0+win64 on 2021-04-10 at 04:51:25 UTC

; 

; external perimeters extrusion width = 0.45mm
; perimeters extrusion width = 0.45mm
; infill extrusion width = 0.45mm
; solid infill extrusion width = 0.45mm
; top infill extrusion width = 0.40mm
; first layer extrusion width = 0.42mm

M201 X500 Y500 Z100 E5000 ; sets maximum accelerations, mm/sec^2
M203 X500 Y500 Z10 E60 ; sets maximum feedrates, mm/sec
M204 P500 R1000 T500 ; sets acceleration (P, T) and retract acceleration (R), mm/sec^2
M205 X8.00 Y8.00 Z0.40 E5.00 ; sets the jerk limits, mm/sec
M205 S0 T0 ; sets the minimum extruding and travel feed rate, mm/sec
M107
G90 ; use absolute coordinates
M83 ; extruder relative mode
M104 S200 ; set extruder temp
M140 S60 ; set bed temp
M190 S60 ; wait for bed temp
M109 S200 ; wait for extruder temp
G28 ; home all
G1 Z2 F240
G1 X2 Y10 F3000
G1 Z0.28 F240
G92 E0.0
G1 Y190 E15.0 F1500.0 ; intro line
G1 X2.3 F5000
G1 Y10 E30 F1200.0 ; intro line
G92 E0.0
G21 ; set units to millimeters
G90 ; use absolute coordinates
M83 ; use relative distances for extrusion
; Filament gcode
;BEFORE_LAYER_CHANGE
;0.2


G1 E-5.00000 F3600.00000
G1 Z0.200 F9000.000
;AFTER_LAYER_CHANGE
;0.2
G1 X105.484 Y106.243
G1 E5.00000 F2400.00000
G1 F900
G1 X106.097 Y105.769 E0.02430
G1 X106.769 Y105.431 E0.02360
G1 X108.013 Y105.149 E0.04000
G1 X110.681 Y105.123 E0.08364
G1 X112.102 Y105.179 E0.04460
G1 X113.263 Y105.505 E0.03781
G1 X114.331 Y106.123 E0.03867
G1 X115.265 Y107.061 E0.04151
G1 X115.884 Y108.144 E0.03911
G1 X116.207 Y109.353 E0.03925
G1 X116.203 Y110.677 E0.04151
G1 X115.869 Y111.893 E0.03954
G1 X115.333 Y112.848 E0.03435
G1 X114.607 Y113.651 E0.03392
G1 X113.702 Y114.284 E0.03464
G1 X112.770 Y114.672 E0.03164
G1 X111.594 Y114.871 E0.03741
G1 X108.463 Y114.875 E0.09816
G1 X107.503 Y114.780 E0.03025
G1 X106.686 Y114.534 E0.02674
G1 X105.925 Y114.117 E0.02723
G1 X105.282 Y113.548 E0.02692
G1 X104.786 Y112.858 E0.02666
G1 X104.473 Y112.123 E0.02505
G1 X104.317 Y111.221 E0.02871
G1 X104.314 Y108.848 E0.07439
G1 X104.395 Y108.176 E0.02123
G1 X104.609 Y107.500 E0.02222
G1 X104.988 Y106.818 E0.02446
G1 X105.445 Y106.289 E0.02193
G1 X106.988 Y105.752 F9000.000
G1 F900
G1 X108.147 Y105.517 E0.03708
G1 X110.680 Y105.500 E0.07945
G1 X112.039 Y105.550 E0.04264
G1 X113.124 Y105.855 E0.03534
G1 X114.205 Y106.504 E0.03952
G1 X115.004 Y107.341 E0.03629
G1 X115.570 Y108.375 E0.03697
G1 X115.857 Y109.607 E0.03966
G1 X115.806 Y110.777 E0.03669
G1 X115.428 Y111.952 E0.03871
G1 X114.944 Y112.738 E0.02896
G1 X114.233 Y113.474 E0.03207
G1 X113.398 Y114.018 E0.03125
G1 X112.439 Y114.371 E0.03207
G1 X111.468 Y114.497 E0.03069
G1 X108.302 Y114.492 E0.09925
G1 X107.441 Y114.381 E0.02723
G1 X106.639 Y114.099 E0.02664
G1 X105.976 Y113.685 E0.02453
G1 X105.443 Y113.159 E0.02346
G1 X105.034 Y112.521 E0.02378
G1 X104.784 Y111.832 E0.02297
G1 X104.691 Y111.141 E0.02187
G1 X104.694 Y108.788 E0.07378
G1 X104.784 Y108.167 E0.01968
G1 X105.004 Y107.540 E0.02082
G1 X105.356 Y106.953 E0.02147
G1 X105.815 Y106.450 E0.02137
G1 X106.371 Y106.043 E0.02158
G1 X106.933 Y105.778 E0.01950
G1 X107.182 Y106.084 F9000.000
G1 F900
G1 X108.194 Y105.891 E0.03232
G1 X110.680 Y105.878 E0.07794
G1 X111.970 Y105.921 E0.04046
G1 X112.966 Y106.198 E0.03242
G1 X113.968 Y106.797 E0.03662
G1 X114.704 Y107.569 E0.03344
G1 X115.220 Y108.517 E0.03382
G1 X115.483 Y109.667 E0.03700
G1 X115.428 Y110.744 E0.03382
G1 X115.054 Y111.859 E0.03687
G1 X114.534 Y112.648 E0.02961
G1 X113.878 Y113.274 E0.02846
G1 X113.167 Y113.712 E0.02617
G1 X112.299 Y114.017 E0.02885
G1 X111.445 Y114.121 E0.02698
G1 X108.305 Y114.115 E0.09842
G1 X107.488 Y114.005 E0.02585
G1 X106.735 Y113.727 E0.02518
G1 X106.163 Y113.352 E0.02144
G1 X105.696 Y112.872 E0.02099
G1 X105.345 Y112.300 E0.02105
G1 X105.134 Y111.674 E0.02070
G1 X105.067 Y111.110 E0.01782
G1 X105.071 Y108.786 E0.07287
G1 X105.161 Y108.216 E0.01809
G1 X105.377 Y107.635 E0.01944
G1 X105.696 Y107.128 E0.01878
G1 X106.116 Y106.688 E0.01906
G1 X106.613 Y106.339 E0.01903
G1 X107.127 Y106.108 E0.01767
G1 X107.361 Y106.423 F9000.000
G1 F900
G1 X108.329 Y106.261 E0.03078
G1 X110.680 Y106.255 E0.07369
G1 X111.906 Y106.293 E0.03847
G1 X112.810 Y106.541 E0.02938
G1 X113.651 Y107.027 E0.03044
G1 X114.403 Y107.797 E0.03378
G1 X114.907 Y108.758 E0.03402
G1 X115.109 Y109.723 E0.03092
G1 X115.032 Y110.805 E0.03402
G1 X114.684 Y111.752 E0.03163
G1 X114.221 Y112.433 E0.02582
G1 X113.614 Y113.001 E0.02606
G1 X112.883 Y113.427 E0.02653
G1 X112.169 Y113.659 E0.02354
G1 X111.419 Y113.744 E0.02368
G1 X108.223 Y113.733 E0.10020
G1 X107.527 Y113.626 E0.02210
G1 X106.841 Y113.357 E0.02309
G1 X106.358 Y113.023 E0.01842
G1 X105.958 Y112.593 E0.01840
G1 X105.663 Y112.088 E0.01834
G1 X105.490 Y111.532 E0.01825
G1 X105.449 Y108.790 E0.08600
G1 X105.536 Y108.273 E0.01645
G1 X105.747 Y107.741 E0.01793
G1 X106.029 Y107.316 E0.01600
G1 X106.408 Y106.934 E0.01686
G1 X106.845 Y106.641 E0.01650
G1 X107.306 Y106.446 E0.01569
G1 E-3.50000 F3600.00000
G1 F7200.000
G1 X108.329 Y106.261 E-0.49408
G1 X110.289 Y106.256 E-0.93092
G1 E-0.07500 F3600.00000
G1 X109.076 Y109.680 F9000.000
G1 E5.00000 F2400.00000
G1 F900
G1 X109.758 Y109.680 E0.02140
G1 X109.728 Y109.819 E0.00444
G1 X109.728 Y110.183 E0.01141
G1 X109.758 Y110.320 E0.00440
G1 X109.076 Y110.320 E0.02141
G1 X109.076 Y109.740 E0.01816
G1 X108.699 Y109.303 F9000.000
G1 F900
G1 X110.314 Y109.303 E0.05064
G1 X110.168 Y109.576 E0.00970
G1 X110.105 Y109.860 E0.00912
G1 X110.105 Y110.141 E0.00881
G1 X110.166 Y110.415 E0.00881
G1 X110.306 Y110.697 E0.00987
G1 X108.699 Y110.697 E0.05040
G1 X108.699 Y109.363 E0.04180
G1 X110.482 Y109.901 F9000.000
G1 F900
G1 X110.525 Y109.708 E0.00620
G1 X110.662 Y109.452 E0.00911
G1 X110.804 Y109.306 E0.00641
G1 X110.970 Y109.198 E0.00621
G1 X111.156 Y109.129 E0.00620
G1 X111.351 Y109.101 E0.00620
G1 X111.640 Y109.140 E0.00912
G1 X111.826 Y109.223 E0.00641
G1 X111.990 Y109.344 E0.00639
G1 X112.165 Y109.570 E0.00893
G1 X112.241 Y109.758 E0.00638
G1 X112.273 Y109.953 E0.00620
G1 X112.241 Y110.242 E0.00910
G1 X112.167 Y110.425 E0.00620
G1 X112.051 Y110.593 E0.00639
G1 X111.826 Y110.778 E0.00912
G1 X111.645 Y110.857 E0.00620
G1 X111.445 Y110.897 E0.00640
G1 X111.155 Y110.872 E0.00912
G1 X110.970 Y110.802 E0.00620
G1 X110.799 Y110.691 E0.00640
G1 X110.609 Y110.471 E0.00911
G1 X110.525 Y110.292 E0.00620
G1 X110.482 Y110.099 E0.00620
G1 X110.482 Y109.961 E0.00432
G1 X110.322 Y109.784 F9000.000
G1 E-3.50000 F3600.00000
G1 F7200.000
G1 X110.525 Y109.708 E-0.12190
G1 X110.662 Y109.452 E-0.13805
G1 X110.804 Y109.306 E-0.09711
G1 X110.970 Y109.198 E-0.09405
G1 X111.156 Y109.129 E-0.09389
G1 X111.351 Y109.101 E-0.09395
G1 X111.640 Y109.140 E-0.13810
G1 X111.826 Y109.223 E-0.09708
G1 X111.990 Y109.344 E-0.09684
G1 X112.165 Y109.570 E-0.13533
G1 X112.241 Y109.758 E-0.09663
G1 X112.273 Y109.953 E-0.09398
G1 X112.243 Y110.222 E-0.12810
G1 E-0.07500 F3600.00000
G1 X108.450 Y108.942 F9000.000
G1 E5.00000 F2400.00000
G1 F900
G1 X108.618 Y108.926 E0.00526
G1 X111.366 Y108.926 E0.08619
G1 X111.543 Y108.940 E0.00554
G1 X111.707 Y108.980 E0.00529
G1 X111.862 Y109.044 E0.00528
G1 X112.006 Y109.132 E0.00528
G1 X112.134 Y109.241 E0.00528
G1 X112.243 Y109.369 E0.00528
G1 X112.331 Y109.513 E0.00528
G1 X112.395 Y109.668 E0.00528
G1 X112.435 Y109.832 E0.00528
G1 X112.448 Y110.000 E0.00528
G1 X112.435 Y110.168 E0.00528
G1 X112.395 Y110.332 E0.00528
G1 X112.331 Y110.487 E0.00528
G1 X112.243 Y110.631 E0.00528
G1 X112.134 Y110.759 E0.00528
G1 X112.006 Y110.868 E0.00528
G1 X111.862 Y110.956 E0.00528
G1 X111.707 Y111.020 E0.00528
G1 X111.543 Y111.060 E0.00529
G1 X111.366 Y111.074 E0.00554
G1 X108.623 Y111.074 E0.08602
G1 X108.378 Y111.038 E0.00777
G1 X108.321 Y111.010 E0.00197
G1 X108.321 Y108.988 E0.06342
G1 X108.393 Y108.959 E0.00242
G1 X108.599 Y109.020 F9000.000
M106 S255
;BEFORE_LAYER_CHANGE
;0.32


G1 E-3.50000 F3600.00000
G1 F7200.000
G1 X108.618 Y108.926 E-0.10785
G1 X111.366 Y108.926 E-1.30574
G1 X111.390 Y108.928 E-0.01141
G1 E-0.07500 F3600.00000
G1 Z0.320 F9000.000
;AFTER_LAYER_CHANGE
;0.32
G1 X112.102 Y105.179
G1 E5.00000 F2400.00000
G1 F900
G1 X113.263 Y105.505 E0.02372
G1 X114.331 Y106.123 E0.02426
G1 X115.265 Y107.061 E0.02604
G1 X115.884 Y108.144 E0.02453
G1 X116.207 Y109.353 E0.02462
G1 X116.203 Y110.677 E0.02604
G1 X115.869 Y111.893 E0.02480
G1 X115.333 Y112.848 E0.02155
G1 X114.607 Y113.651 E0.02128
G1 X113.702 Y114.284 E0.02173
G1 X112.770 Y114.672 E0.01985
G1 X111.594 Y114.871 E0.02347
G1 X108.463 Y114.875 E0.06158
G1 X107.503 Y114.780 E0.01898
G1 X106.686 Y114.534 E0.01677
G1 X105.925 Y114.117 E0.01708
G1 X105.282 Y113.548 E0.01688
G1 X104.786 Y112.858 E0.01672
G1 X104.473 Y112.123 E0.01571
G1 X104.317 Y111.221 E0.01801
G1 X104.314 Y108.848 E0.04667
G1 X104.395 Y108.176 E0.01332
G1 X104.609 Y107.500 E0.01394
G1 X104.988 Y106.818 E0.01534
G1 X105.484 Y106.243 E0.01494
G1 X106.097 Y105.769 E0.01524
G1 X106.769 Y105.431 E0.01480
G1 X108.013 Y105.149 E0.02509
G1 X110.681 Y105.123 E0.05247
G1 X112.042 Y105.176 E0.02680
G1 X112.028 Y105.550 F9000.000
G1 F900
G1 X113.124 Y105.855 E0.02237
G1 X114.205 Y106.504 E0.02479
G1 X115.004 Y107.341 E0.02276
G1 X115.570 Y108.375 E0.02319
G1 X115.857 Y109.607 E0.02488
G1 X115.806 Y110.777 E0.02302
G1 X115.428 Y111.952 E0.02428
G1 X114.944 Y112.738 E0.01816
G1 X114.233 Y113.474 E0.02012
G1 X113.398 Y114.018 E0.01960
G1 X112.439 Y114.371 E0.02012
G1 X111.468 Y114.497 E0.01925
G1 X108.302 Y114.492 E0.06226
G1 X107.441 Y114.381 E0.01708
G1 X106.639 Y114.099 E0.01671
G1 X105.976 Y113.685 E0.01539
G1 X105.443 Y113.159 E0.01472
G1 X105.034 Y112.521 E0.01492
G1 X104.784 Y111.832 E0.01441
G1 X104.691 Y111.141 E0.01372
G1 X104.694 Y108.788 E0.04628
G1 X104.784 Y108.167 E0.01235
G1 X105.004 Y107.540 E0.01306
G1 X105.356 Y106.953 E0.01347
G1 X105.815 Y106.450 E0.01341
G1 X106.371 Y106.043 E0.01354
G1 X106.988 Y105.752 E0.01341
G1 X108.147 Y105.517 E0.02326
G1 X110.680 Y105.500 E0.04984
G1 X111.969 Y105.548 E0.02535
G1 X111.956 Y105.921 F9000.000
G1 F900
G1 X112.966 Y106.198 E0.02060
G1 X113.968 Y106.797 E0.02297
G1 X114.704 Y107.569 E0.02098
G1 X115.220 Y108.517 E0.02122
G1 X115.483 Y109.667 E0.02321
G1 X115.428 Y110.744 E0.02122
G1 X115.054 Y111.859 E0.02313
G1 X114.534 Y112.648 E0.01858
G1 X113.878 Y113.274 E0.01785
G1 X113.167 Y113.712 E0.01641
G1 X112.299 Y114.017 E0.01810
G1 X111.445 Y114.121 E0.01693
G1 X108.305 Y114.115 E0.06174
G1 X107.488 Y114.005 E0.01621
G1 X106.735 Y113.727 E0.01579
G1 X106.163 Y113.352 E0.01345
G1 X105.696 Y112.872 E0.01317
G1 X105.345 Y112.300 E0.01321
G1 X105.134 Y111.674 E0.01298
G1 X105.067 Y111.110 E0.01118
G1 X105.071 Y108.786 E0.04571
G1 X105.161 Y108.216 E0.01135
G1 X105.377 Y107.635 E0.01220
G1 X105.696 Y107.128 E0.01178
G1 X106.116 Y106.688 E0.01196
G1 X106.613 Y106.339 E0.01194
G1 X107.182 Y106.084 E0.01227
G1 X108.194 Y105.891 E0.02027
G1 X110.680 Y105.878 E0.04889
G1 X111.896 Y105.919 E0.02393
G1 X111.884 Y106.293 F9000.000
G1 F900
G1 X112.810 Y106.541 E0.01885
G1 X113.651 Y107.027 E0.01910
G1 X114.403 Y107.797 E0.02119
G1 X114.907 Y108.758 E0.02134
G1 X115.109 Y109.723 E0.01939
G1 X115.032 Y110.805 E0.02134
G1 X114.684 Y111.752 E0.01984
G1 X114.221 Y112.433 E0.01620
G1 X113.614 Y113.001 E0.01635
G1 X112.883 Y113.427 E0.01664
G1 X112.169 Y113.659 E0.01476
G1 X111.419 Y113.744 E0.01485
G1 X108.223 Y113.733 E0.06286
G1 X107.527 Y113.626 E0.01386
G1 X106.841 Y113.357 E0.01448
G1 X106.358 Y113.023 E0.01156
G1 X105.958 Y112.593 E0.01154
G1 X105.663 Y112.088 E0.01151
G1 X105.490 Y111.532 E0.01145
G1 X105.449 Y108.790 E0.05395
G1 X105.536 Y108.273 E0.01032
G1 X105.747 Y107.741 E0.01125
G1 X106.029 Y107.316 E0.01004
G1 X106.408 Y106.934 E0.01058
G1 X106.845 Y106.641 E0.01035
G1 X107.361 Y106.423 E0.01102
G1 X108.329 Y106.261 E0.01931
G1 X110.680 Y106.255 E0.04623
G1 X111.824 Y106.291 E0.02252
G1 E-3.50000 F3600.00000
G1 F7200.000
G1 X112.810 Y106.541 E-0.48307
G1 X113.651 Y107.027 E-0.46122
G1 X114.358 Y107.751 E-0.48072
G1 E-0.07500 F3600.00000
G1 X109.640 Y109.708 F9000.000
G1 E5.00000 F2400.00000
G1 F900
G1 X109.618 Y109.808 E0.00218
G1 X109.618 Y110.195 E0.00819
G1 X109.640 Y110.292 E0.00211
G1 X108.894 Y110.291 E0.01579
G1 X108.894 Y109.709 E0.01234
G1 X109.580 Y109.708 E0.01452
G1 X110.254 Y109.283 F9000.000
G1 F900
G1 X110.105 Y109.566 E0.00676
G1 X110.043 Y109.854 E0.00625
G1 X110.043 Y110.148 E0.00622
G1 X110.107 Y110.435 E0.00622
G1 X110.244 Y110.717 E0.00665
G1 X108.470 Y110.715 E0.03755
G1 X108.470 Y109.286 E0.03024
G1 X110.194 Y109.283 E0.03650
G1 X110.508 Y109.712 F9000.000
G1 F900
G1 X110.650 Y109.443 E0.00645
G1 X110.796 Y109.293 E0.00444
G1 X110.965 Y109.183 E0.00427
G1 X111.154 Y109.113 E0.00425
G1 X111.344 Y109.086 E0.00407
G1 X111.646 Y109.126 E0.00645
G1 X111.837 Y109.212 E0.00443
G1 X112.004 Y109.336 E0.00440
G1 X112.180 Y109.566 E0.00613
G1 X112.256 Y109.759 E0.00438
G1 X112.288 Y109.948 E0.00407
G1 X112.254 Y110.251 E0.00643
G1 X112.182 Y110.429 E0.00407
G1 X112.065 Y110.601 E0.00441
G1 X111.828 Y110.794 E0.00646
G1 X111.652 Y110.871 E0.00407
G1 X111.448 Y110.912 E0.00441
G1 X111.144 Y110.884 E0.00645
G1 X110.965 Y110.816 E0.00407
G1 X110.790 Y110.703 E0.00442
G1 X110.592 Y110.471 E0.00645
G1 X110.511 Y110.297 E0.00406
G1 X110.467 Y110.101 E0.00425
G1 X110.467 Y109.900 E0.00425
G1 X110.495 Y109.771 E0.00279
G1 X110.314 Y109.477 F9000.000
G1 X111.728 Y108.914
G1 F900
G1 X111.893 Y108.982 E0.00379
G1 X112.046 Y109.076 E0.00379
G1 X112.182 Y109.193 E0.00379
G1 X112.299 Y109.329 E0.00379
G1 X112.393 Y109.482 E0.00379
G1 X112.461 Y109.647 E0.00379
G1 X112.503 Y109.821 E0.00379
G1 X112.517 Y110.000 E0.00379
G1 X112.503 Y110.179 E0.00379
G1 X112.461 Y110.353 E0.00379
G1 X112.393 Y110.518 E0.00379
G1 X112.299 Y110.671 E0.00379
G1 X112.182 Y110.807 E0.00379
G1 X112.046 Y110.924 E0.00379
G1 X111.893 Y111.018 E0.00379
G1 X111.728 Y111.086 E0.00379
G1 X111.554 Y111.128 E0.00379
G1 X111.366 Y111.143 E0.00398
G1 X108.457 Y111.139 E0.06158
G1 X108.133 Y111.091 E0.00693
G1 X108.060 Y111.049 E0.00179
G1 X108.046 Y111.010 E0.00088
G1 X108.046 Y108.990 E0.04276
G1 X108.065 Y108.946 E0.00101
G1 X108.206 Y108.889 E0.00322
G1 X108.461 Y108.861 E0.00544
G1 X111.366 Y108.857 E0.06150
G1 X111.670 Y108.900 E0.00648
G1 X111.773 Y109.087 F9000.000
G1 X110.571 Y109.187
G1 F900
G1 X110.629 Y109.108 E0.00031
G1 X110.684 Y109.090 E0.00018
;BEFORE_LAYER_CHANGE
;0.44


G1 E-3.50000 F3600.00000
G1 F7200.000
G1 X110.629 Y109.108 E-0.02779
G1 X110.571 Y109.187 E-0.04668
G1 E-1.42553 F3600.00000
G1 Z0.440 F9000.000
;AFTER_LAYER_CHANGE
;0.44
G1 X109.642 Y109.699
G1 E5.00000 F2400.00000
G1 F900
G1 X109.618 Y109.810 E0.00241
G1 X109.618 Y110.195 E0.00816
G1 X109.641 Y110.298 E0.00223
G1 X108.751 Y110.296 E0.01885
G1 X108.751 Y109.699 E0.01265
G1 X109.582 Y109.699 E0.01760
G1 X110.259 Y109.274 F9000.000
G1 F900
G1 X110.103 Y109.574 E0.00715
G1 X110.043 Y109.855 E0.00608
G1 X110.043 Y110.148 E0.00621
G1 X110.107 Y110.434 E0.00620
G1 X110.252 Y110.723 E0.00685
G1 X108.327 Y110.720 E0.04074
G1 X108.327 Y109.275 E0.03059
G1 X110.199 Y109.274 E0.03963
G1 X110.506 Y109.719 F9000.000
G1 F900
G1 X110.650 Y109.442 E0.00661
G1 X110.797 Y109.292 E0.00446
G1 X110.967 Y109.182 E0.00428
G1 X111.155 Y109.113 E0.00425
G1 X111.338 Y109.087 E0.00392
G1 X111.648 Y109.127 E0.00661
G1 X111.839 Y109.213 E0.00442
G1 X111.988 Y109.322 E0.00392
G1 X112.181 Y109.568 E0.00662
G1 X112.257 Y109.762 E0.00441
G1 X112.288 Y109.945 E0.00392
G1 X112.253 Y110.254 E0.00658
G1 X112.183 Y110.426 E0.00392
G1 X112.067 Y110.599 E0.00441
G1 X111.824 Y110.796 E0.00662
G1 X111.654 Y110.870 E0.00392
G1 X111.450 Y110.912 E0.00442
G1 X111.139 Y110.883 E0.00661
G1 X110.966 Y110.817 E0.00392
G1 X110.790 Y110.703 E0.00443
G1 X110.589 Y110.465 E0.00661
G1 X110.511 Y110.297 E0.00392
G1 X110.467 Y110.101 E0.00425
G1 X110.467 Y109.900 E0.00425
G1 X110.493 Y109.778 E0.00265
G1 X110.306 Y109.479 F9000.000
G1 E-3.50000 F3600.00000
G1 F7200.000
G1 X110.650 Y109.442 E-0.17588
G1 X110.797 Y109.292 E-0.09999
G1 X110.967 Y109.182 E-0.09597
G1 X111.155 Y109.113 E-0.09531
G1 X111.338 Y109.087 E-0.08795
