; generated by PrusaSlicer 2.2.0+win64 on 2021-04-10 at 05:17:00 UTC

; 

; external perimeters extrusion width = 0.45mm
; perimeters extrusion width = 0.45mm
; infill extrusion width = 0.45mm
; solid infill extrusion width = 0.45mm
; top infill extrusion width = 0.40mm
; first layer extrusion width = 0.42mm

M201 X500 Y500 Z100 E5000 ; sets maximum accelerations, mm/sec^2
M203 X500 Y500 Z10 E60 ; sets maximum feedrates, mm/sec
M204 P500 R1000 T500 ; sets acceleration (P, T) and retract acceleration (R), mm/sec^2
M205 X8.00 Y8.00 Z0.40 E5.00 ; sets the jerk limits, mm/sec
M205 S0 T0 ; sets the minimum extruding and travel feed rate, mm/sec
M107
G90 ; use absolute coordinates
M83 ; extruder relative mode
M104 S200 ; set extruder temp
M140 S60 ; set bed temp
M190 S60 ; wait for bed temp
M109 S200 ; wait for extruder temp
G28 ; home all
G1 Z2 F240
G1 X2 Y10 F3000
G1 Z0.28 F240
G92 E0.0
G1 Y190 E15.0 F1500.0 ; intro line
G1 X2.3 F5000
G1 Y10 E30 F1200.0 ; intro line
G92 E0.0
G21 ; set units to millimeters
G90 ; use absolute coordinates
M83 ; use relative distances for extrusion
; Filament gcode
;BEFORE_LAYER_CHANGE
;0.2


G1 E-5.00000 F3600.00000
G1 Z0.200 F9000.000
;AFTER_LAYER_CHANGE
;0.2
G1 X105.484 Y106.243
G1 E5.00000 F2400.00000
G1 F900
G1 X106.097 Y105.769 E0.02430
G1 X106.769 Y105.431 E0.02360
G1 X108.013 Y105.149 E0.04000
G1 X110.681 Y105.123 E0.08364
G1 X112.102 Y105.179 E0.04460
G1 X113.263 Y105.505 E0.03781
G1 X114.331 Y106.123 E0.03867
G1 X115.265 Y107.061 E0.04151
G1 X115.884 Y108.144 E0.03911
G1 X116.207 Y109.353 E0.03925
G1 X116.203 Y110.677 E0.04151
G1 X115.869 Y111.893 E0.03954
G1 X115.333 Y112.848 E0.03435
G1 X114.607 Y113.651 E0.03392
G1 X113.702 Y114.284 E0.03464
G1 X112.770 Y114.672 E0.03164
G1 X111.594 Y114.871 E0.03741
G1 X108.463 Y114.875 E0.09816
G1 X107.503 Y114.780 E0.03025
G1 X106.686 Y114.534 E0.02674
G1 X105.925 Y114.117 E0.02723
G1 X105.282 Y113.548 E0.02692
G1 X104.786 Y112.858 E0.02666
G1 X104.473 Y112.123 E0.02505
G1 X104.317 Y111.221 E0.02871
G1 X104.314 Y108.848 E0.07439
G1 X104.395 Y108.176 E0.02123
G1 X104.609 Y107.500 E0.02222
G1 X104.988 Y106.818 E0.02446
G1 X105.445 Y106.289 E0.02193
G1 X106.988 Y105.752 F9000.000
G1 F900
G1 X108.147 Y105.517 E0.03708
G1 X110.680 Y105.500 E0.07945
G1 X112.039 Y105.550 E0.04264
G1 X113.124 Y105.855 E0.03534
G1 X114.205 Y106.504 E0.03952
G1 X115.004 Y107.341 E0.03629
G1 X115.570 Y108.375 E0.03697
G1 X115.857 Y109.607 E0.03966
G1 X115.806 Y110.777 E0.03669
G1 X115.428 Y111.952 E0.03871
G1 X114.944 Y112.738 E0.02896
G1 X114.233 Y113.474 E0.03207
G1 X113.398 Y114.018 E0.03125
G1 X112.439 Y114.371 E0.03207
G1 X111.468 Y114.497 E0.03069
G1 X108.302 Y114.492 E0.09925
G1 X107.441 Y114.381 E0.02723
G1 X106.639 Y114.099 E0.02664
G1 X105.976 Y113.685 E0.02453
G1 X105.443 Y113.159 E0.02346
G1 X105.034 Y112.521 E0.02378
G1 X104.784 Y111.832 E0.02297
G1 X104.691 Y111.141 E0.02187
G1 X104.694 Y108.788 E0.07378
G1 X104.784 Y108.167 E0.01968
G1 X105.004 Y107.540 E0.02082
G1 X105.356 Y106.953 E0.02147
G1 X105.815 Y106.450 E0.02137
G1 X106.371 Y106.043 E0.02158
G1 X106.933 Y105.778 E0.01950
G1 X107.182 Y106.084 F9000.000
G1 F900
G1 X108.194 Y105.891 E0.03232
G1 X110.680 Y105.878 E0.07794
G1 X111.970 Y105.921 E0.04046
G1 X112.966 Y106.198 E0.03242
G1 X113.968 Y106.797 E0.03662
G1 X114.704 Y107.569 E0.03344
G1 X115.220 Y108.517 E0.03382
G1 X115.483 Y109.667 E0.03700
G1 X115.428 Y110.744 E0.03382
G1 X115.054 Y111.859 E0.03687
G1 X114.534 Y112.648 E0.02961
G1 X113.878 Y113.274 E0.02846
G1 X113.167 Y113.712 E0.02617
G1 X112.299 Y114.017 E0.02885
G1 X111.445 Y114.121 E0.02698
G1 X108.305 Y114.115 E0.09842
G1 X107.488 Y114.005 E0.02585
G1 X106.735 Y113.727 E0.02518
G1 X106.163 Y113.352 E0.02144
G1 X105.696 Y112.872 E0.02099
G1 X105.345 Y112.300 E0.02105
G1 X105.134 Y111.674 E0.02070
G1 X105.067 Y111.110 E0.01782
G1 X105.071 Y108.786 E0.07287
G1 X105.161 Y108.216 E0.01809
G1 X105.377 Y107.635 E0.01944
G1 X105.696 Y107.128 E0.01878
G1 X106.116 Y106.688 E0.01906
G1 X106.613 Y106.339 E0.01903
G1 X107.127 Y106.108 E0.01767
G1 X107.361 Y106.423 F9000.000
G1 F900
G1 X108.329 Y106.261 E0.03078
G1 X110.680 Y106.255 E0.07369
G1 X111.906 Y106.293 E0.03847
G1 X112.810 Y106.541 E0.02938
G1 X113.651 Y107.027 E0.03044
G1 X114.403 Y107.797 E0.03378
G1 X114.907 Y108.758 E0.03402
G1 X115.109 Y109.723 E0.03092
G1 X115.032 Y110.805 E0.03402
G1 X114.684 Y111.752 E0.03163
G1 X114.221 Y112.433 E0.02582
G1 X113.614 Y113.001 E0.02606
G1 X112.883 Y113.427 E0.02653
G1 X112.169 Y113.659 E0.02354
G1 X111.419 Y113.744 E0.02368
G1 X108.223 Y113.733 E0.10020
G1 X107.527 Y113.626 E0.02210
G1 X106.841 Y113.357 E0.02309
G1 X106.358 Y113.023 E0.01842
G1 X105.958 Y112.593 E0.01840
G1 X105.663 Y112.088 E0.01834
G1 X105.490 Y111.532 E0.01825
G1 X105.449 Y108.790 E0.08600
G1 X105.536 Y108.273 E0.01645
G1 X105.747 Y107.741 E0.01793
G1 X106.029 Y107.316 E0.01600
G1 X106.408 Y106.934 E0.01686
G1 X106.845 Y106.641 E0.01650
G1 X107.306 Y106.446 E0.01569
G1 E-3.50000 F3600.00000
G1 F7200.000
G1 X108.329 Y106.261 E-0.49408
G1 X110.289 Y106.256 E-0.93092
G1 E-0.07500 F3600.00000
G1 X109.076 Y109.680 F9000.000
G1 E5.00000 F2400.00000
G1 F900
G1 X109.542 Y109.680 E0.01463
G1 X109.515 Y109.820 E0.00445
G1 X109.515 Y110.180 E0.01131
G1 X109.542 Y110.320 E0.00445
G1 X109.076 Y110.320 E0.01463
G1 X109.076 Y109.740 E0.01816
G1 X108.699 Y109.303 F9000.000
G1 F900
G1 X110.059 Y109.303 E0.04265
G1 X109.947 Y109.574 E0.00918
G1 X109.892 Y109.856 E0.00902
G1 X109.892 Y110.144 E0.00902
G1 X109.947 Y110.426 E0.00902
G1 X110.059 Y110.697 E0.00918
G1 X108.699 Y110.697 E0.04265
G1 X108.699 Y109.363 E0.04180
G1 X108.321 Y108.988 F9000.000
G1 F900
G1 X108.450 Y108.942 E0.00429
G1 X108.618 Y108.926 E0.00526
G1 X111.125 Y108.926 E0.07863
G1 X111.036 Y108.941 E0.00283
G1 X110.835 Y109.029 E0.00688
G1 X110.659 Y109.151 E0.00672
G1 X110.509 Y109.304 E0.00672
G1 X110.391 Y109.484 E0.00672
G1 X110.310 Y109.682 E0.00672
G1 X110.269 Y109.893 E0.00672
G1 X110.269 Y110.107 E0.00672
G1 X110.310 Y110.318 E0.00672
G1 X110.391 Y110.516 E0.00672
G1 X110.509 Y110.696 E0.00672
G1 X110.659 Y110.849 E0.00672
G1 X110.835 Y110.971 E0.00672
G1 X111.110 Y111.074 E0.00922
G1 X108.623 Y111.074 E0.07799
G1 X108.327 Y111.015 E0.00946
G1 X108.321 Y109.048 E0.06170
G1 X108.454 Y109.021 F9000.000
G1 X109.295 Y110.131
G1 F900
G1 X109.295 Y109.869 E0.00136
M106 S255
;BEFORE_LAYER_CHANGE
;0.32


G1 E-3.50000 F3600.00000
G1 F7200.000
G1 X109.295 Y110.131 E-0.12450
G1 E-1.37550 F3600.00000
G1 Z0.320 F9000.000
;AFTER_LAYER_CHANGE
;0.32
G1 X107.503 Y114.780
G1 E5.00000 F2400.00000
G1 F900
G1 X106.686 Y114.534 E0.01677
G1 X105.925 Y114.117 E0.01708
G1 X105.282 Y113.548 E0.01688
G1 X104.786 Y112.858 E0.01672
G1 X104.473 Y112.123 E0.01571
G1 X104.317 Y111.221 E0.01801
G1 X104.314 Y108.848 E0.04667
G1 X104.395 Y108.176 E0.01332
G1 X104.609 Y107.500 E0.01394
G1 X104.988 Y106.818 E0.01534
G1 X105.484 Y106.243 E0.01494
G1 X106.097 Y105.769 E0.01524
G1 X106.769 Y105.431 E0.01480
G1 X108.013 Y105.149 E0.02509
G1 X110.681 Y105.123 E0.05247
G1 X112.102 Y105.179 E0.02798
G1 X113.263 Y105.505 E0.02372
G1 X114.331 Y106.123 E0.02426
G1 X115.265 Y107.061 E0.02604
G1 X115.884 Y108.144 E0.02453
G1 X116.207 Y109.353 E0.02462
G1 X116.203 Y110.677 E0.02604
G1 X115.869 Y111.893 E0.02480
G1 X115.333 Y112.848 E0.02155
G1 X114.607 Y113.651 E0.02128
G1 X113.702 Y114.284 E0.02173
G1 X112.770 Y114.672 E0.01985
G1 X111.594 Y114.871 E0.02347
G1 X108.463 Y114.875 E0.06158
G1 X107.563 Y114.786 E0.01780
G1 X107.441 Y114.381 F9000.000
G1 F900
G1 X106.639 Y114.099 E0.01671
G1 X105.976 Y113.685 E0.01539
G1 X105.443 Y113.159 E0.01472
G1 X105.034 Y112.521 E0.01492
G1 X104.784 Y111.832 E0.01441
G1 X104.691 Y111.141 E0.01372
G1 X104.694 Y108.788 E0.04628
G1 X104.784 Y108.167 E0.01235
G1 X105.004 Y107.540 E0.01306
G1 X105.356 Y106.953 E0.01347
G1 X105.815 Y106.450 E0.01341
G1 X106.371 Y106.043 E0.01354
G1 X106.988 Y105.752 E0.01341
G1 X108.147 Y105.517 E0.02326
G1 X110.680 Y105.500 E0.04984
G1 X112.039 Y105.550 E0.02675
G1 X113.124 Y105.855 E0.02217
G1 X114.205 Y106.504 E0.02479
G1 X115.004 Y107.341 E0.02276
G1 X115.570 Y108.375 E0.02319
G1 X115.857 Y109.607 E0.02488
G1 X115.806 Y110.777 E0.02302
G1 X115.428 Y111.952 E0.02428
G1 X114.944 Y112.738 E0.01816
G1 X114.233 Y113.474 E0.02012
G1 X113.398 Y114.018 E0.01960
G1 X112.439 Y114.371 E0.02012
G1 X111.468 Y114.497 E0.01925
G1 X108.302 Y114.492 E0.06226
G1 X107.501 Y114.389 E0.01590
G1 X107.551 Y114.014 F9000.000
G1 F900
G1 X107.488 Y114.005 E0.00124
G1 X106.735 Y113.727 E0.01579
G1 X106.163 Y113.352 E0.01345
G1 X105.696 Y112.872 E0.01317
G1 X105.345 Y112.300 E0.01321
G1 X105.134 Y111.674 E0.01298
G1 X105.067 Y111.110 E0.01118
G1 X105.071 Y108.786 E0.04571
G1 X105.161 Y108.216 E0.01135
G1 X105.377 Y107.635 E0.01220
G1 X105.696 Y107.128 E0.01178
G1 X106.116 Y106.688 E0.01196
G1 X106.613 Y106.339 E0.01194
G1 X107.182 Y106.084 E0.01227
G1 X108.194 Y105.891 E0.02027
G1 X110.680 Y105.878 E0.04889
G1 X111.970 Y105.921 E0.02538
G1 X112.966 Y106.198 E0.02034
G1 X113.968 Y106.797 E0.02297
G1 X114.704 Y107.569 E0.02098
G1 X115.220 Y108.517 E0.02122
G1 X115.483 Y109.667 E0.02321
G1 X115.428 Y110.744 E0.02122
G1 X115.054 Y111.859 E0.02313
G1 X114.534 Y112.648 E0.01858
G1 X113.878 Y113.274 E0.01785
G1 X113.167 Y113.712 E0.01641
G1 X112.299 Y114.017 E0.01810
G1 X111.445 Y114.121 E0.01693
G1 X108.305 Y114.115 E0.06174
G1 X107.610 Y114.022 E0.01379
G1 X107.527 Y113.626 F9000.000
G1 F900
G1 X106.841 Y113.357 E0.01448
G1 X106.358 Y113.023 E0.01156
G1 X105.958 Y112.593 E0.01154
G1 X105.663 Y112.088 E0.01151
G1 X105.490 Y111.532 E0.01145
G1 X105.449 Y108.790 E0.05395
G1 X105.536 Y108.273 E0.01032
G1 X105.747 Y107.741 E0.01125
G1 X106.029 Y107.316 E0.01004
G1 X106.408 Y106.934 E0.01058
G1 X106.845 Y106.641 E0.01035
G1 X107.361 Y106.423 E0.01102
G1 X108.329 Y106.261 E0.01931
G1 X110.680 Y106.255 E0.04623
G1 X111.906 Y106.293 E0.02414
G1 X112.810 Y106.541 E0.01843
G1 X113.651 Y107.027 E0.01910
G1 X114.403 Y107.797 E0.02119
G1 X114.907 Y108.758 E0.02134
G1 X115.109 Y109.723 E0.01939
G1 X115.032 Y110.805 E0.02134
G1 X114.684 Y111.752 E0.01984
G1 X114.221 Y112.433 E0.01620
G1 X113.614 Y113.001 E0.01635
G1 X112.883 Y113.427 E0.01664
G1 X112.169 Y113.659 E0.01476
G1 X111.419 Y113.744 E0.01485
G1 X108.223 Y113.733 E0.06286
G1 X107.586 Y113.635 E0.01268
G1 E-3.50000 F3600.00000
G1 F7200.000
G1 X106.841 Y113.357 E-0.37762
G1 X106.358 Y113.023 E-0.27912
G1 X105.958 Y112.593 E-0.27868
G1 X105.663 Y112.088 E-0.27788
G1 X105.530 Y111.663 E-0.21170
G1 E-0.07500 F3600.00000
G1 X108.894 Y110.291 F9000.000
G1 E5.00000 F2400.00000
G1 F900
G1 X108.894 Y109.709 E0.01234
G1 X109.425 Y109.708 E0.01125
G1 X109.406 Y109.809 E0.00218
G1 X109.406 Y110.191 E0.00808
G1 X109.425 Y110.292 E0.00218
G1 X108.954 Y110.292 E0.00998
G1 X108.473 Y110.715 F9000.000
G1 F900
G1 X108.470 Y109.286 E0.03024
G1 X109.999 Y109.283 E0.03236
G1 X109.888 Y109.556 E0.00624
G1 X109.830 Y109.850 E0.00634
G1 X109.830 Y110.150 E0.00634
G1 X109.888 Y110.444 E0.00634
G1 X109.999 Y110.717 E0.00624
G1 X108.533 Y110.715 E0.03102
G1 X110.296 Y110.322 F9000.000
G1 F900
G1 X110.254 Y110.109 E0.00460
G1 X110.254 Y109.891 E0.00460
G1 X110.296 Y109.678 E0.00460
G1 X110.378 Y109.477 E0.00460
G1 X110.497 Y109.295 E0.00460
G1 X110.649 Y109.139 E0.00460
G1 X110.828 Y109.016 E0.00460
G1 X111.031 Y108.927 E0.00470
G1 X111.324 Y108.875 E0.00628
G1 X111.563 Y108.890 E0.00508
G1 X111.774 Y108.947 E0.00463
G1 X111.969 Y109.043 E0.00460
G1 X112.142 Y109.175 E0.00460
G1 X112.286 Y109.338 E0.00460
G1 X112.396 Y109.525 E0.00460
G1 X112.468 Y109.731 E0.00460
G1 X112.500 Y109.946 E0.00460
G1 X112.489 Y110.163 E0.00460
G1 X112.437 Y110.374 E0.00460
G1 X112.346 Y110.571 E0.00460
G1 X112.218 Y110.747 E0.00460
G1 X112.059 Y110.895 E0.00460
G1 X111.874 Y111.009 E0.00460
G1 X111.671 Y111.087 E0.00460
G1 X111.457 Y111.123 E0.00460
G1 X111.239 Y111.118 E0.00460
G1 X111.027 Y111.071 E0.00460
G1 X110.828 Y110.984 E0.00460
G1 X110.649 Y110.861 E0.00460
G1 X110.497 Y110.705 E0.00460
G1 X110.378 Y110.523 E0.00460
G1 X110.319 Y110.378 E0.00333
G1 X110.085 Y110.272 F9000.000
G1 X111.728 Y111.086
G1 F900
G1 X111.554 Y111.128 E0.00379
G1 X111.366 Y111.143 E0.00398
G1 X108.457 Y111.139 E0.06158
G1 X108.296 Y111.127 E0.00342
G1 X108.072 Y111.060 E0.00496
G1 X108.046 Y111.010 E0.00119
G1 X108.046 Y108.990 E0.04276
G1 X108.060 Y108.951 E0.00088
G1 X108.206 Y108.889 E0.00335
G1 X108.461 Y108.861 E0.00544
G1 X111.366 Y108.857 E0.06150
G1 X111.554 Y108.872 E0.00398
G1 X111.728 Y108.914 E0.00379
G1 X111.893 Y108.982 E0.00379
G1 X112.046 Y109.076 E0.00379
G1 X112.182 Y109.193 E0.00379
G1 X112.299 Y109.329 E0.00379
G1 X112.393 Y109.482 E0.00379
G1 X112.461 Y109.647 E0.00379
G1 X112.503 Y109.821 E0.00379
G1 X112.517 Y110.000 E0.00379
G1 X112.503 Y110.179 E0.00379
G1 X112.461 Y110.353 E0.00379
G1 X112.393 Y110.518 E0.00379
G1 X112.299 Y110.671 E0.00379
G1 X112.182 Y110.807 E0.00379
G1 X112.046 Y110.924 E0.00379
G1 X111.783 Y111.063 E0.00630
G1 X111.592 Y110.970 F9000.000
;BEFORE_LAYER_CHANGE
;0.44


G1 E-3.50000 F3600.00000
G1 F7200.000
G1 X111.554 Y111.128 E-0.11335
G1 X111.366 Y111.143 E-0.08927
G1 X108.793 Y111.140 E-1.22238
G1 E-0.07500 F3600.00000
G1 Z0.440 F9000.000
;AFTER_LAYER_CHANGE
;0.44
G1 X108.794 Y110.296
G1 E5.00000 F2400.00000
G1 F900
G1 X108.751 Y110.296 E0.00091
G1 X108.751 Y109.699 E0.01264
G1 X109.427 Y109.699 E0.01432
G1 X109.406 Y109.809 E0.00238
G1 X109.406 Y110.191 E0.00808
G1 X109.426 Y110.297 E0.00228
G1 X108.854 Y110.296 E0.01212
G1 X108.327 Y110.720 F9000.000
G1 F900
G1 X108.327 Y109.275 E0.03059
G1 X110.003 Y109.274 E0.03549
G1 X109.888 Y109.556 E0.00645
G1 X109.830 Y109.850 E0.00634
G1 X109.830 Y110.150 E0.00634
G1 X109.888 Y110.444 E0.00634
G1 X110.002 Y110.723 E0.00638
G1 X108.387 Y110.720 E0.03418
G1 X110.296 Y110.322 F9000.000
G1 F900
G1 X110.254 Y110.109 E0.00460
G1 X110.254 Y109.891 E0.00460
G1 X110.296 Y109.678 E0.00460
G1 X110.378 Y109.477 E0.00460
G1 X110.497 Y109.295 E0.00460
G1 X110.649 Y109.139 E0.00460
G1 X110.828 Y109.016 E0.00460
G1 X111.031 Y108.927 E0.00469
G1 X111.315 Y108.876 E0.00611
G1 X111.563 Y108.889 E0.00524
G1 X111.774 Y108.947 E0.00464
G1 X111.969 Y109.043 E0.00460
G1 X112.142 Y109.175 E0.00460
G1 X112.286 Y109.338 E0.00460
G1 X112.396 Y109.525 E0.00460
G1 X112.468 Y109.731 E0.00460
G1 X112.500 Y109.946 E0.00460
G1 X112.489 Y110.163 E0.00460
G1 X112.437 Y110.374 E0.00460
G1 X112.346 Y110.571 E0.00460
G1 X112.218 Y110.747 E0.00460
G1 X112.059 Y110.895 E0.00460
G1 X111.874 Y111.009 E0.00460
G1 X111.671 Y111.087 E0.00460
G1 X111.457 Y111.123 E0.00460
G1 X111.239 Y111.118 E0.00460
G1 X111.027 Y111.071 E0.00460
G1 X110.828 Y110.984 E0.00460
G1 X110.649 Y110.861 E0.00460
G1 X110.497 Y110.705 E0.00460
G1 X110.378 Y110.523 E0.00460
G1 X110.319 Y110.378 E0.00333
G1 X110.085 Y110.272 F9000.000
G1 E-3.50000 F3600.00000
G1 F7200.000
G1 X110.254 Y110.109 E-0.13133
G1 X110.254 Y109.891 E-0.10325
G1 X110.296 Y109.678 E-0.10325
G1 X110.378 Y109.477 E-0.10325
G1 X110.497 Y109.295 E-0.10325
G1 X110.649 Y109.139 E-0.10325
G1 X110.828 Y109.016 E-0.10325
G1 X111.031 Y108.927 E-0.10533
G1 X111.315 Y108.876 E-0.13718
G1 X111.563 Y108.889 E-0.11770
G1 X111.774 Y108.947 E-0.10419
G1 X111.969 Y109.043 E-0.10325
G1 X112.142 Y109.175 E-0.10325
G1 X112.146 Y109.181 E-0.00330
G1 E-0.07500 F3600.00000
G1 X108.069 Y108.868 F9000.000
G1 E5.00000 F2400.00000
G1 F900
G1 X108.263 Y108.850 E0.00412
G1 X111.369 Y108.850 E0.06575
G1 X111.555 Y108.865 E0.00394
G1 X111.730 Y108.907 E0.00382
G1 X111.897 Y108.976 E0.00382
G1 X112.051 Y109.070 E0.00382
G1 X112.188 Y109.187 E0.00382
G1 X112.305 Y109.324 E0.00382
G1 X112.399 Y109.478 E0.00382
G1 X112.468 Y109.645 E0.00382
G1 X112.510 Y109.820 E0.00382
G1 X112.524 Y110.000 E0.00382
G1 X112.510 Y110.180 E0.00382
G1 X112.468 Y110.355 E0.00382
G1 X112.399 Y110.522 E0.00382
G1 X112.305 Y110.676 E0.00382
G1 X112.188 Y110.813 E0.00382
G1 X112.051 Y110.930 E0.00382
G1 X111.897 Y111.024 E0.00382
G1 X111.730 Y111.093 E0.00382
G1 X111.555 Y111.135 E0.00382
G1 X111.366 Y111.150 E0.00400
G1 X108.150 Y111.143 E0.06807
