; generated by PrusaSlicer 2.2.0+win64 on 2021-04-09 at 23:35:31 UTC

; 

; external perimeters extrusion width = 0.45mm
; perimeters extrusion width = 0.45mm
; infill extrusion width = 0.45mm
; solid infill extrusion width = 0.45mm
; top infill extrusion width = 0.40mm
; support material extrusion width = 0.38mm
; first layer extrusion width = 0.42mm

M201 X500 Y500 Z100 E5000 ; sets maximum accelerations, mm/sec^2
M203 X500 Y500 Z10 E60 ; sets maximum feedrates, mm/sec
M204 P500 R1000 T500 ; sets acceleration (P, T) and retract acceleration (R), mm/sec^2
M205 X8.00 Y8.00 Z0.40 E5.00 ; sets the jerk limits, mm/sec
M205 S0 T0 ; sets the minimum extruding and travel feed rate, mm/sec
M107
G90 ; use absolute coordinates
M83 ; extruder relative mode
M104 S200 ; set extruder temp
M140 S60 ; set bed temp
M190 S60 ; wait for bed temp
M109 S200 ; wait for extruder temp
G28 ; home all
G1 Z2 F240
G1 X2 Y10 F3000
G1 Z0.28 F240
G92 E0.0
G1 Y190 E15.0 F1500.0 ; intro line
G1 X2.3 F5000
G1 Y10 E30 F1200.0 ; intro line
G92 E0.0
G21 ; set units to millimeters
G90 ; use absolute coordinates
M83 ; use relative distances for extrusion
; Filament gcode
;BEFORE_LAYER_CHANGE
;0.2


G1 E-5.00000 F3600.00000
G1 Z0.200 F9000.000
;AFTER_LAYER_CHANGE
;0.2
G1 X90.748 Y113.948
G1 E5.00000 F2400.00000
G1 F1200.000
G1 X91.629 Y113.411 E0.03233
G1 X117.289 Y103.818 E0.85894
G1 X118.241 Y103.649 E0.03031
G1 X134.948 Y103.821 E0.52387
G1 X135.819 Y104.003 E0.02790
G1 X136.590 Y104.455 E0.02803
G1 X137.000 Y104.878 E0.01848
G1 X137.309 Y105.375 E0.01835
G1 X137.507 Y105.926 E0.01835
G1 X137.583 Y106.506 E0.01835
G1 X137.580 Y117.567 E0.34682
G1 X137.395 Y118.430 E0.02765
G1 X136.947 Y119.189 E0.02765
G1 X136.432 Y119.668 E0.02205
G1 X135.809 Y120.002 E0.02218
G1 X109.740 Y129.543 E0.87040
G1 X109.198 Y129.599 E0.01707
G1 X92.474 Y129.596 E0.52438
G1 X91.935 Y129.519 E0.01707
G1 X91.422 Y129.336 E0.01707
G1 X90.955 Y129.056 E0.01707
G1 X90.555 Y128.693 E0.01694
G1 X90.054 Y127.904 E0.02930
G1 X89.847 Y126.997 E0.02917
G1 X89.843 Y115.953 E0.34629
G1 X89.908 Y115.392 E0.01771
G1 X90.087 Y114.856 E0.01771
G1 X90.371 Y114.368 E0.01771
G1 X90.708 Y113.993 E0.01583
G1 E-3.50000 F3600.00000
G1 F7200.000
G1 X91.629 Y113.411 E-0.51718
G1 X93.419 Y112.742 E-0.90782
G1 E-0.07500 F3600.00000
G1 X91.579 Y128.993 F9000.000
G1 E5.00000 F2400.00000
G1 F1200.000
G1 X90.819 Y128.424 E0.02977
G1 X90.396 Y127.745 E0.02508
G1 X90.222 Y126.960 E0.02520
G1 X90.220 Y115.956 E0.34505
G1 X90.277 Y115.469 E0.01538
G1 X90.434 Y115.004 E0.01538
G1 X90.684 Y114.578 E0.01550
G1 X91.015 Y114.215 E0.01538
G1 X91.764 Y113.763 E0.02743
G1 X117.416 Y104.173 E0.85868
G1 X118.241 Y104.026 E0.02626
G1 X134.922 Y104.198 E0.52307
G1 X135.666 Y104.348 E0.02378
G1 X136.324 Y104.725 E0.02378
G1 X136.686 Y105.088 E0.01609
G1 X136.961 Y105.522 E0.01609
G1 X137.137 Y106.004 E0.01609
G1 X137.206 Y106.512 E0.01609
G1 X137.204 Y117.527 E0.34536
G1 X137.054 Y118.267 E0.02367
G1 X136.679 Y118.922 E0.02367
G1 X136.224 Y119.353 E0.01965
G1 X135.673 Y119.651 E0.01965
G1 X109.671 Y129.173 E0.86821
G1 X92.501 Y129.220 E0.53834
G1 X91.637 Y129.008 E0.02789
G1 E-3.50000 F3600.00000
G1 F7200.000
G1 X90.819 Y128.424 E-0.47743
G1 X90.396 Y127.745 E-0.37994
G1 X90.222 Y126.960 E-0.38173
G1 X90.222 Y126.569 E-0.18590
G1 E-0.07500 F3600.00000
G1 X92.597 Y126.845 F9000.000
G1 E5.00000 F2400.00000
G1 F1200.000
G1 X92.597 Y115.990 E0.34036
G1 X93.351 Y115.990 E0.02365
G1 X93.351 Y126.675 E0.33504
G1 X94.105 Y126.675 E0.02365
G1 X94.105 Y115.990 E0.33504
G1 X94.859 Y115.990 E0.02365
G1 X94.859 Y126.675 E0.33504
G1 X95.613 Y126.675 E0.02365
G1 X95.613 Y115.990 E0.33504
G1 X96.367 Y115.990 E0.02365
G1 X96.367 Y126.675 E0.33504
G1 X97.122 Y126.675 E0.02365
G1 X97.122 Y115.990 E0.33504
G1 X97.876 Y115.990 E0.02365
G1 X97.876 Y126.675 E0.33504
G1 X98.630 Y126.675 E0.02365
G1 X98.630 Y115.990 E0.33504
G1 X99.384 Y115.990 E0.02365
G1 X99.384 Y126.675 E0.33504
G1 X100.138 Y126.675 E0.02365
G1 X100.138 Y115.990 E0.33504
G1 X100.892 Y115.990 E0.02365
G1 X100.892 Y126.675 E0.33504
G1 X101.646 Y126.675 E0.02365
G1 X101.646 Y113.636 E0.40885
G1 X102.401 Y113.636 E0.02365
G1 X102.401 Y126.675 E0.40885
G1 X103.155 Y126.675 E0.02365
G1 X103.155 Y113.636 E0.40885
G1 X103.909 Y113.636 E0.02365
G1 X103.909 Y126.675 E0.40885
G1 X104.663 Y126.675 E0.02365
G1 X104.663 Y124.053 E0.08223
G1 X103.930 Y124.053 E0.02298
G1 X103.930 Y116.258 E0.24438
G1 X104.663 Y116.258 E0.02298
G1 X104.663 Y113.636 E0.08224
G1 X105.417 Y113.636 E0.02365
G1 X105.417 Y116.258 E0.08224
G1 X106.171 Y116.258 E0.02365
G1 X106.171 Y113.636 E0.08223
G1 X106.926 Y113.636 E0.02365
G1 X106.926 Y126.845 E0.41417
G1 X106.171 Y126.845 F9000.000
G1 F1200.000
G1 X106.171 Y124.053 E0.08756
G1 X105.417 Y124.053 E0.02365
G1 X105.417 Y126.845 E0.08756
G1 E-3.50000 F3600.00000
G1 F7200.000
G1 X105.417 Y124.053 E-1.32642
G1 X105.625 Y124.053 E-0.09858
G1 E-0.07500 F3600.00000
G1 X104.845 Y123.846 F9000.000
G1 E5.00000 F2400.00000
G1 F1200.000
G1 X104.845 Y116.465 E0.20689
G1 X106.508 Y116.465 F9000.000
G1 F1200.000
G1 X106.508 Y117.910 E0.04050
G1 X106.299 Y118.029 E0.00674
G1 X106.261 Y118.092 E0.00207
G1 X106.255 Y118.081 E0.00037
G1 X105.954 Y118.255 E0.00976
G1 X105.954 Y116.624 E0.04572
G1 X105.399 Y116.624 E0.01553
G1 X105.399 Y123.687 E0.19796
G1 X105.954 Y123.687 E0.01553
G1 X105.954 Y123.198 E0.01371
G1 X106.291 Y123.439 E0.01163
G1 X106.508 Y123.365 E0.00642
G1 X106.508 Y123.846 E0.01348
G1 X106.171 Y123.112 F9000.000
G1 F1200.000
G1 X106.171 Y118.356 E0.14914
G1 E-3.50000 F3600.00000
G1 F7200.000
G1 X106.171 Y121.356 E-1.42500
G1 E-0.07500 F3600.00000
G1 X109.188 Y113.466 F9000.000
G1 E5.00000 F2400.00000
G1 F1200.000
G1 X109.188 Y116.326 E0.08967
G1 X108.434 Y116.761 E0.02730
G1 X108.434 Y113.636 E0.09800
G1 X107.680 Y113.636 E0.02365
G1 X107.680 Y126.675 E0.40885
G1 X108.434 Y126.675 E0.02365
G1 X108.434 Y122.596 E0.12791
G1 X109.188 Y122.167 E0.02720
G1 X109.188 Y126.845 E0.14666
G1 E-3.50000 F3600.00000
G1 F7200.000
G1 X109.188 Y123.845 E-1.42500
G1 E-0.07500 F3600.00000
G1 X118.238 Y119.782 F9000.000
G1 E5.00000 F2400.00000
G1 F1200.000
G1 X118.238 Y116.923 E0.08966
G1 X118.992 Y116.487 E0.02730
G1 X118.992 Y119.782 E0.10331
G1 E-3.50000 F3600.00000
G1 F7200.000
G1 X118.992 Y116.782 E-1.42500
G1 E-0.07500 F3600.00000
G1 X118.238 Y106.403 F9000.000
G1 E5.00000 F2400.00000
G1 F1200.000
G1 X118.238 Y111.082 E0.14671
G1 X118.992 Y110.655 E0.02718
G1 X118.992 Y106.573 E0.12799
G1 X119.746 Y106.573 E0.02365
G1 X119.746 Y119.613 E0.40885
G1 X120.500 Y119.613 E0.02365
G1 X120.500 Y106.573 E0.40885
G1 X121.255 Y106.573 E0.02365
G1 X121.255 Y109.196 E0.08224
G1 X122.009 Y109.196 E0.02365
G1 X122.009 Y106.573 E0.08224
G1 X122.763 Y106.573 E0.02365
G1 X122.763 Y109.365 E0.08755
G1 X120.918 Y110.052 F9000.000
G1 F1200.000
G1 X120.918 Y109.561 E0.01376
G1 X121.472 Y109.561 E0.01553
G1 X121.472 Y110.235 E0.01889
G1 X121.255 Y110.125 F9000.000
G1 F1200.000
G1 X121.255 Y114.887 E0.14931
G1 E-3.50000 F3600.00000
G1 F7200.000
G1 X121.255 Y111.887 E-1.42500
G1 E-0.07500 F3600.00000
G1 X122.581 Y116.784 F9000.000
G1 E5.00000 F2400.00000
G1 F1200.000
G1 X122.581 Y109.561 E0.20243
G1 X122.027 Y109.561 E0.01553
G1 X122.027 Y116.624 E0.19796
G1 X121.472 Y116.624 E0.01553
G1 X121.472 Y114.990 E0.04580
G1 X121.155 Y115.163 E0.01013
G1 X121.124 Y115.217 E0.00172
G1 X120.918 Y115.334 E0.00665
G1 X120.918 Y116.784 E0.04063
G1 X121.255 Y116.820 F9000.000
G1 F1200.000
G1 X121.255 Y119.613 E0.08756
G1 X122.009 Y119.613 E0.02365
G1 X122.009 Y116.990 E0.08224
G1 X122.763 Y116.990 E0.02365
G1 X122.763 Y119.613 E0.08224
G1 X123.517 Y119.613 E0.02365
G1 X123.517 Y106.573 E0.40885
G1 X124.271 Y106.573 E0.02365
G1 X124.271 Y119.613 E0.40885
G1 X125.025 Y119.613 E0.02365
G1 X125.025 Y106.573 E0.40885
G1 X125.780 Y106.573 E0.02365
G1 X125.780 Y119.613 E0.40885
G1 X126.119 Y119.613 E0.01063
G1 X126.119 Y117.258 E0.07382
G1 X126.534 Y117.258 E0.01302
G1 X126.534 Y106.573 E0.33504
G1 X127.288 Y106.573 E0.02365
G1 X127.288 Y117.258 E0.33504
G1 X128.042 Y117.258 E0.02365
G1 X128.042 Y106.573 E0.33504
G1 X128.796 Y106.573 E0.02365
G1 X128.796 Y117.258 E0.33504
G1 X129.550 Y117.258 E0.02365
G1 X129.550 Y106.573 E0.33504
G1 X130.305 Y106.573 E0.02365
G1 X130.305 Y117.258 E0.33504
G1 X131.059 Y117.258 E0.02365
G1 X131.059 Y106.573 E0.33504
G1 X131.813 Y106.573 E0.02365
G1 X131.813 Y117.258 E0.33504
G1 X132.567 Y117.258 E0.02365
G1 X132.567 Y106.573 E0.33504
G1 X133.321 Y106.573 E0.02365
G1 X133.321 Y117.258 E0.33504
G1 X134.075 Y117.258 E0.02365
G1 X134.075 Y106.573 E0.33504
G1 X134.829 Y106.573 E0.02365
G1 X134.829 Y117.428 E0.34036
G1 E-3.50000 F3600.00000
G1 F7200.000
G1 X134.829 Y114.428 E-1.42500
G1 E-0.07500 F3600.00000
G1 X118.245 Y115.277 F9000.000
G1 E5.00000 F2400.00000
G1 F1200.000
G1 X109.167 Y120.528 E0.32882
G1 X109.181 Y117.972 E0.08013
G1 X118.250 Y112.727 E0.32848
G1 X118.245 Y115.217 E0.07805
G1 X118.621 Y115.495 F9000.000
G1 F1200.000
G1 X108.786 Y121.184 E0.35624
G1 X108.805 Y117.754 E0.10753
G1 X118.627 Y112.074 E0.35575
G1 X118.621 Y115.435 E0.10538
G1 X118.997 Y115.713 F9000.000
G1 F1200.000
G1 X108.406 Y121.839 E0.38365
G1 X108.429 Y117.536 E0.13494
G1 X119.004 Y111.420 E0.38303
G1 X118.997 Y115.653 E0.13271
G1 X118.630 Y115.871 F9000.000
G1 E-3.50000 F3600.00000
G1 F7200.000
G1 X116.407 Y117.166 E-1.42500
G1 E-0.07500 F3600.00000
G1 X109.767 Y120.050 F9000.000
G1 E5.00000 F2400.00000
G1 F1200.000
G1 X109.454 Y119.738 E0.01418
G1 X109.457 Y119.195 E0.01740
G1 X109.988 Y119.726 E0.02409
G1 X110.334 Y119.526 E0.01281
G1 X109.460 Y118.652 E0.03964
G1 X109.463 Y118.136 E0.01657
G1 X109.479 Y118.126 E0.00062
G1 X110.679 Y119.326 E0.05443
G1 X111.025 Y119.126 E0.01281
G1 X109.825 Y117.926 E0.05443
G1 X110.171 Y117.726 E0.01281
G1 X111.371 Y118.926 E0.05443
G1 X111.716 Y118.726 E0.01281
G1 X110.516 Y117.527 E0.05443
G1 X110.862 Y117.327 E0.01281
G1 X112.062 Y118.526 E0.05443
G1 X112.407 Y118.327 E0.01281
G1 X111.208 Y117.127 E0.05443
G1 X111.553 Y116.927 E0.01281
G1 X112.753 Y118.127 E0.05442
G1 X113.099 Y117.927 E0.01281
G1 X111.899 Y116.727 E0.05442
G1 X112.245 Y116.527 E0.01281
G1 X113.444 Y117.727 E0.05442
G1 X113.790 Y117.527 E0.01281
G1 X112.590 Y116.327 E0.05442
G1 X112.936 Y116.127 E0.01281
G1 X114.136 Y117.327 E0.05442
G1 X114.481 Y117.127 E0.01281
G1 X113.282 Y115.927 E0.05442
G1 X113.627 Y115.728 E0.01281
G1 X114.827 Y116.927 E0.05442
G1 X115.172 Y116.727 E0.01281
G1 X113.973 Y115.528 E0.05441
G1 X114.319 Y115.328 E0.01281
G1 X115.518 Y116.527 E0.05441
G1 X115.864 Y116.327 E0.01281
G1 X114.664 Y115.128 E0.05441
G1 X115.010 Y114.928 E0.01281
G1 X116.209 Y116.127 E0.05441
G1 X116.555 Y115.927 E0.01281
G1 X115.356 Y114.728 E0.05441
G1 X115.701 Y114.528 E0.01281
G1 X116.901 Y115.728 E0.05441
G1 X117.246 Y115.528 E0.01281
G1 X116.047 Y114.328 E0.05441
G1 X116.392 Y114.128 E0.01281
G1 X117.592 Y115.328 E0.05440
G1 X117.937 Y115.128 E0.01281
G1 X116.738 Y113.928 E0.05440
G1 X117.084 Y113.729 E0.01281
G1 X117.965 Y114.609 E0.03995
G1 X117.967 Y114.066 E0.01743
G1 X117.429 Y113.529 E0.02437
G1 X117.775 Y113.329 E0.01281
G1 X118.137 Y113.690 E0.01641
M106 S255
;BEFORE_LAYER_CHANGE
;0.32


G1 E-3.50000 F3600.00000
G1 F7200.000
G1 X117.775 Y113.329 E-0.24293
G1 X117.429 Y113.529 E-0.18966
G1 X117.967 Y114.066 E-0.36085
G1 X117.965 Y114.609 E-0.25814
G1 X117.409 Y114.053 E-0.37341
G1 E-0.07500 F3600.00000
G1 Z0.320 F9000.000
;AFTER_LAYER_CHANGE
;0.32
G1 X90.054 Y127.904
G1 E5.00000 F2400.00000
G1 F1344
G1 X89.847 Y126.997 E0.01830
G1 X89.843 Y115.953 E0.21723
G1 X89.908 Y115.392 E0.01111
G1 X90.087 Y114.856 E0.01111
G1 X90.371 Y114.368 E0.01111
G1 X90.748 Y113.948 E0.01111
G1 X91.629 Y113.411 E0.02028
G1 X117.289 Y103.818 E0.53883
G1 X118.241 Y103.649 E0.01901
G1 X134.948 Y103.821 E0.32863
G1 X135.819 Y104.003 E0.01750
G1 X136.590 Y104.455 E0.01758
G1 X137.000 Y104.878 E0.01159
G1 X137.309 Y105.375 E0.01151
G1 X137.507 Y105.926 E0.01151
G1 X137.583 Y106.506 E0.01151
G1 X137.580 Y117.567 E0.21757
G1 X137.395 Y118.430 E0.01734
G1 X136.947 Y119.189 E0.01734
G1 X136.432 Y119.668 E0.01383
G1 X135.809 Y120.002 E0.01391
G1 X109.740 Y129.543 E0.54602
G1 X109.198 Y129.599 E0.01071
G1 X92.474 Y129.596 E0.32895
G1 X91.935 Y129.519 E0.01071
G1 X91.422 Y129.336 E0.01071
G1 X90.955 Y129.056 E0.01071
G1 X90.555 Y128.693 E0.01063
G1 X90.086 Y127.955 E0.01720
G1 X91.579 Y128.993 F9000.000
G1 F1344
G1 X90.819 Y128.424 E0.01868
G1 X90.396 Y127.745 E0.01573
G1 X90.222 Y126.960 E0.01581
G1 X90.220 Y115.956 E0.21645
G1 X90.277 Y115.469 E0.00965
G1 X90.434 Y115.004 E0.00965
G1 X90.684 Y114.578 E0.00972
G1 X91.015 Y114.215 E0.00965
G1 X91.764 Y113.763 E0.01721
G1 X117.416 Y104.173 E0.53866
G1 X118.241 Y104.026 E0.01647
G1 X134.922 Y104.198 E0.32813
G1 X135.666 Y104.348 E0.01492
G1 X136.324 Y104.725 E0.01492
G1 X136.686 Y105.088 E0.01009
G1 X136.961 Y105.522 E0.01009
G1 X137.137 Y106.004 E0.01009
G1 X137.206 Y106.512 E0.01009
G1 X137.204 Y117.527 E0.21665
G1 X137.054 Y118.267 E0.01485
G1 X136.679 Y118.922 E0.01485
G1 X136.224 Y119.353 E0.01233
G1 X135.673 Y119.651 E0.01233
G1 X109.671 Y129.173 E0.54465
G1 X92.501 Y129.220 E0.33771
G1 X91.637 Y129.008 E0.01750
G1 E-3.50000 F3600.00000
G1 F7200.000
G1 X90.819 Y128.424 E-0.47743
G1 X90.396 Y127.745 E-0.37994
G1 X90.222 Y126.960 E-0.38173
G1 X90.222 Y126.569 E-0.18590
G1 E-0.07500 F3600.00000
G1 X108.367 Y118.569 F9000.000
G1 E5.00000 F2400.00000
G1 F1344
G1 X118.087 Y112.957 E0.23757
G1 X119.164 Y112.316 E0.02654
G1 X119.167 Y114.614 E0.04864
G1 X109.340 Y120.291 E0.24022
G1 X108.266 Y120.929 E0.02644
G1 X108.261 Y118.633 E0.04860
G1 X108.315 Y118.600 E0.00135
G1 E-3.50000 F3600.00000
G1 F7200.000
G1 X110.913 Y117.100 E-1.42500
G1 E-0.07500 F3600.00000
G1 X109.554 Y120.657 F9000.000
G1 E5.00000 F2400.00000
G1 F1344
G1 X107.997 Y121.566 E0.03817
G1 F1500.000
G1 X107.844 Y121.647 E0.00862
G1 X107.836 Y118.395 E0.16144
G1 X108.015 Y118.286 E0.01040
G1 F1344
G1 X119.414 Y111.690 E0.27875
G1 F1500.000
G1 X119.587 Y111.595 E0.00980
G1 X119.592 Y114.851 E0.16160
G1 X119.410 Y114.962 E0.01057
G1 F1344
G1 X109.606 Y120.627 E0.23965
G1 X109.818 Y120.995 F9000.000
G1 F1344
G1 X108.470 Y121.795 E0.03320
G1 X107.994 Y122.048 E0.01139
G1 F1500.000
G1 X107.421 Y122.327 E0.03166
G1 X107.411 Y118.156 E0.20703
G1 X108.018 Y117.791 E0.03514
G1 F1344
G1 X117.658 Y112.225 E0.23561
G1 X118.845 Y111.518 E0.02924
G1 X119.414 Y111.206 E0.01374
G1 F1500.000
G1 X120.010 Y110.924 E0.03275
G1 X120.016 Y115.089 E0.20674
G1 X119.408 Y115.458 E0.03530
G1 F1344
G1 X109.870 Y120.965 E0.23311
G1 E-3.50000 F3600.00000
G1 F7200.000
G1 X108.470 Y121.795 E-0.77361
G1 X107.994 Y122.048 E-0.25558
G1 E-0.47081 F3600.00000
G1 X116.791 Y115.839 F9000.000
G1 E5.00000 F2400.00000
G1 F1344
G1 X118.848 Y113.782 E0.06724
G1 X118.848 Y113.128 E0.01513
G1 X115.762 Y116.213 E0.10087
G1 X114.210 Y117.110 E0.04142
G1 X117.871 Y113.449 E0.11967
G1 X116.319 Y114.345 E0.04142
G1 X112.659 Y118.006 E0.11968
G1 X111.107 Y118.903 E0.04142
G1 X114.768 Y115.242 E0.11969
G1 X113.217 Y116.138 E0.04142
G1 X109.555 Y119.799 E0.11969
G1 X108.583 Y120.371 E0.02607
G1 X108.582 Y120.117 E0.00587
G1 X111.665 Y117.034 E0.10078
G1 X110.114 Y117.930 E0.04142
G1 X108.390 Y119.654 E0.05634
;BEFORE_LAYER_CHANGE
;0.41


G1 E-3.50000 F3600.00000
G1 F7200.000
G1 X110.114 Y117.930 E-1.15773
G1 X110.601 Y117.649 E-0.26727
G1 E-0.07500 F3600.00000
G1 Z0.410 F9000.000
;AFTER_LAYER_CHANGE
;0.41
G1 X106.508 Y116.465
G1 E5.00000 F2400.00000
G1 F900
G1 X106.508 Y117.910 E0.04225
G1 X105.954 Y118.221 E0.01859
G1 X105.954 Y116.624 E0.04669
G1 X105.399 Y116.624 E0.01621
G1 X105.399 Y123.687 E0.20653
G1 X105.954 Y123.687 E0.01621
G1 X105.954 Y123.433 E0.00742
G1 X106.088 Y123.533 E0.00490
G1 X106.508 Y123.403 E0.01283
G1 X106.508 Y123.846 E0.01295
G1 X104.845 Y123.846 F9000.000
G1 F900
G1 X104.845 Y116.465 E0.21586
G1 E-3.50000 F3600.00000
G1 F7200.000
G1 X104.845 Y119.465 E-1.42500
G1 E-0.07500 F3600.00000
G1 X104.101 Y118.978 F9000.000
G1 E5.00000 F2400.00000
G1 F900
G1 X94.879 Y118.978 E0.26968
G1 X94.879 Y121.333 E0.06884
