; generated by PrusaSlicer 2.2.0+win64 on 2021-05-19 at 22:51:28 UTC

; 

; external perimeters extrusion width = 0.45mm
; perimeters extrusion width = 0.45mm
; infill extrusion width = 0.45mm
; solid infill extrusion width = 0.45mm
; top infill extrusion width = 0.40mm
; first layer extrusion width = 0.42mm

M201 X500 Y500 Z100 E5000 ; sets maximum accelerations, mm/sec^2
M203 X500 Y500 Z10 E60 ; sets maximum feedrates, mm/sec
M204 P500 R1000 T500 ; sets acceleration (P, T) and retract acceleration (R), mm/sec^2
M205 X8.00 Y8.00 Z0.40 E5.00 ; sets the jerk limits, mm/sec
M205 S0 T0 ; sets the minimum extruding and travel feed rate, mm/sec
M107
G90 ; use absolute coordinates
M83 ; extruder relative mode
M104 S200 ; set extruder temp
M140 S60 ; set bed temp
M190 S60 ; wait for bed temp
M109 S200 ; wait for extruder temp
G28 ; home all
G1 Z2 F240
G1 X2 Y10 F3000
G1 Z0.28 F240
G92 E0.0
G1 Y190 E15.0 F1500.0 ; intro line
G1 X2.3 F5000
G1 Y10 E30 F1200.0 ; intro line
G92 E0.0
G21 ; set units to millimeters
G90 ; use absolute coordinates
M83 ; use relative distances for extrusion
; Filament gcode
;BEFORE_LAYER_CHANGE
;0.2


G1 E-5.00000 F3600.00000
G1 Z0.200 F9000.000
;AFTER_LAYER_CHANGE
;0.2
G1 X102.802 Y104.696
G1 E5.00000 F2400.00000
G1 F900
G1 X103.222 Y103.903 E0.02814
G1 X103.651 Y103.426 E0.02011
G1 X104.173 Y103.045 E0.02025
G1 X104.757 Y102.780 E0.02011
G1 X105.388 Y102.640 E0.02025
G1 X114.254 Y102.619 E0.27801
G1 X115.317 Y102.806 E0.03382
G1 X116.253 Y103.343 E0.03382
G1 X116.951 Y104.165 E0.03382
G1 X117.327 Y105.172 E0.03369
G1 X117.381 Y105.732 E0.01766
G1 X117.377 Y114.407 E0.27200
G1 X117.201 Y115.296 E0.02841
G1 X116.778 Y116.097 E0.02841
G1 X116.309 Y116.609 E0.02175
G1 X115.743 Y117.002 E0.02161
G1 X115.101 Y117.263 E0.02175
G1 X114.416 Y117.377 E0.02175
G1 X105.571 Y117.376 E0.27735
G1 X104.696 Y117.198 E0.02800
G1 X103.903 Y116.778 E0.02814
G1 X103.391 Y116.309 E0.02175
G1 X102.998 Y115.743 E0.02161
G1 X102.737 Y115.101 E0.02175
G1 X102.623 Y114.416 E0.02175
G1 X102.624 Y105.571 E0.27735
G1 X102.790 Y104.754 E0.02612
G1 X103.158 Y104.830 F9000.000
G1 F900
G1 X103.553 Y104.089 E0.02634
G1 X103.939 Y103.675 E0.01771
G1 X104.400 Y103.350 E0.01771
G1 X104.918 Y103.125 E0.01771
G1 X105.471 Y103.010 E0.01771
G1 X114.254 Y102.996 E0.27539
G1 X115.202 Y103.165 E0.03018
G1 X116.030 Y103.648 E0.03006
G1 X116.642 Y104.386 E0.03006
G1 X116.965 Y105.288 E0.03006
G1 X117.001 Y114.385 E0.28523
G1 X116.839 Y115.190 E0.02574
G1 X116.447 Y115.911 E0.02574
G1 X116.034 Y116.349 E0.01886
G1 X115.532 Y116.688 E0.01899
G1 X114.968 Y116.909 E0.01899
G1 X114.370 Y117.002 E0.01899
G1 X105.602 Y117.000 E0.27489
G1 X104.802 Y116.836 E0.02562
G1 X104.089 Y116.447 E0.02549
G1 X103.651 Y116.034 E0.01886
G1 X103.312 Y115.532 E0.01899
G1 X103.091 Y114.968 E0.01899
G1 X102.998 Y114.370 E0.01899
G1 X103.000 Y105.602 E0.27489
G1 X103.146 Y104.889 E0.02284
G1 X104.616 Y103.661 F9000.000
G1 F900
G1 X105.540 Y103.382 E0.03024
G1 X114.254 Y103.373 E0.27322
G1 X115.078 Y103.522 E0.02626
G1 X115.799 Y103.947 E0.02626
G1 X116.328 Y104.596 E0.02626
G1 X116.600 Y105.392 E0.02637
G1 X116.625 Y114.360 E0.28119
G1 X116.480 Y115.074 E0.02284
G1 X116.123 Y115.714 E0.02296
G1 X115.762 Y116.084 E0.01621
G1 X115.326 Y116.369 E0.01633
G1 X114.843 Y116.552 E0.01621
G1 X114.331 Y116.626 E0.01621
G1 X105.632 Y116.624 E0.27275
G1 X104.922 Y116.478 E0.02272
G1 X104.286 Y116.123 E0.02284
G1 X103.916 Y115.762 E0.01621
G1 X103.631 Y115.326 E0.01633
G1 X103.448 Y114.843 E0.01621
G1 X103.374 Y114.331 E0.01621
G1 X103.376 Y105.632 E0.27275
G1 X103.522 Y104.922 E0.02272
G1 X103.877 Y104.286 E0.02284
G1 X104.570 Y103.699 E0.02848
G1 E-3.50000 F3600.00000
G1 F7200.000
G1 X105.540 Y103.382 E-0.48444
G1 X107.520 Y103.380 E-0.94056
G1 E-0.07500 F3600.00000
G1 X106.663 Y106.663 F9000.000
G1 E5.00000 F2400.00000
G1 F900
G1 X113.337 Y106.663 E0.20926
G1 X113.337 Y113.337 E0.20926
G1 X106.663 Y113.337 E0.20926
G1 X106.663 Y106.723 E0.20738
G1 X107.040 Y107.040 F9000.000
G1 F900
G1 X112.960 Y107.040 E0.18562
G1 X112.960 Y112.960 E0.18562
G1 X107.040 Y112.960 E0.18562
G1 X107.040 Y107.100 E0.18374
G1 X106.936 Y106.654 F9000.000
G1 X106.337 Y106.337
G1 F900
G1 X113.663 Y106.337 E0.22970
G1 X113.663 Y113.663 E0.22970
G1 X106.337 Y113.663 E0.22970
G1 X106.337 Y106.397 E0.22782
G1 X105.960 Y105.960 F9000.000
G1 F900
G1 X114.040 Y105.960 E0.25334
G1 X114.040 Y114.040 E0.25334
G1 X105.960 Y114.040 E0.25334
G1 X105.960 Y106.020 E0.25146
G1 X106.346 Y106.064 F9000.000
M106 S255
;BEFORE_LAYER_CHANGE
;0.32


G1 E-3.50000 F3600.00000
G1 F7200.000
G1 X108.960 Y105.998 E-1.42500
G1 E-0.07500 F3600.00000
G1 Z0.320 F9000.000
;AFTER_LAYER_CHANGE
;0.32
G1 X115.317 Y102.806
G1 E5.00000 F2400.00000
G1 F900
G1 X116.253 Y103.343 E0.02122
G1 X116.951 Y104.165 E0.02122
G1 X117.327 Y105.172 E0.02113
G1 X117.381 Y105.732 E0.01108
G1 X117.377 Y114.407 E0.17063
G1 X117.201 Y115.296 E0.01782
G1 X116.778 Y116.097 E0.01782
G1 X116.309 Y116.609 E0.01364
G1 X115.743 Y117.002 E0.01356
G1 X115.101 Y117.263 E0.01364
G1 X114.416 Y117.377 E0.01364
G1 X105.571 Y117.376 E0.17398
G1 X104.696 Y117.198 E0.01757
G1 X103.903 Y116.778 E0.01765
G1 X103.391 Y116.309 E0.01364
G1 X102.998 Y115.743 E0.01356
G1 X102.737 Y115.101 E0.01364
G1 X102.623 Y114.416 E0.01364
G1 X102.624 Y105.571 E0.17398
G1 X102.802 Y104.696 E0.01757
G1 X103.222 Y103.903 E0.01765
G1 X103.651 Y103.426 E0.01262
G1 X104.173 Y103.045 E0.01270
G1 X104.757 Y102.780 E0.01262
G1 X105.388 Y102.640 E0.01270
G1 X114.254 Y102.619 E0.17440
G1 X115.258 Y102.796 E0.02004
G1 X115.192 Y103.164 F9000.000
G1 F900
G1 X116.030 Y103.648 E0.01904
G1 X116.642 Y104.386 E0.01885
G1 X116.965 Y105.288 E0.01885
G1 X117.001 Y114.385 E0.17893
G1 X116.839 Y115.190 E0.01615
G1 X116.447 Y115.911 E0.01615
G1 X116.034 Y116.349 E0.01183
G1 X115.532 Y116.688 E0.01191
G1 X114.968 Y116.909 E0.01191
G1 X114.370 Y117.002 E0.01191
G1 X105.602 Y117.000 E0.17244
G1 X104.802 Y116.836 E0.01607
G1 X104.089 Y116.447 E0.01599
G1 X103.651 Y116.034 E0.01183
G1 X103.312 Y115.532 E0.01191
G1 X103.091 Y114.968 E0.01191
G1 X102.998 Y114.370 E0.01191
G1 X103.000 Y105.602 E0.17244
G1 X103.164 Y104.802 E0.01607
G1 X103.553 Y104.089 E0.01599
G1 X103.939 Y103.675 E0.01111
G1 X104.400 Y103.350 E0.01111
G1 X104.918 Y103.125 E0.01111
G1 X105.471 Y103.010 E0.01111
G1 X114.254 Y102.996 E0.17276
G1 X115.133 Y103.153 E0.01756
G1 X115.067 Y103.520 F9000.000
G1 F900
G1 X115.799 Y103.947 E0.01668
G1 X116.328 Y104.596 E0.01647
G1 X116.600 Y105.392 E0.01654
G1 X116.625 Y114.360 E0.17640
G1 X116.480 Y115.074 E0.01433
G1 X116.123 Y115.714 E0.01440
G1 X115.762 Y116.084 E0.01017
G1 X115.326 Y116.369 E0.01024
G1 X114.843 Y116.552 E0.01017
G1 X114.331 Y116.626 E0.01017
G1 X105.632 Y116.624 E0.17110
G1 X104.922 Y116.478 E0.01425
G1 X104.286 Y116.123 E0.01433
G1 X103.916 Y115.762 E0.01017
G1 X103.631 Y115.326 E0.01024
G1 X103.448 Y114.843 E0.01017
G1 X103.374 Y114.331 E0.01017
G1 X103.376 Y105.632 E0.17110
G1 X103.522 Y104.922 E0.01425
G1 X103.877 Y104.286 E0.01433
G1 X104.616 Y103.661 E0.01905
G1 X105.540 Y103.382 E0.01897
G1 X114.254 Y103.373 E0.17140
G1 X115.007 Y103.509 E0.01506
G1 E-3.50000 F3600.00000
G1 F7200.000
G1 X115.799 Y103.947 E-0.42980
G1 X116.328 Y104.596 E-0.39776
G1 X116.600 Y105.392 E-0.39955
G1 X116.601 Y105.809 E-0.19789
G1 E-0.07500 F3600.00000
G1 X113.399 Y106.601 F9000.000
G1 E5.00000 F2400.00000
G1 F900
G1 X113.399 Y113.399 E0.14390
G1 X106.601 Y113.399 E0.14390
G1 X106.601 Y106.601 E0.14390
G1 X113.339 Y106.601 E0.14263
G1 X112.975 Y107.025 F9000.000
G1 F900
G1 X112.975 Y112.975 E0.12594
G1 X107.025 Y112.975 E0.12594
G1 X107.025 Y107.025 E0.12594
G1 X112.915 Y107.025 E0.12467
G1 X113.361 Y106.921 F9000.000
G1 X113.601 Y106.399
G1 F900
G1 X113.601 Y113.601 E0.15243
G1 X106.399 Y113.601 E0.15243
G1 X106.399 Y106.399 E0.15243
G1 X113.541 Y106.399 E0.15116
G1 X114.025 Y105.975 F9000.000
G1 F900
G1 X114.025 Y114.025 E0.17038
G1 X105.975 Y114.025 E0.17038
G1 X105.975 Y105.975 E0.17038
G1 X113.965 Y105.975 E0.16911
G1 X113.921 Y106.361 F9000.000
;BEFORE_LAYER_CHANGE
;0.44


G1 E-3.50000 F3600.00000
G1 F7200.000
G1 X113.987 Y108.975 E-1.42500
G1 E-0.07500 F3600.00000
G1 Z0.440 F9000.000
;AFTER_LAYER_CHANGE
;0.44
G1 X106.601 Y106.601
G1 E5.00000 F2400.00000
G1 F900
G1 X113.399 Y106.601 E0.14390
G1 X113.399 Y113.399 E0.14390
G1 X106.601 Y113.399 E0.14390
G1 X106.601 Y106.661 E0.14263
G1 X107.025 Y107.025 F9000.000
G1 F900
G1 X112.975 Y107.025 E0.12594
G1 X112.975 Y112.975 E0.12594
G1 X107.025 Y112.975 E0.12594
G1 X107.025 Y107.085 E0.12467
G1 X106.921 Y106.639 F9000.000
G1 X106.399 Y106.399
G1 F900
G1 X113.601 Y106.399 E0.15243
G1 X113.601 Y113.601 E0.15243
G1 X106.399 Y113.601 E0.15243
G1 X106.399 Y106.459 E0.15116
G1 X105.975 Y105.975 F9000.000
G1 F900
G1 X114.025 Y105.975 E0.17038
G1 X114.025 Y114.025 E0.17038
G1 X105.975 Y114.025 E0.17038
G1 X105.975 Y106.035 E0.16911
G1 X106.361 Y106.079 F9000.000
;BEFORE_LAYER_CHANGE
;0.56


G1 E-3.50000 F3600.00000
G1 F7200.000
G1 X108.975 Y106.013 E-1.42500
G1 E-0.07500 F3600.00000
G1 Z0.560 F9000.000
;AFTER_LAYER_CHANGE
;0.56
G1 X106.601 Y106.601
G1 E5.00000 F2400.00000
G1 F900
G1 X113.399 Y106.601 E0.14390
G1 X113.399 Y113.399 E0.14390
G1 X106.601 Y113.399 E0.14390
G1 X106.601 Y106.661 E0.14263
G1 X107.025 Y107.025 F9000.000
G1 F900
G1 X112.975 Y107.025 E0.12594
G1 X112.975 Y112.975 E0.12594
G1 X107.025 Y112.975 E0.12594
G1 X107.025 Y107.085 E0.12467
G1 X106.921 Y106.639 F9000.000
G1 X106.399 Y106.399
G1 F900
G1 X113.601 Y106.399 E0.15243
G1 X113.601 Y113.601 E0.15243
G1 X106.399 Y113.601 E0.15243
G1 X106.399 Y106.459 E0.15116
G1 X105.975 Y105.975 F9000.000
G1 F900
G1 X114.025 Y105.975 E0.17038
G1 X114.025 Y114.025 E0.17038
G1 X105.975 Y114.025 E0.17038
G1 X105.975 Y106.035 E0.16911
G1 X106.361 Y106.079 F9000.000
;BEFORE_LAYER_CHANGE
;0.68


G1 E-3.50000 F3600.00000
G1 F7200.000
G1 X108.975 Y106.013 E-1.42500
G1 E-0.07500 F3600.00000
G1 Z0.680 F9000.000
;AFTER_LAYER_CHANGE
;0.68
G1 X106.601 Y106.601
G1 E5.00000 F2400.00000
G1 F900
G1 X113.399 Y106.601 E0.14390
G1 X113.399 Y113.399 E0.14390
G1 X106.601 Y113.399 E0.14390
G1 X106.601 Y106.661 E0.14263
G1 X107.025 Y107.025 F9000.000
G1 F900
G1 X112.975 Y107.025 E0.12594
G1 X112.975 Y112.975 E0.12594
G1 X107.025 Y112.975 E0.12594
G1 X107.025 Y107.085 E0.12467
G1 X106.921 Y106.639 F9000.000
G1 X106.399 Y106.399
G1 F900
G1 X113.601 Y106.399 E0.15243
G1 X113.601 Y113.601 E0.15243
G1 X106.399 Y113.601 E0.15243
G1 X106.399 Y106.459 E0.15116
G1 X105.975 Y105.975 F9000.000
G1 F900
G1 X114.025 Y105.975 E0.17038
G1 X114.025 Y114.025 E0.17038
G1 X105.975 Y114.025 E0.17038
G1 X105.975 Y106.035 E0.16911
G1 X106.361 Y106.079 F9000.000
;BEFORE_LAYER_CHANGE
;0.8


G1 E-3.50000 F3600.00000
G1 F7200.000
G1 X108.975 Y106.013 E-1.42500
G1 E-0.07500 F3600.00000
G1 Z0.800 F9000.000
;AFTER_LAYER_CHANGE
;0.8
G1 X106.601 Y106.601
G1 E5.00000 F2400.00000
G1 F900
G1 X113.399 Y106.601 E0.14390
G1 X113.399 Y113.399 E0.14390
G1 X106.601 Y113.399 E0.14390
G1 X106.601 Y106.661 E0.14263
G1 X107.025 Y107.025 F9000.000
G1 F900
G1 X112.975 Y107.025 E0.12594
G1 X112.975 Y112.975 E0.12594
G1 X107.025 Y112.975 E0.12594
G1 X107.025 Y107.085 E0.12467
G1 X106.921 Y106.639 F9000.000
G1 X106.399 Y106.399
G1 F900
G1 X113.601 Y106.399 E0.15243
G1 X113.601 Y113.601 E0.15243
G1 X106.399 Y113.601 E0.15243
G1 X106.399 Y106.459 E0.15116
G1 X105.975 Y105.975 F9000.000
G1 F900
G1 X114.025 Y105.975 E0.17038
G1 X114.025 Y114.025 E0.17038
G1 X105.975 Y114.025 E0.17038
G1 X105.975 Y106.035 E0.16911
G1 X106.361 Y106.079 F9000.000
;BEFORE_LAYER_CHANGE
;0.92


G1 E-3.50000 F3600.00000
G1 F7200.000
G1 X108.975 Y106.013 E-1.42500
G1 E-0.07500 F3600.00000
G1 Z0.920 F9000.000
;AFTER_LAYER_CHANGE
;0.92
G1 X106.601 Y106.601
G1 E5.00000 F2400.00000
G1 F900
G1 X113.399 Y106.601 E0.14390
G1 X113.399 Y113.399 E0.14390
G1 X106.601 Y113.399 E0.14390
G1 X106.601 Y106.661 E0.14263
G1 X107.025 Y107.025 F9000.000
G1 F900
G1 X112.975 Y107.025 E0.12594
G1 X112.975 Y112.975 E0.12594
G1 X107.025 Y112.975 E0.12594
G1 X107.025 Y107.085 E0.12467
G1 X106.921 Y106.639 F9000.000
G1 X106.399 Y106.399
G1 F900
G1 X113.601 Y106.399 E0.15243
G1 X113.601 Y113.601 E0.15243
G1 X106.399 Y113.601 E0.15243
G1 X106.399 Y106.459 E0.15116
G1 X105.975 Y105.975 F9000.000
G1 F900
G1 X114.025 Y105.975 E0.17038
G1 X114.025 Y114.025 E0.17038
G1 X105.975 Y114.025 E0.17038
G1 X105.975 Y106.035 E0.16911
G1 X106.361 Y106.079 F9000.000
;BEFORE_LAYER_CHANGE
;1.04


G1 E-3.50000 F3600.00000
G1 F7200.000
G1 X108.975 Y106.013 E-1.42500
G1 E-0.07500 F3600.00000
G1 Z1.040 F9000.000
;AFTER_LAYER_CHANGE
;1.04
G1 X106.601 Y106.601
G1 E5.00000 F2400.00000
G1 F900
G1 X113.399 Y106.601 E0.14390
G1 X113.399 Y113.399 E0.14390
G1 X106.601 Y113.399 E0.14390
G1 X106.601 Y106.661 E0.14263
G1 X107.025 Y107.025 F9000.000
G1 F900
G1 X112.975 Y107.025 E0.12594
G1 X112.975 Y112.975 E0.12594
G1 X107.025 Y112.975 E0.12594
G1 X107.025 Y107.085 E0.12467
G1 X106.921 Y106.639 F9000.000
G1 X106.399 Y106.399
G1 F900
G1 X113.601 Y106.399 E0.15243
G1 X113.601 Y113.601 E0.15243
G1 X106.399 Y113.601 E0.15243
G1 X106.399 Y106.459 E0.15116
G1 X105.975 Y105.975 F9000.000
G1 F900
G1 X114.025 Y105.975 E0.17038
G1 X114.025 Y114.025 E0.17038
G1 X105.975 Y114.025 E0.17038
G1 X105.975 Y106.035 E0.16911
G1 X106.361 Y106.079 F9000.000
;BEFORE_LAYER_CHANGE
;1.16


G1 E-3.50000 F3600.00000
G1 F7200.000
G1 X108.975 Y106.013 E-1.42500
G1 E-0.07500 F3600.00000
G1 Z1.160 F9000.000
;AFTER_LAYER_CHANGE
;1.16
G1 X106.601 Y106.601
G1 E5.00000 F2400.00000
G1 F900
G1 X113.399 Y106.601 E0.14390
G1 X113.399 Y113.399 E0.14390
G1 X106.601 Y113.399 E0.14390
G1 X106.601 Y106.661 E0.14263
G1 X107.025 Y107.025 F9000.000
G1 F900
G1 X112.975 Y107.025 E0.12594
G1 X112.975 Y112.975 E0.12594
G1 X107.025 Y112.975 E0.12594
G1 X107.025 Y107.085 E0.12467
G1 X106.921 Y106.639 F9000.000
G1 X106.399 Y106.399
G1 F900
G1 X113.601 Y106.399 E0.15243
G1 X113.601 Y113.601 E0.15243
G1 X106.399 Y113.601 E0.15243
G1 X106.399 Y106.459 E0.15116
G1 X105.975 Y105.975 F9000.000
G1 F900
G1 X114.025 Y105.975 E0.17038
G1 X114.025 Y114.025 E0.17038
G1 X105.975 Y114.025 E0.17038
G1 X105.975 Y106.035 E0.16911
G1 X106.361 Y106.079 F9000.000
;BEFORE_LAYER_CHANGE
;1.28


G1 E-3.50000 F3600.00000
G1 F7200.000
G1 X108.975 Y106.013 E-1.42500
G1 E-0.07500 F3600.00000
G1 Z1.280 F9000.000
;AFTER_LAYER_CHANGE
;1.28
G1 X106.601 Y106.601
G1 E5.00000 F2400.00000
G1 F900
G1 X113.399 Y106.601 E0.14390
G1 X113.399 Y113.399 E0.14390
G1 X106.601 Y113.399 E0.14390
G1 X106.601 Y106.661 E0.14263
G1 X107.025 Y107.025 F9000.000
G1 F900
G1 X112.975 Y107.025 E0.12594
G1 X112.975 Y112.975 E0.12594
G1 X107.025 Y112.975 E0.12594
G1 X107.025 Y107.085 E0.12467
G1 X106.921 Y106.639 F9000.000
G1 X106.399 Y106.399
G1 F900
G1 X113.601 Y106.399 E0.15243
G1 X113.601 Y113.601 E0.15243
G1 X106.399 Y113.601 E0.15243
G1 X106.399 Y106.459 E0.15116
G1 X105.975 Y105.975 F9000.000
G1 F900
G1 X114.025 Y105.975 E0.17038
G1 X114.025 Y114.025 E0.17038
G1 X105.975 Y114.025 E0.17038
G1 X105.975 Y106.035 E0.16911
G1 X106.361 Y106.079 F9000.000
;BEFORE_LAYER_CHANGE
;1.4


G1 E-3.50000 F3600.00000
G1 F7200.000
G1 X108.975 Y106.013 E-1.42500
G1 E-0.07500 F3600.00000
G1 Z1.400 F9000.000
;AFTER_LAYER_CHANGE
;1.4
G1 X106.601 Y106.601
G1 E5.00000 F2400.00000
G1 F900
G1 X113.399 Y106.601 E0.14390
G1 X113.399 Y113.399 E0.14390
G1 X106.601 Y113.399 E0.14390
G1 X106.601 Y106.661 E0.14263
G1 X107.025 Y107.025 F9000.000
G1 F900
G1 X112.975 Y107.025 E0.12594
G1 X112.975 Y112.975 E0.12594
G1 X107.025 Y112.975 E0.12594
G1 X107.025 Y107.085 E0.12467
G1 X106.921 Y106.639 F9000.000
G1 X106.399 Y106.399
G1 F900
G1 X113.601 Y106.399 E0.15243
G1 X113.601 Y113.601 E0.15243
G1 X106.399 Y113.601 E0.15243
G1 X106.399 Y106.459 E0.15116
G1 X105.975 Y105.975 F9000.000
G1 F900
G1 X114.025 Y105.975 E0.17038
G1 X114.025 Y114.025 E0.17038
G1 X105.975 Y114.025 E0.17038
G1 X105.975 Y106.035 E0.16911
G1 X106.361 Y106.079 F9000.000
;BEFORE_LAYER_CHANGE
;1.52


G1 E-3.50000 F3600.00000
G1 F7200.000
G1 X108.975 Y106.013 E-1.42500
G1 E-0.07500 F3600.00000
G1 Z1.520 F9000.000
