; generated by PrusaSlicer 2.2.0+win64 on 2021-04-25 at 20:26:58 UTC

; 

; external perimeters extrusion width = 0.45mm
; perimeters extrusion width = 0.45mm
; infill extrusion width = 0.45mm
; solid infill extrusion width = 0.45mm
; top infill extrusion width = 0.40mm
; support material extrusion width = 0.38mm
; first layer extrusion width = 0.42mm

M201 X500 Y500 Z100 E5000 ; sets maximum accelerations, mm/sec^2
M203 X500 Y500 Z10 E60 ; sets maximum feedrates, mm/sec
M204 P500 R1000 T500 ; sets acceleration (P, T) and retract acceleration (R), mm/sec^2
M205 X8.00 Y8.00 Z0.40 E5.00 ; sets the jerk limits, mm/sec
M205 S0 T0 ; sets the minimum extruding and travel feed rate, mm/sec
M107
G90 ; use absolute coordinates
M83 ; extruder relative mode
M104 S200 ; set extruder temp
M140 S60 ; set bed temp
M190 S60 ; wait for bed temp
M109 S200 ; wait for extruder temp
G28 ; home all
G1 Z2 F240
G1 X2 Y10 F3000
G1 Z0.28 F240
G92 E0.0
G1 Y190 E15.0 F1500.0 ; intro line
G1 X2.3 F5000
G1 Y10 E30 F1200.0 ; intro line
G92 E0.0
G21 ; set units to millimeters
G90 ; use absolute coordinates
M83 ; use relative distances for extrusion
; Filament gcode
;BEFORE_LAYER_CHANGE
;0.2


G1 E-5.00000 F3600.00000
G1 Z0.200 F9000.000
;AFTER_LAYER_CHANGE
;0.2
G1 X84.402 Y97.907
G1 E5.00000 F2400.00000
G1 F1200.000
G1 X84.960 Y97.582 E0.02024
G1 X85.619 Y97.415 E0.02130
G1 X107.581 Y95.223 E0.69203
G1 X123.579 Y95.048 E0.50163
G1 X131.567 Y95.261 E0.25056
G1 X132.185 Y95.471 E0.02048
G1 X132.723 Y95.842 E0.02048
G1 X133.139 Y96.346 E0.02048
G1 X133.404 Y96.947 E0.02060
G1 X133.494 Y97.586 E0.02024
G1 X133.491 Y122.693 E0.78722
G1 X133.363 Y123.353 E0.02107
G1 X133.058 Y123.947 E0.02095
G1 X132.599 Y124.433 E0.02095
G1 X132.023 Y124.772 E0.02095
G1 X131.148 Y124.952 E0.02802
G1 X119.042 Y124.952 E0.37957
G1 X106.963 Y124.782 E0.37878
G1 X106.384 Y124.698 E0.01835
G1 X105.859 Y124.485 E0.01775
G1 X84.674 Y112.690 E0.76024
G1 X84.077 Y112.199 E0.02426
G1 X83.670 Y111.541 E0.02426
G1 X83.490 Y110.670 E0.02790
G1 X83.500 Y99.558 E0.34838
G1 X83.647 Y98.930 E0.02024
G1 X83.955 Y98.367 E0.02012
G1 X84.360 Y97.950 E0.01824
G1 E-3.50000 F3600.00000
G1 F7200.000
G1 X84.960 Y97.582 E-0.33417
G1 X85.619 Y97.415 E-0.32275
G1 X87.228 Y97.254 E-0.76808
G1 E-0.07500 F3600.00000
G1 X85.867 Y99.779 F9000.000
G1 E5.00000 F2400.00000
G1 F1200.000
G1 X85.867 Y110.634 E0.34036
G1 X86.621 Y110.634 E0.02365
G1 X86.621 Y99.949 E0.33504
G1 X87.375 Y99.949 E0.02365
G1 X87.375 Y110.634 E0.33504
G1 X88.129 Y110.634 E0.02365
G1 X88.129 Y99.949 E0.33504
G1 X88.884 Y99.949 E0.02365
G1 X88.884 Y110.634 E0.33504
G1 X89.638 Y110.634 E0.02365
G1 X89.638 Y99.949 E0.33504
G1 X90.392 Y99.949 E0.02365
G1 X90.392 Y110.634 E0.33504
G1 X91.146 Y110.634 E0.02365
G1 X91.146 Y99.949 E0.33504
G1 X91.900 Y99.949 E0.02365
G1 X91.900 Y110.634 E0.33504
G1 X92.654 Y110.634 E0.02365
G1 X92.654 Y99.949 E0.33504
G1 X93.409 Y99.949 E0.02365
G1 X93.409 Y110.634 E0.33504
G1 X94.163 Y110.634 E0.02365
G1 X94.163 Y99.949 E0.33504
G1 X94.917 Y99.949 E0.02365
G1 X94.917 Y110.634 E0.33504
G1 X95.671 Y110.634 E0.02365
G1 X95.671 Y99.949 E0.33504
G1 X96.425 Y99.949 E0.02365
G1 X96.425 Y110.634 E0.33504
G1 X97.179 Y110.634 E0.02365
G1 X97.179 Y99.949 E0.33504
G1 X97.933 Y99.949 E0.02365
G1 X97.933 Y110.634 E0.33504
G1 X98.688 Y110.634 E0.02365
G1 X98.688 Y99.949 E0.33504
G1 X99.442 Y99.949 E0.02365
G1 X99.442 Y110.634 E0.33504
G1 X100.196 Y110.634 E0.02365
G1 X100.196 Y99.949 E0.33504
G1 X100.950 Y99.949 E0.02365
G1 X100.950 Y110.634 E0.33504
G1 X101.704 Y110.634 E0.02365
G1 X101.704 Y99.949 E0.33504
G1 X102.458 Y99.949 E0.02365
G1 X102.458 Y110.634 E0.33504
G1 X103.213 Y110.634 E0.02365
G1 X103.213 Y99.949 E0.33504
G1 X103.967 Y99.949 E0.02365
G1 X103.967 Y110.634 E0.33504
G1 X104.721 Y110.634 E0.02365
G1 X104.721 Y99.949 E0.33504
G1 X105.475 Y99.949 E0.02365
G1 X105.475 Y110.634 E0.33504
G1 X106.229 Y110.634 E0.02365
G1 X106.229 Y99.949 E0.33504
G1 X106.983 Y99.949 E0.02365
G1 X106.983 Y110.634 E0.33504
G1 X107.011 Y110.634 E0.00088
G1 X107.011 Y122.405 E0.36908
G1 X107.738 Y122.405 E0.02276
G1 X107.738 Y97.594 E0.77793
G1 X108.492 Y97.594 E0.02365
G1 X108.492 Y122.405 E0.77793
G1 X109.246 Y122.405 E0.02365
G1 X109.246 Y97.594 E0.77793
G1 X110.000 Y97.594 E0.02365
G1 X110.000 Y122.405 E0.77793
G1 X110.754 Y122.405 E0.02365
G1 X110.754 Y97.594 E0.77793
G1 X111.508 Y97.594 E0.02365
G1 X111.508 Y122.405 E0.77793
G1 X112.262 Y122.405 E0.02365
G1 X112.262 Y97.594 E0.77793
G1 X113.017 Y97.594 E0.02365
G1 X113.017 Y122.405 E0.77793
G1 X113.771 Y122.405 E0.02365
G1 X113.771 Y97.594 E0.77793
G1 X114.525 Y97.594 E0.02365
G1 X114.525 Y122.405 E0.77793
G1 X115.279 Y122.405 E0.02365
G1 X115.279 Y97.594 E0.77793
G1 X116.033 Y97.594 E0.02365
G1 X116.033 Y122.405 E0.77793
G1 X116.787 Y122.405 E0.02365
G1 X116.787 Y97.594 E0.77793
G1 X117.542 Y97.594 E0.02365
G1 X117.542 Y122.405 E0.77793
G1 X118.296 Y122.405 E0.02365
G1 X118.296 Y97.594 E0.77793
G1 X119.050 Y97.594 E0.02365
G1 X119.050 Y122.575 E0.78325
G1 X121.312 Y122.575 F9000.000
G1 F1200.000
G1 X121.312 Y111.720 E0.34036
G1 X120.558 Y111.720 E0.02365
G1 X120.558 Y122.405 E0.33504
G1 X119.804 Y122.405 E0.02365
G1 X119.804 Y97.594 E0.77793
G1 X120.558 Y97.594 E0.02365
G1 X120.558 Y108.280 E0.33504
G1 X121.312 Y108.280 E0.02365
G1 X121.312 Y97.425 E0.34036
G1 X123.575 Y97.425 F9000.000
G1 F1200.000
G1 X123.575 Y100.217 E0.08756
G1 X122.821 Y100.217 E0.02365
G1 X122.821 Y97.594 E0.08224
G1 X122.067 Y97.594 E0.02365
G1 X122.067 Y100.217 E0.08224
G1 X121.405 Y100.217 E0.02073
G1 X121.406 Y105.657 E0.17057
G1 X122.067 Y105.657 E0.02073
G1 X122.067 Y108.280 E0.08223
G1 X122.821 Y108.280 E0.02365
G1 X122.821 Y105.657 E0.08224
G1 X123.575 Y105.657 E0.02365
G1 X123.575 Y108.280 E0.08224
G1 X124.329 Y108.280 E0.02365
G1 X124.329 Y97.594 E0.33504
G1 X125.083 Y97.594 E0.02365
G1 X125.083 Y101.243 E0.11441
G1 X125.434 Y101.154 E0.01135
G1 X125.837 Y101.118 E0.01270
G1 X125.837 Y97.594 E0.11048
G1 X126.591 Y97.594 E0.02365
G1 X126.591 Y101.374 E0.11851
G1 E-3.50000 F3600.00000
G1 F7200.000
G1 X126.591 Y98.374 E-1.42500
G1 E-0.07500 F3600.00000
G1 X122.193 Y100.424 F9000.000
G1 E5.00000 F2400.00000
G1 F1200.000
G1 X122.193 Y105.451 E0.14091
G1 X123.856 Y105.451 F9000.000
G1 F1200.000
G1 X123.856 Y104.229 E0.03425
G1 X123.335 Y104.228 E0.01461
G1 X123.302 Y104.195 E0.00131
G1 X123.302 Y105.292 E0.03072
G1 X122.748 Y105.292 E0.01553
G1 X122.748 Y100.583 E0.13197
G1 X123.302 Y100.583 E0.01553
G1 X123.302 Y101.469 E0.02484
G1 X123.374 Y101.397 E0.00288
G1 X123.708 Y101.178 E0.01118
G1 X123.856 Y101.115 E0.00452
G1 X123.856 Y100.424 E0.01937
G1 X123.575 Y101.500 F9000.000
G1 F1200.000
G1 X123.575 Y104.033 E0.07942
G1 X125.083 Y103.720 F9000.000
G1 F1200.000
G1 X125.083 Y108.280 E0.14296
G1 X125.837 Y108.280 E0.02365
G1 X125.837 Y103.894 E0.13753
G1 X126.056 Y103.891 E0.00687
G1 X126.591 Y103.802 E0.01701
G1 X126.591 Y108.280 E0.14041
G1 X127.346 Y108.280 E0.02365
G1 X127.346 Y97.594 E0.33504
G1 X128.100 Y97.594 E0.02365
G1 X128.100 Y108.280 E0.33504
G1 X128.854 Y108.280 E0.02365
G1 X128.854 Y97.594 E0.33504
G1 X129.608 Y97.594 E0.02365
G1 X129.608 Y108.280 E0.33504
G1 X130.362 Y108.280 E0.02365
G1 X130.362 Y97.594 E0.33504
G1 X131.116 Y97.594 E0.02365
G1 X131.116 Y108.450 E0.34036
G1 E-3.50000 F3600.00000
G1 F7200.000
G1 X131.116 Y105.450 E-1.42500
G1 E-0.07500 F3600.00000
G1 X131.116 Y122.575 F9000.000
G1 E5.00000 F2400.00000
G1 F1200.000
G1 X131.116 Y111.720 E0.34036
G1 X130.362 Y111.720 E0.02365
G1 X130.362 Y122.405 E0.33504
G1 X129.608 Y122.405 E0.02365
G1 X129.608 Y111.720 E0.33504
G1 X128.854 Y111.720 E0.02365
G1 X128.854 Y122.405 E0.33504
G1 X128.100 Y122.405 E0.02365
G1 X128.100 Y111.720 E0.33504
G1 X127.346 Y111.720 E0.02365
G1 X127.346 Y122.405 E0.33504
G1 X126.591 Y122.405 E0.02365
G1 X126.591 Y118.802 E0.11299
G1 X126.056 Y118.891 E0.01701
G1 X125.837 Y118.883 E0.00687
G1 X125.837 Y122.405 E0.11044
G1 X125.083 Y122.405 E0.02365
G1 X125.083 Y118.578 E0.12000
G1 E-3.50000 F3600.00000
G1 F7200.000
G1 X125.083 Y121.578 E-1.42500
G1 E-0.07500 F3600.00000
G1 X126.591 Y116.374 F9000.000
G1 E5.00000 F2400.00000
G1 F1200.000
G1 X126.591 Y111.720 E0.14593
G1 X125.837 Y111.720 E0.02365
G1 X125.837 Y116.107 E0.13754
G1 X125.083 Y116.113 E0.02365
G1 X125.083 Y111.720 E0.13774
G1 X124.329 Y111.720 E0.02365
G1 X124.329 Y122.405 E0.33504
G1 X123.575 Y122.405 E0.02365
G1 X123.575 Y119.783 E0.08224
G1 X122.821 Y119.783 E0.02365
G1 X122.821 Y122.405 E0.08224
G1 X122.067 Y122.405 E0.02365
G1 X122.067 Y119.783 E0.08223
G1 X121.406 Y119.783 E0.02073
G1 X121.405 Y114.343 E0.17057
G1 X122.067 Y114.343 E0.02073
G1 X122.067 Y111.720 E0.08224
G1 X122.821 Y111.720 E0.02365
G1 X122.821 Y114.343 E0.08224
G1 X123.575 Y114.343 E0.02365
G1 X123.575 Y111.550 E0.08756
G1 E-3.50000 F3600.00000
G1 F7200.000
G1 X123.575 Y114.343 E-1.32641
G1 X123.367 Y114.343 E-0.09859
G1 E-0.07500 F3600.00000
G1 X123.575 Y115.967 F9000.000
G1 E5.00000 F2400.00000
G1 F1200.000
G1 X123.575 Y118.504 E0.07955
G1 X123.856 Y119.576 F9000.000
G1 F1200.000
G1 X123.856 Y118.893 E0.01915
G1 X123.680 Y118.816 E0.00539
G1 X123.364 Y118.595 E0.01081
G1 X123.302 Y118.532 E0.00248
G1 X123.302 Y119.417 E0.02480
G1 X122.748 Y119.417 E0.01553
G1 X122.748 Y114.708 E0.13197
G1 X123.302 Y114.708 E0.01553
G1 X123.302 Y115.806 E0.03075
G1 X123.337 Y115.771 E0.00138
G1 X123.856 Y115.770 E0.01455
G1 X123.856 Y114.549 E0.03423
G1 X122.193 Y114.549 F9000.000
G1 F1200.000
G1 X122.193 Y119.576 E0.14091
G1 E-3.50000 F3600.00000
G1 F7200.000
G1 X122.193 Y116.576 E-1.42500
G1 E-0.07500 F3600.00000
G1 X125.375 Y102.846 F9000.000
G1 E5.00000 F2400.00000
G1 F1200.000
G1 X125.374 Y102.248 E0.01874
G1 X125.607 Y102.187 E0.00754
G1 X125.976 Y102.156 E0.01162
G1 X126.339 Y102.220 E0.01154
G1 X126.339 Y102.780 E0.01759
G1 X125.953 Y102.848 E0.01229
G1 X125.435 Y102.846 E0.01625
G1 X124.998 Y103.221 F9000.000
G1 F1200.000
G1 X124.997 Y102.041 E0.03699
G1 X125.011 Y102.007 E0.00116
G1 X125.154 Y101.916 E0.00531
G1 X125.543 Y101.814 E0.01261
G1 X125.992 Y101.776 E0.01412
G1 X126.435 Y101.850 E0.01410
G1 X126.616 Y101.930 E0.00620
G1 X126.716 Y102.068 E0.00535
G1 X126.716 Y102.932 E0.02709
G1 X126.616 Y103.070 E0.00535
G1 X126.435 Y103.150 E0.00620
G1 X125.983 Y103.225 E0.01437
G1 X125.058 Y103.221 E0.02901
G1 X125.192 Y102.871 F9000.000
G1 E-3.50000 F3600.00000
G1 F7200.000
G1 X124.997 Y102.041 E-0.56121
G1 X125.011 Y102.007 E-0.01764
G1 X125.154 Y101.916 E-0.08044
G1 X125.543 Y101.814 E-0.19096
G1 X125.992 Y101.776 E-0.21389
G1 X126.435 Y101.850 E-0.21357
G1 X126.616 Y101.930 E-0.09386
G1 X126.682 Y102.021 E-0.05342
G1 E-0.07500 F3600.00000
G1 X125.376 Y117.157 F9000.000
G1 E5.00000 F2400.00000
G1 F1200.000
G1 X125.954 Y117.152 E0.01812
G1 X126.339 Y117.220 E0.01225
G1 X126.339 Y117.780 E0.01759
G1 X125.981 Y117.844 E0.01140
G1 X125.673 Y117.825 E0.00967
G1 X125.375 Y117.752 E0.00963
G1 X125.376 Y117.217 E0.01678
G1 X124.999 Y116.782 F9000.000
G1 F1200.000
G1 X125.983 Y116.775 E0.03085
G1 X126.435 Y116.850 E0.01435
G1 X126.616 Y116.930 E0.00620
G1 X126.716 Y117.068 E0.00535
G1 X126.716 Y117.932 E0.02709
G1 X126.616 Y118.070 E0.00535
G1 X126.435 Y118.150 E0.00620
G1 X126.000 Y118.223 E0.01382
G1 X125.621 Y118.199 E0.01192
G1 X125.317 Y118.134 E0.00974
G1 X125.134 Y118.063 E0.00616
G1 X124.997 Y117.957 E0.00543
G1 X124.999 Y116.842 E0.03493
G1 X125.354 Y116.968 F9000.000
M106 S255
;BEFORE_LAYER_CHANGE
;0.32


G1 E-3.50000 F3600.00000
G1 F7200.000
G1 X125.983 Y116.775 E-0.46856
G1 X126.435 Y116.850 E-0.21747
G1 X126.616 Y116.930 E-0.09386
G1 X126.716 Y117.068 E-0.08106
G1 X126.716 Y117.932 E-0.41038
G1 X126.616 Y118.070 E-0.08106
G1 X126.476 Y118.132 E-0.07261
G1 E-0.07500 F3600.00000
G1 Z0.320 F9000.000
;AFTER_LAYER_CHANGE
;0.32
G1 X132.023 Y124.772
G1 E5.00000 F2400.00000
G1 F900
G1 X131.148 Y124.952 E0.01758
G1 X119.042 Y124.952 E0.23811
G1 X106.963 Y124.782 E0.23762
G1 X106.384 Y124.698 E0.01151
G1 X105.859 Y124.485 E0.01114
G1 X84.674 Y112.690 E0.47691
G1 X84.077 Y112.199 E0.01522
G1 X83.670 Y111.541 E0.01522
G1 X83.490 Y110.670 E0.01750
G1 X83.500 Y99.558 E0.21855
G1 X83.647 Y98.930 E0.01270
G1 X83.955 Y98.367 E0.01262
G1 X84.402 Y97.907 E0.01262
G1 X84.960 Y97.582 E0.01270
G1 X85.619 Y97.415 E0.01336
G1 X107.581 Y95.223 E0.43413
G1 X123.579 Y95.048 E0.31468
G1 X131.567 Y95.261 E0.15718
G1 X132.185 Y95.471 E0.01285
G1 X132.723 Y95.842 E0.01285
G1 X133.139 Y96.346 E0.01285
G1 X133.404 Y96.947 E0.01292
G1 X133.494 Y97.586 E0.01270
G1 X133.491 Y122.693 E0.49384
G1 X133.363 Y123.353 E0.01322
G1 X133.058 Y123.947 E0.01314
G1 X132.599 Y124.433 E0.01314
G1 X132.075 Y124.742 E0.01196
G1 E-3.50000 F3600.00000
G1 F7200.000
G1 X131.148 Y124.952 E-0.45151
G1 X129.099 Y124.952 E-0.97349
G1 E-0.07500 F3600.00000
G1 X126.431 Y102.543 F9000.000
G1 E5.00000 F2400.00000
G1 F900
G1 X126.317 Y102.571 E0.00247
G1 X125.966 Y102.592 E0.00745
G1 X125.058 Y102.595 E0.01923
G1 X125.058 Y102.515 E0.00168
G1 X125.287 Y102.454 E0.00502
G1 X125.591 Y102.423 E0.00648
G1 X125.986 Y102.409 E0.00836
G1 X126.317 Y102.429 E0.00703
G1 X126.431 Y102.457 E0.00247
G1 X126.431 Y102.483 E0.00056
G1 X126.769 Y102.102 F9000.000
G1 F900
G1 X126.855 Y102.161 E0.00220
G1 X126.855 Y102.839 E0.01435
G1 X126.782 Y102.893 E0.00193
G1 X126.381 Y102.992 E0.00874
G1 X125.980 Y103.016 E0.00851
G1 X124.633 Y103.020 E0.02849
G1 X124.634 Y102.212 E0.01710
G1 X124.707 Y102.170 E0.00179
G1 X125.210 Y102.036 E0.01103
G1 X125.562 Y101.999 E0.00749
G1 X125.992 Y101.985 E0.00909
G1 X126.381 Y102.008 E0.00825
G1 X126.711 Y102.088 E0.00719
G1 X125.997 Y101.560 F9000.000
G1 F900
G1 X126.444 Y101.587 E0.00948
G1 X126.976 Y101.728 E0.01165
G1 F1500.000
G1 X127.223 Y101.905 E0.01505
G1 X127.279 Y102.044 E0.00746
G1 X127.279 Y102.956 E0.04528
G1 X127.223 Y103.095 E0.00746
G1 X126.976 Y103.272 E0.01505
G1 F900
G1 X126.444 Y103.413 E0.01165
G1 X125.993 Y103.440 E0.00957
G1 X124.588 Y103.444 E0.02974
G1 F1500.000
G1 X124.209 Y103.446 E0.01881
G1 X124.209 Y102.045 E0.06950
G1 X124.285 Y101.924 E0.00708
G1 X124.542 Y101.774 E0.01477
G1 X124.693 Y101.734 E0.00772
G1 F900
G1 X125.133 Y101.617 E0.00965
G1 X125.533 Y101.576 E0.00850
G1 X125.937 Y101.562 E0.00856
G1 X126.191 Y101.910 F9000.000
G1 E-3.50000 F3600.00000
G1 F7200.000
G1 X126.444 Y101.587 E-0.24113
G1 X126.976 Y101.728 E-0.26150
G1 E-0.99736 F3600.00000
G1 X126.431 Y117.457 F9000.000
G1 E5.00000 F2400.00000
G1 F900
G1 X126.431 Y117.543 E0.00183
G1 X126.315 Y117.571 E0.00253
G1 X125.959 Y117.595 E0.00754
G1 X125.419 Y117.560 E0.01147
G1 X125.059 Y117.484 E0.00779
G1 X125.059 Y117.406 E0.00164
G1 X125.967 Y117.408 E0.01922
G1 X126.373 Y117.443 E0.00862
G1 X126.769 Y117.102 F9000.000
G1 F900
G1 X126.855 Y117.161 E0.00220
G1 X126.855 Y117.839 E0.01435
G1 X126.769 Y117.898 E0.00220
G1 X126.379 Y117.992 E0.00849
G1 X125.960 Y118.020 E0.00890
G1 X125.361 Y117.982 E0.01270
G1 X124.789 Y117.860 E0.01237
G1 X124.634 Y117.785 E0.00365
G1 X124.635 Y116.981 E0.01702
G1 X125.980 Y116.984 E0.02847
G1 X126.381 Y117.008 E0.00850
G1 X126.711 Y117.088 E0.00719
G1 X125.993 Y116.560 F9000.000
G1 F900
G1 X126.444 Y116.587 E0.00957
G1 X126.976 Y116.728 E0.01165
G1 F1500.000
G1 X127.223 Y116.905 E0.01505
G1 X127.279 Y117.044 E0.00746
G1 X127.279 Y117.956 E0.04528
G1 X127.223 Y118.095 E0.00746
G1 X126.976 Y118.272 E0.01505
G1 F900
G1 X126.444 Y118.413 E0.01166
G1 X125.960 Y118.445 E0.01026
G1 X125.303 Y118.403 E0.01393
G1 X124.742 Y118.284 E0.01213
G1 F1500.000
G1 X124.556 Y118.229 E0.00965
G1 X124.278 Y118.071 E0.01589
G1 X124.223 Y118.011 E0.00403
G1 X124.209 Y117.967 E0.00228
G1 X124.211 Y116.556 E0.07003
G1 X124.590 Y116.557 E0.01881
G1 F900
G1 X125.933 Y116.560 E0.02842
;BEFORE_LAYER_CHANGE
;0.41


G1 E-3.50000 F3600.00000
G1 F7200.000
G1 X126.444 Y116.587 E-0.24314
G1 X126.976 Y116.728 E-0.26150
G1 E-0.99536 F3600.00000
G1 Z0.410 F9000.000
;AFTER_LAYER_CHANGE
;0.41
G1 X128.290 Y116.146
G1 E5.00000 F2400.00000
G1 F1093
G1 X128.290 Y114.708 E0.04204
G1 X127.736 Y114.708 E0.01621
G1 X127.736 Y115.802 E0.03197
G1 X127.182 Y115.722 E0.01637
G1 X127.182 Y114.708 E0.02964
