; generated by PrusaSlicer 2.2.0+win64 on 2021-04-25 at 18:57:24 UTC

; 

; external perimeters extrusion width = 0.45mm
; perimeters extrusion width = 0.45mm
; infill extrusion width = 0.45mm
; solid infill extrusion width = 0.45mm
; top infill extrusion width = 0.40mm
; support material extrusion width = 0.38mm
; first layer extrusion width = 0.42mm

M201 X500 Y500 Z100 E5000 ; sets maximum accelerations, mm/sec^2
M203 X500 Y500 Z10 E60 ; sets maximum feedrates, mm/sec
M204 P500 R1000 T500 ; sets acceleration (P, T) and retract acceleration (R), mm/sec^2
M205 X8.00 Y8.00 Z0.40 E5.00 ; sets the jerk limits, mm/sec
M205 S0 T0 ; sets the minimum extruding and travel feed rate, mm/sec
M107
G90 ; use absolute coordinates
M83 ; extruder relative mode
M104 S200 ; set extruder temp
M140 S60 ; set bed temp
M190 S60 ; wait for bed temp
M109 S200 ; wait for extruder temp
G28 ; home all
G1 Z2 F240
G1 X2 Y10 F3000
G1 Z0.28 F240
G92 E0.0
G1 Y190 E15.0 F1500.0 ; intro line
G1 X2.3 F5000
G1 Y10 E30 F1200.0 ; intro line
G92 E0.0
G21 ; set units to millimeters
G90 ; use absolute coordinates
M83 ; use relative distances for extrusion
; Filament gcode
;BEFORE_LAYER_CHANGE
;0.2


G1 E-5.00000 F3600.00000
G1 Z0.200 F9000.000
;AFTER_LAYER_CHANGE
;0.2
G1 X103.569 Y97.447
G1 E5.00000 F2400.00000
G1 F1200.000
G1 X104.067 Y97.273 E0.01656
G1 X104.586 Y97.198 E0.01643
G1 X112.266 Y97.025 E0.24087
G1 X115.642 Y97.219 E0.10602
G1 X116.222 Y97.361 E0.01873
G1 X116.758 Y97.625 E0.01873
G1 X117.244 Y98.019 E0.01963
G1 X121.798 Y102.758 E0.20606
G1 X122.244 Y103.379 E0.02396
G1 X122.474 Y103.983 E0.02026
G1 X122.558 Y104.619 E0.02014
G1 X122.558 Y115.545 E0.34257
G1 X122.420 Y116.375 E0.02638
G1 X122.182 Y116.901 E0.01809
G1 X121.838 Y117.369 E0.01822
G1 X117.304 Y121.985 E0.20286
G1 X116.806 Y122.384 E0.02001
G1 X116.226 Y122.660 E0.02014
G1 X115.434 Y122.804 E0.02523
G1 X106.986 Y122.975 E0.26495
G1 X104.391 Y122.793 E0.08155
G1 X103.795 Y122.667 E0.01912
G1 X103.206 Y122.392 E0.02039
G1 X102.697 Y121.986 E0.02039
G1 X98.161 Y117.369 E0.20295
G1 X97.819 Y116.904 E0.01809
G1 X97.580 Y116.374 E0.01822
G1 X97.442 Y115.544 E0.02638
G1 X97.442 Y104.657 E0.34136
G1 X97.580 Y103.795 E0.02739
G1 X97.830 Y103.247 E0.01886
G1 X98.192 Y102.767 E0.01886
G1 X102.784 Y97.991 E0.20774
G1 X103.519 Y97.481 E0.02805
G1 X103.732 Y97.789 F9000.000
G1 F1200.000
G1 X104.616 Y97.574 E0.02853
G1 X112.266 Y97.402 E0.23993
G1 X115.576 Y97.590 E0.10394
G1 X116.086 Y97.713 E0.01645
G1 X116.560 Y97.946 E0.01657
G1 X116.979 Y98.287 E0.01692
G1 X121.523 Y103.016 E0.20565
G1 X121.914 Y103.562 E0.02107
G1 X122.110 Y104.081 E0.01740
G1 X122.181 Y104.632 E0.01740
G1 X122.181 Y115.539 E0.34200
G1 X122.058 Y116.268 E0.02319
G1 X121.849 Y116.725 E0.01574
G1 X121.551 Y117.124 E0.01562
G1 X117.035 Y121.720 E0.20203
G1 X116.599 Y122.069 E0.01752
G1 X116.093 Y122.307 E0.01752
G1 X115.417 Y122.427 E0.02154
G1 X106.982 Y122.598 E0.26453
G1 X104.431 Y122.418 E0.08018
G1 X103.900 Y122.304 E0.01704
G1 X103.395 Y122.065 E0.01752
G1 X102.962 Y121.718 E0.01741
G1 X98.446 Y117.121 E0.20205
G1 X98.143 Y116.711 E0.01597
G1 X97.935 Y116.246 E0.01597
G1 X97.819 Y115.538 E0.02249
G1 X97.819 Y104.657 E0.34117
G1 X97.942 Y103.901 E0.02402
G1 X98.157 Y103.435 E0.01609
G1 X98.470 Y103.023 E0.01621
G1 X103.044 Y98.264 E0.20699
G1 X103.682 Y97.823 E0.02431
G1 E-3.50000 F3600.00000
G1 F7200.000
G1 X104.616 Y97.574 E-0.45897
G1 X106.649 Y97.528 E-0.96603
G1 E-0.07500 F3600.00000
G1 X112.262 Y99.779 F9000.000
G1 E5.00000 F2400.00000
G1 F1200.000
G1 X112.262 Y107.108 E0.22980
G1 X111.508 Y107.108 E0.02365
G1 X111.508 Y99.949 E0.22448
G1 X110.754 Y99.949 E0.02365
G1 X110.754 Y107.108 E0.22449
G1 X110.000 Y107.111 E0.02365
G1 X110.000 Y99.949 E0.22456
G1 X109.246 Y99.949 E0.02365
G1 X109.246 Y107.108 E0.22449
G1 X108.492 Y107.108 E0.02365
G1 X108.492 Y99.949 E0.22448
G1 X107.738 Y99.949 E0.02365
G1 X107.738 Y107.108 E0.22448
G1 X107.522 Y107.127 E0.00680
G1 X107.378 Y107.191 E0.00492
G1 X107.294 Y107.252 E0.00328
G1 X107.170 Y107.414 E0.00638
G1 X107.105 Y107.637 E0.00728
G1 X107.105 Y112.362 E0.14814
G1 X107.167 Y112.578 E0.00704
G1 X107.301 Y112.754 E0.00696
G1 X107.414 Y112.830 E0.00427
G1 X107.525 Y112.874 E0.00375
G1 X107.738 Y112.892 E0.00668
G1 X107.738 Y120.051 E0.22448
G1 X108.492 Y120.051 E0.02365
G1 X108.492 Y112.892 E0.22448
G1 X109.246 Y112.892 E0.02365
G1 X109.246 Y120.051 E0.22449
G1 X110.000 Y120.051 E0.02365
G1 X110.000 Y112.889 E0.22455
G1 X110.754 Y112.892 E0.02365
G1 X110.754 Y120.051 E0.22449
G1 X111.508 Y120.051 E0.02365
G1 X111.508 Y112.892 E0.22448
G1 X112.262 Y112.892 E0.02365
G1 X112.262 Y120.051 E0.22448
G1 X113.017 Y120.051 E0.02365
G1 X113.017 Y99.949 E0.63030
G1 X113.771 Y99.949 E0.02365
G1 X113.771 Y120.051 E0.63030
G1 X114.525 Y120.051 E0.02365
G1 X114.525 Y99.949 E0.63030
G1 X115.279 Y99.949 E0.02365
G1 X115.279 Y120.051 E0.63030
G1 X115.343 Y120.051 E0.00200
G1 X115.343 Y115.343 E0.14763
G1 X116.033 Y115.343 E0.02165
G1 X116.033 Y104.657 E0.33504
G1 X116.787 Y104.657 E0.02365
G1 X116.787 Y115.343 E0.33504
G1 X117.542 Y115.343 E0.02365
G1 X117.542 Y104.657 E0.33504
G1 X118.296 Y104.657 E0.02365
G1 X118.296 Y115.343 E0.33504
G1 X119.050 Y115.343 E0.02365
G1 X119.050 Y104.657 E0.33504
G1 X119.804 Y104.657 E0.02365
G1 X119.804 Y115.512 E0.34036
G1 E-3.50000 F3600.00000
G1 F7200.000
G1 X119.804 Y112.512 E-1.42500
G1 E-0.07500 F3600.00000
G1 X106.983 Y120.221 F9000.000
G1 E5.00000 F2400.00000
G1 F1200.000
G1 X106.983 Y99.949 E0.63562
G1 X106.229 Y99.949 E0.02365
G1 X106.229 Y120.051 E0.63030
G1 X105.475 Y120.051 E0.02365
G1 X105.475 Y99.949 E0.63030
G1 X104.721 Y99.949 E0.02365
G1 X104.721 Y120.051 E0.63030
G1 X104.657 Y120.051 E0.00200
G1 X104.657 Y115.343 E0.14763
G1 X103.967 Y115.343 E0.02165
G1 X103.967 Y104.657 E0.33504
G1 X103.213 Y104.657 E0.02365
G1 X103.213 Y115.343 E0.33504
G1 X102.458 Y115.343 E0.02365
G1 X102.458 Y104.657 E0.33504
G1 X101.704 Y104.657 E0.02365
G1 X101.704 Y115.343 E0.33504
G1 X100.950 Y115.343 E0.02365
G1 X100.950 Y104.657 E0.33504
G1 X100.196 Y104.657 E0.02365
G1 X100.196 Y115.512 E0.34036
G1 E-3.50000 F3600.00000
G1 F7200.000
G1 X100.196 Y112.512 E-1.42500
G1 E-0.07500 F3600.00000
G1 X108.530 Y111.470 F9000.000
G1 E5.00000 F2400.00000
G1 F1200.000
G1 X108.530 Y108.531 E0.09214
G1 X111.470 Y108.531 E0.09216
G1 X111.470 Y111.470 E0.09215
G1 X108.590 Y111.470 E0.09028
G1 X108.153 Y111.847 F9000.000
G1 F1200.000
G1 X108.153 Y108.154 E0.11579
G1 X111.847 Y108.153 E0.11580
G1 X111.847 Y111.847 E0.11580
G1 X108.213 Y111.847 E0.11392
G1 X107.776 Y112.224 F9000.000
G1 F1200.000
G1 X107.776 Y107.777 E0.13943
G1 X112.224 Y107.776 E0.13945
G1 X112.224 Y112.224 E0.13945
G1 X107.836 Y112.224 E0.13757
G1 X107.880 Y111.837 F9000.000
G1 E-3.50000 F3600.00000
G1 F7200.000
G1 X107.796 Y109.224 E-1.42500
G1 E-0.07500 F3600.00000
G1 X111.356 Y109.431 F9000.000
G1 E5.00000 F2400.00000
G1 F1200.000
G1 X110.739 Y108.813 E0.02826
G1 X110.189 Y108.813 E0.01779
G1 X111.187 Y109.812 E0.04566
G1 X111.187 Y110.362 E0.01779
G1 X109.639 Y108.814 E0.07082
G1 X109.089 Y108.814 E0.01779
G1 X111.187 Y110.912 E0.09598
G1 X111.187 Y111.187 E0.00889
G1 X110.912 Y111.187 E0.00890
G1 X108.813 Y109.088 E0.09599
G1 X108.813 Y109.639 E0.01779
G1 X110.361 Y111.187 E0.07082
G1 X109.811 Y111.187 E0.01779
G1 X108.813 Y110.189 E0.04566
G1 X108.813 Y110.739 E0.01779
G1 X109.431 Y111.356 E0.02826
M106 S255
;BEFORE_LAYER_CHANGE
;0.32


G1 E-3.50000 F3600.00000
G1 F7200.000
G1 X108.813 Y110.739 E-0.41496
G1 X108.813 Y110.189 E-0.26131
G1 X109.811 Y111.187 E-0.67052
G1 X109.976 Y111.187 E-0.07821
G1 E-0.07500 F3600.00000
G1 Z0.320 F9000.000
;AFTER_LAYER_CHANGE
;0.32
G1 X116.226 Y122.660
G1 E5.00000 F2400.00000
G1 F900
G1 X115.434 Y122.804 E0.01583
G1 X106.986 Y122.975 E0.16621
G1 X104.391 Y122.793 E0.05116
G1 X103.795 Y122.667 E0.01199
G1 X103.206 Y122.392 E0.01279
G1 X102.697 Y121.986 E0.01279
G1 X98.161 Y117.369 E0.12731
G1 X97.819 Y116.904 E0.01135
G1 X97.580 Y116.374 E0.01143
G1 X97.442 Y115.544 E0.01655
G1 X97.442 Y104.657 E0.21414
G1 X97.580 Y103.795 E0.01718
G1 X97.830 Y103.247 E0.01183
G1 X98.192 Y102.767 E0.01183
G1 X102.784 Y97.991 E0.13032
G1 X103.569 Y97.447 E0.01878
G1 X104.067 Y97.273 E0.01039
G1 X104.586 Y97.198 E0.01031
G1 X112.266 Y97.025 E0.15110
G1 X115.642 Y97.219 E0.06651
G1 X116.222 Y97.361 E0.01175
G1 X116.758 Y97.625 E0.01175
G1 X117.244 Y98.019 E0.01231
G1 X121.798 Y102.758 E0.12927
G1 X122.244 Y103.379 E0.01503
G1 X122.474 Y103.983 E0.01271
G1 X122.558 Y104.619 E0.01263
G1 X122.558 Y115.545 E0.21490
G1 X122.420 Y116.375 E0.01655
G1 X122.182 Y116.901 E0.01135
G1 X121.838 Y117.369 E0.01143
G1 X117.304 Y121.985 E0.12726
G1 X116.806 Y122.384 E0.01255
G1 X116.280 Y122.634 E0.01145
G1 X116.121 Y122.294 F9000.000
G1 F900
G1 X115.417 Y122.427 E0.01409
G1 X106.982 Y122.598 E0.16594
G1 X104.431 Y122.418 E0.05030
G1 X103.900 Y122.304 E0.01069
G1 X103.395 Y122.065 E0.01099
G1 X102.962 Y121.718 E0.01092
G1 X98.446 Y117.121 E0.12675
G1 X98.143 Y116.711 E0.01002
G1 X97.935 Y116.246 E0.01002
G1 X97.819 Y115.538 E0.01411
G1 X97.819 Y104.657 E0.21402
G1 X97.942 Y103.901 E0.01507
G1 X98.157 Y103.435 E0.01009
G1 X98.470 Y103.023 E0.01017
G1 X103.044 Y98.264 E0.12985
G1 X103.740 Y97.784 E0.01662
G1 X104.616 Y97.574 E0.01772
G1 X112.266 Y97.402 E0.15051
G1 X115.576 Y97.590 E0.06520
G1 X116.086 Y97.713 E0.01032
G1 X116.560 Y97.946 E0.01039
G1 X116.979 Y98.287 E0.01062
G1 X121.523 Y103.016 E0.12901
G1 X121.914 Y103.562 E0.01322
G1 X122.110 Y104.081 E0.01091
G1 X122.181 Y104.632 E0.01091
G1 X122.181 Y115.539 E0.21454
G1 X122.058 Y116.268 E0.01455
G1 X121.849 Y116.725 E0.00987
G1 X121.551 Y117.124 E0.00980
G1 X117.035 Y121.720 E0.12674
G1 X116.599 Y122.069 E0.01099
G1 X116.175 Y122.268 E0.00922
G1 E-3.50000 F3600.00000
G1 F7200.000
G1 X115.417 Y122.427 E-0.36783
G1 X113.192 Y122.472 E-1.05717
G1 E-0.07500 F3600.00000
G1 X111.597 Y111.597 F9000.000
G1 E5.00000 F2400.00000
G1 F900
G1 X108.403 Y111.597 E0.06762
G1 X108.403 Y108.403 E0.06760
G1 X111.597 Y108.403 E0.06762
G1 X111.597 Y111.537 E0.06633
G1 X112.022 Y112.022 F9000.000
G1 F900
G1 X107.978 Y112.022 E0.08558
G1 X107.978 Y107.979 E0.08557
G1 X112.022 Y107.979 E0.08558
G1 X112.022 Y111.962 E0.08430
G1 X112.446 Y111.962 F9000.000
G1 F900
G1 X112.446 Y112.446 E0.01025
G1 X107.554 Y112.446 E0.10354
G1 X107.554 Y107.554 E0.10353
G1 X112.446 Y107.554 E0.10354
G1 X112.446 Y111.902 E0.09201
G1 X112.168 Y112.249 F9000.000
G1 E-3.50000 F3600.00000
G1 F7200.000
G1 X112.446 Y112.446 E-0.25852
G1 X109.990 Y112.446 E-1.16648
G1 E-0.07500 F3600.00000
G1 X109.482 Y108.531 F9000.000
G1 E5.00000 F2400.00000
G1 F900
G1 X108.721 Y109.291 E0.02515
G1 X108.721 Y109.954 E0.01549
G1 X109.953 Y108.722 E0.04075
G1 X110.616 Y108.722 E0.01549
G1 X108.721 Y110.617 E0.06266
G1 X108.721 Y111.279 E0.01549
G1 X111.279 Y108.722 E0.08457
G1 X111.279 Y109.384 E0.01548
G1 X109.384 Y111.279 E0.06266
G1 X110.047 Y111.279 E0.01549
G1 X111.279 Y110.047 E0.04075
G1 X111.279 Y110.709 E0.01549
G1 X110.518 Y111.470 E0.02515
;BEFORE_LAYER_CHANGE
;0.420043


G1 E-3.50000 F3600.00000
G1 F7200.000
G1 X111.279 Y110.709 E-0.51106
G1 X111.279 Y110.047 E-0.31478
G1 X110.387 Y110.938 E-0.59915
G1 E-0.07500 F3600.00000
G1 Z0.420 F9000.000
;AFTER_LAYER_CHANGE
;0.420043
G1 X107.783 Y113.287
G1 E5.00000 F2400.00000
G1 F900
G1 X107.783 Y117.063 E0.11495
G1 X108.337 Y117.063 E0.01687
G1 X108.337 Y113.447 E0.11009
G1 X108.892 Y113.447 E0.01687
G1 X108.892 Y117.063 E0.11008
G1 X109.446 Y117.063 E0.01687
G1 X109.446 Y113.447 E0.11008
G1 X110.000 Y113.447 E0.01687
G1 X110.000 Y117.063 E0.11008
G1 X110.554 Y117.063 E0.01687
G1 X110.554 Y113.447 E0.11008
G1 X111.108 Y113.447 E0.01687
G1 X111.108 Y117.063 E0.11008
G1 X111.663 Y117.063 E0.01687
G1 X111.663 Y113.447 E0.11009
G1 X112.217 Y113.446 E0.01687
G1 X112.217 Y117.222 E0.11495
G1 E-3.50000 F3600.00000
G1 F7200.000
G1 X112.217 Y114.222 E-1.42500
G1 E-0.07500 F3600.00000
G1 X113.880 Y112.514 F9000.000
G1 E5.00000 F2400.00000
G1 F900
G1 X113.880 Y107.646 E0.14820
G1 X114.434 Y107.646 E0.01687
G1 X114.434 Y112.354 E0.14335
G1 X114.988 Y112.354 E0.01687
G1 X114.988 Y107.646 E0.14335
G1 X115.542 Y107.646 E0.01687
G1 X115.542 Y112.354 E0.14335
G1 X116.097 Y112.354 E0.01687
G1 X116.097 Y107.646 E0.14335
G1 X116.651 Y107.646 E0.01687
G1 X116.651 Y112.514 E0.14820
G1 E-3.50000 F3600.00000
G1 F7200.000
G1 X116.651 Y109.514 E-1.42500
G1 E-0.07500 F3600.00000
G1 X112.217 Y106.713 F9000.000
G1 E5.00000 F2400.00000
G1 F900
G1 X112.217 Y102.937 E0.11495
G1 X111.663 Y102.937 E0.01687
G1 X111.663 Y106.553 E0.11009
G1 X111.108 Y106.553 E0.01687
G1 X111.108 Y102.937 E0.11009
G1 X110.554 Y102.937 E0.01687
G1 X110.554 Y106.553 E0.11009
G1 X110.000 Y106.553 E0.01687
G1 X110.000 Y102.937 E0.11009
G1 X109.446 Y102.937 E0.01687
G1 X109.446 Y106.553 E0.11009
G1 X108.892 Y106.553 E0.01687
G1 X108.892 Y102.937 E0.11009
G1 X108.337 Y102.937 E0.01687
G1 X108.337 Y106.553 E0.11009
G1 X107.783 Y106.554 E0.01687
G1 X107.783 Y102.778 E0.11495
G1 E-3.50000 F3600.00000
G1 F7200.000
G1 X107.783 Y105.778 E-1.42500
G1 E-0.07500 F3600.00000
G1 X106.120 Y112.514 F9000.000
G1 E5.00000 F2400.00000
G1 F900
G1 X106.120 Y107.646 E0.14820
G1 X105.566 Y107.646 E0.01687
G1 X105.566 Y112.354 E0.14335
G1 X105.012 Y112.354 E0.01687
G1 X105.012 Y107.646 E0.14335
G1 X104.458 Y107.646 E0.01687
G1 X104.458 Y112.354 E0.14335
G1 X103.903 Y112.354 E0.01687
G1 X103.903 Y107.646 E0.14335
G1 X103.349 Y107.646 E0.01687
G1 X103.349 Y112.514 E0.14820
;BEFORE_LAYER_CHANGE
;0.44


G1 E-3.50000 F3600.00000
G1 F7200.000
G1 X103.349 Y109.514 E-1.42500
G1 E-0.07500 F3600.00000
G1 Z0.440 F9000.000
;AFTER_LAYER_CHANGE
;0.44
G1 X108.290 Y108.290
G1 E5.00000 F2400.00000
G1 F900
G1 X111.710 Y108.290 E0.07239
G1 X111.710 Y111.711 E0.07241
G1 X108.289 Y111.710 E0.07240
G1 X108.290 Y108.350 E0.07113
G1 X107.866 Y107.866 F9000.000
G1 F900
G1 X112.134 Y107.866 E0.09035
G1 X112.134 Y112.135 E0.09036
G1 X107.865 Y112.134 E0.09036
G1 X107.865 Y107.926 E0.08909
G1 X107.441 Y107.441 F9000.000
G1 F900
G1 X112.558 Y107.441 E0.10831
G1 X112.559 Y112.558 E0.10831
G1 X107.442 Y112.559 E0.10831
G1 X107.441 Y107.501 E0.10704
G1 X107.828 Y107.545 F9000.000
G1 E-3.50000 F3600.00000
G1 F7200.000
G1 X110.441 Y107.466 E-1.42500
G1 E-0.07500 F3600.00000
G1 X111.583 Y109.337 F9000.000
G1 E5.00000 F2400.00000
G1 F900
G1 X110.853 Y108.608 E0.02335
G1 X110.212 Y108.608 E0.01453
G1 X111.392 Y109.788 E0.03778
G1 X111.392 Y110.430 E0.01453
G1 X109.570 Y108.608 E0.05832
G1 X108.928 Y108.608 E0.01453
G1 X111.392 Y111.072 E0.07887
G1 X111.392 Y111.392 E0.00726
G1 X111.071 Y111.392 E0.00726
G1 X108.608 Y108.929 E0.07886
G1 X108.608 Y109.571 E0.01452
G1 X110.429 Y111.392 E0.05831
G1 X109.788 Y111.392 E0.01453
G1 X108.608 Y110.212 E0.03777
G1 X108.608 Y110.854 E0.01452
G1 X109.337 Y111.583 E0.02334
;BEFORE_LAYER_CHANGE
;0.56


G1 E-3.50000 F3600.00000
G1 F7200.000
G1 X108.608 Y110.854 E-0.48980
G1 X108.608 Y110.212 E-0.30477
G1 X109.546 Y111.151 E-0.63044
G1 E-0.07500 F3600.00000
G1 Z0.560 F9000.000
;AFTER_LAYER_CHANGE
;0.56
G1 X108.209 Y111.791
G1 E5.00000 F2400.00000
G1 F900
G1 X108.209 Y108.209 E0.07582
G1 X111.791 Y108.209 E0.07582
G1 X111.791 Y111.791 E0.07581
G1 X108.269 Y111.791 E0.07455
G1 X107.785 Y112.216 F9000.000
G1 F900
G1 X107.784 Y107.785 E0.09378
G1 X112.215 Y107.785 E0.09378
G1 X112.215 Y112.215 E0.09377
G1 X107.845 Y112.216 E0.09251
G1 X107.372 Y112.640 F9000.000
G1 F900
G1 X107.362 Y107.360 E0.11174
G1 X112.635 Y107.364 E0.11160
G1 X112.638 Y112.640 E0.11166
G1 X107.432 Y112.640 E0.11017
G1 X107.475 Y112.253 F9000.000
G1 E-3.50000 F3600.00000
G1 F7200.000
G1 X107.393 Y109.640 E-1.42500
G1 E-0.07500 F3600.00000
G1 X109.213 Y108.336 F9000.000
G1 E5.00000 F2400.00000
G1 F900
G1 X108.527 Y109.022 E0.02096
G1 X108.527 Y109.635 E0.01325
G1 X109.634 Y108.527 E0.03386
G1 X110.247 Y108.527 E0.01324
G1 X108.527 Y110.247 E0.05259
G1 X108.527 Y110.860 E0.01325
G1 X110.860 Y108.527 E0.07132
G1 X111.472 Y108.527 E0.01324
G1 X108.527 Y111.473 E0.09005
G1 X109.140 Y111.473 E0.01324
G1 X111.473 Y109.140 E0.07132
G1 X111.473 Y109.753 E0.01324
