; generated by PrusaSlicer 2.2.0+win64 on 2021-04-25 at 04:01:04 UTC

; 

; external perimeters extrusion width = 0.45mm
; perimeters extrusion width = 0.45mm
; infill extrusion width = 0.45mm
; solid infill extrusion width = 0.45mm
; top infill extrusion width = 0.40mm
; support material extrusion width = 0.38mm
; first layer extrusion width = 0.42mm

M201 X500 Y500 Z100 E5000 ; sets maximum accelerations, mm/sec^2
M203 X500 Y500 Z10 E60 ; sets maximum feedrates, mm/sec
M204 P500 R1000 T500 ; sets acceleration (P, T) and retract acceleration (R), mm/sec^2
M205 X8.00 Y8.00 Z0.40 E5.00 ; sets the jerk limits, mm/sec
M205 S0 T0 ; sets the minimum extruding and travel feed rate, mm/sec
M107
G90 ; use absolute coordinates
M83 ; extruder relative mode
M104 S200 ; set extruder temp
M140 S60 ; set bed temp
M190 S60 ; wait for bed temp
M109 S200 ; wait for extruder temp
G28 ; home all
G1 Z2 F240
G1 X2 Y10 F3000
G1 Z0.28 F240
G92 E0.0
G1 Y190 E15.0 F1500.0 ; intro line
G1 X2.3 F5000
G1 Y10 E30 F1200.0 ; intro line
G92 E0.0
G21 ; set units to millimeters
G90 ; use absolute coordinates
M83 ; use relative distances for extrusion
; Filament gcode
;BEFORE_LAYER_CHANGE
;0.2


G1 E-5.00000 F3600.00000
G1 Z0.200 F9000.000
;AFTER_LAYER_CHANGE
;0.2
G1 X84.528 Y102.523
G1 E5.00000 F2400.00000
G1 F1200.000
G1 X85.142 Y102.224 E0.02142
G1 X85.695 Y102.117 E0.01763
G1 X116.677 Y99.928 E0.97385
G1 X134.133 Y99.926 E0.54733
G1 X135.025 Y100.100 E0.02849
G1 X135.784 Y100.592 E0.02837
G1 X136.303 Y101.333 E0.02837
G1 X136.509 Y102.218 E0.02849
G1 X136.500 Y118.083 E0.49745
G1 X136.337 Y118.758 E0.02178
G1 X135.987 Y119.354 E0.02166
G1 X135.481 Y119.825 E0.02166
G1 X134.858 Y120.131 E0.02178
G1 X134.127 Y120.244 E0.02319
G1 X116.311 Y120.071 E0.55864
G1 X85.681 Y117.713 E0.96322
G1 X85.000 Y117.556 E0.02190
G1 X84.391 Y117.206 E0.02201
G1 X83.913 Y116.697 E0.02190
G1 X83.603 Y116.067 E0.02201
G1 X83.490 Y115.363 E0.02237
G1 X83.504 Y104.225 E0.34921
G1 X83.675 Y103.568 E0.02130
G1 X84.027 Y102.982 E0.02142
G1 X84.484 Y102.564 E0.01942
G1 E-3.50000 F3600.00000
G1 F7200.000
G1 X85.142 Y102.224 E-0.35196
G1 X85.695 Y102.117 E-0.26715
G1 X87.387 Y101.997 E-0.80589
G1 E-0.07500 F3600.00000
G1 X85.867 Y104.488 F9000.000
G1 E5.00000 F2400.00000
G1 F1200.000
G1 X85.867 Y115.343 E0.34036
G1 X86.621 Y115.343 E0.02365
G1 X86.621 Y104.657 E0.33504
G1 X87.375 Y104.657 E0.02365
G1 X87.375 Y115.343 E0.33504
G1 X88.129 Y115.343 E0.02365
G1 X88.129 Y104.657 E0.33504
G1 X88.884 Y104.657 E0.02365
G1 X88.884 Y115.343 E0.33504
G1 X89.638 Y115.343 E0.02365
G1 X89.638 Y104.657 E0.33504
G1 X90.392 Y104.657 E0.02365
G1 X90.392 Y115.343 E0.33504
G1 X91.146 Y115.343 E0.02365
G1 X91.146 Y104.657 E0.33504
G1 X91.900 Y104.657 E0.02365
G1 X91.900 Y115.343 E0.33504
G1 X92.654 Y115.343 E0.02365
G1 X92.654 Y104.657 E0.33504
G1 X93.409 Y104.657 E0.02365
G1 X93.409 Y115.343 E0.33504
G1 X94.163 Y115.343 E0.02365
G1 X94.163 Y104.657 E0.33504
G1 X94.917 Y104.657 E0.02365
G1 X94.917 Y115.343 E0.33504
G1 X95.671 Y115.343 E0.02365
G1 X95.671 Y104.657 E0.33504
G1 X96.425 Y104.657 E0.02365
G1 X96.425 Y115.343 E0.33504
G1 X97.179 Y115.343 E0.02365
G1 X97.179 Y104.657 E0.33504
G1 X97.933 Y104.657 E0.02365
G1 X97.933 Y115.343 E0.33504
G1 X98.688 Y115.343 E0.02365
G1 X98.688 Y104.657 E0.33504
G1 X99.442 Y104.657 E0.02365
G1 X99.442 Y115.343 E0.33504
G1 X100.196 Y115.343 E0.02365
G1 X100.196 Y104.657 E0.33504
G1 X100.950 Y104.657 E0.02365
G1 X100.950 Y115.343 E0.33504
G1 X101.704 Y115.343 E0.02365
G1 X101.704 Y104.657 E0.33504
G1 X102.458 Y104.657 E0.02365
G1 X102.458 Y115.343 E0.33504
G1 X103.213 Y115.343 E0.02365
G1 X103.213 Y104.657 E0.33504
G1 X103.967 Y104.657 E0.02365
G1 X103.967 Y115.343 E0.33504
G1 X104.721 Y115.343 E0.02365
G1 X104.721 Y104.657 E0.33504
G1 X105.475 Y104.657 E0.02365
G1 X105.475 Y115.343 E0.33504
G1 X106.229 Y115.343 E0.02365
G1 X106.229 Y104.657 E0.33504
G1 X106.983 Y104.657 E0.02365
G1 X106.983 Y115.343 E0.33504
G1 X107.738 Y115.343 E0.02365
G1 X107.738 Y104.657 E0.33504
G1 X108.492 Y104.657 E0.02365
G1 X108.492 Y115.343 E0.33504
G1 X109.246 Y115.343 E0.02365
G1 X109.246 Y104.657 E0.33504
G1 X110.000 Y104.657 E0.02365
G1 X110.000 Y115.343 E0.33504
G1 X110.754 Y115.343 E0.02365
G1 X110.754 Y104.657 E0.33504
G1 X111.508 Y104.657 E0.02365
G1 X111.508 Y115.343 E0.33504
G1 X112.262 Y115.343 E0.02365
G1 X112.262 Y104.657 E0.33504
G1 X113.017 Y104.657 E0.02365
G1 X113.017 Y115.343 E0.33504
G1 X113.771 Y115.343 E0.02365
G1 X113.771 Y104.657 E0.33504
G1 X114.525 Y104.657 E0.02365
G1 X114.525 Y115.343 E0.33504
G1 X115.279 Y115.343 E0.02365
G1 X115.279 Y104.657 E0.33504
G1 X116.033 Y104.657 E0.02365
G1 X116.033 Y115.343 E0.33504
G1 X116.428 Y115.343 E0.01239
G1 X116.428 Y117.697 E0.07382
G1 X116.787 Y117.697 E0.01126
G1 X116.787 Y112.999 E0.14730
G1 X117.542 Y113.078 E0.02378
G1 X117.542 Y117.697 E0.14482
G1 X118.296 Y117.697 E0.02365
G1 X118.296 Y113.199 E0.14104
G1 X119.050 Y113.356 E0.02416
G1 X119.050 Y117.697 E0.13610
G1 X119.804 Y117.697 E0.02365
G1 X119.804 Y113.545 E0.13017
G1 X120.558 Y113.762 E0.02460
G1 X120.558 Y117.697 E0.12339
G1 X121.312 Y117.697 E0.02365
G1 X121.312 Y113.982 E0.11647
G1 X122.067 Y114.210 E0.02470
G1 X122.067 Y117.697 E0.10934
G1 X122.821 Y117.697 E0.02365
G1 X122.821 Y114.386 E0.10381
G1 X123.575 Y114.388 E0.02365
G1 X123.575 Y117.697 E0.10375
G1 X124.329 Y117.697 E0.02365
G1 X124.329 Y114.390 E0.10369
G1 X125.083 Y114.392 E0.02365
G1 X125.083 Y117.697 E0.10363
G1 X125.837 Y117.697 E0.02365
G1 X125.837 Y114.394 E0.10357
G1 X126.266 Y114.384 E0.01345
G1 X126.591 Y114.346 E0.01027
G1 X126.591 Y117.697 E0.10507
G1 X127.346 Y117.697 E0.02365
G1 X127.346 Y114.179 E0.11029
G1 X127.796 Y114.011 E0.01509
G1 X128.100 Y113.851 E0.01074
G1 X128.100 Y117.697 E0.12058
G1 X128.854 Y117.697 E0.02365
G1 X128.854 Y113.332 E0.13685
G1 X129.073 Y113.142 E0.00910
G1 X129.406 Y112.778 E0.01546
G1 X129.608 Y112.498 E0.01082
G1 X129.608 Y117.697 E0.16300
G1 X130.362 Y117.697 E0.02365
G1 X130.362 Y102.303 E0.48267
G1 X131.116 Y102.303 E0.02365
G1 X131.116 Y117.697 E0.48267
G1 X131.871 Y117.697 E0.02365
G1 X131.871 Y102.303 E0.48267
G1 X132.625 Y102.303 E0.02365
G1 X132.625 Y117.697 E0.48267
G1 X133.379 Y117.697 E0.02365
G1 X133.379 Y102.303 E0.48267
G1 X134.133 Y102.303 E0.02365
G1 X134.133 Y117.867 E0.48799
G1 E-3.50000 F3600.00000
G1 F7200.000
G1 X134.133 Y114.867 E-1.42500
G1 E-0.07500 F3600.00000
G1 X129.608 Y107.813 F9000.000
G1 E5.00000 F2400.00000
G1 F1200.000
G1 X129.608 Y102.303 E0.17276
G1 X128.854 Y102.303 E0.02365
G1 X128.854 Y106.659 E0.13658
G1 X128.469 Y106.365 E0.01520
G1 X128.100 Y106.145 E0.01346
G1 X128.100 Y102.303 E0.12047
G1 X127.346 Y102.303 E0.02365
G1 X127.346 Y105.825 E0.11043
G1 X127.022 Y105.728 E0.01059
G1 X126.591 Y105.650 E0.01372
G1 X126.591 Y102.303 E0.10495
G1 X125.837 Y102.303 E0.02365
G1 X125.837 Y105.606 E0.10355
G1 X125.083 Y105.609 E0.02365
G1 X125.083 Y102.303 E0.10364
G1 X124.329 Y102.303 E0.02365
G1 X124.329 Y105.611 E0.10374
G1 X124.004 Y105.621 E0.01018
G1 X123.575 Y105.609 E0.01347
G1 X123.575 Y102.303 E0.10365
G1 X122.821 Y102.303 E0.02365
G1 X122.821 Y105.612 E0.10375
G1 X122.642 Y105.622 E0.00562
G1 X122.067 Y105.790 E0.01879
G1 X122.067 Y102.303 E0.10933
G1 X121.312 Y102.303 E0.02365
G1 X121.312 Y106.017 E0.11646
G1 X120.558 Y106.243 E0.02468
G1 X120.558 Y102.303 E0.12354
G1 X119.804 Y102.303 E0.02365
G1 X119.804 Y106.455 E0.13017
G1 X119.050 Y106.644 E0.02438
G1 X119.050 Y102.303 E0.13610
G1 X118.296 Y102.303 E0.02365
G1 X118.296 Y106.802 E0.14106
G1 X117.542 Y106.922 E0.02394
G1 X117.542 Y102.303 E0.14481
G1 X116.787 Y102.303 E0.02365
G1 X116.787 Y107.171 E0.15264
G1 X117.433 Y108.363 F9000.000
G1 F1200.000
G1 X118.063 Y108.286 E0.01991
G1 X119.227 Y108.064 E0.03714
G1 X120.429 Y107.759 E0.03888
G1 X122.840 Y107.046 E0.07883
G1 X122.840 Y109.108 E0.06466
G1 X122.626 Y109.482 E0.01349
G1 X122.541 Y109.844 E0.01167
G1 X122.545 Y110.194 E0.01095
G1 X122.655 Y110.592 E0.01296
G1 X122.861 Y110.927 E0.01233
G1 X123.138 Y111.190 E0.01198
G1 X123.464 Y111.368 E0.01165
G1 X123.802 Y111.458 E0.01096
G1 X124.205 Y111.458 E0.01264
G1 X124.543 Y111.368 E0.01096
G1 X124.870 Y111.190 E0.01165
G1 X125.147 Y110.927 E0.01198
G1 X125.353 Y110.592 E0.01233
G1 X125.462 Y110.194 E0.01296
G1 X125.466 Y109.844 E0.01095
G1 X125.382 Y109.482 E0.01167
G1 X125.168 Y109.108 E0.01349
G1 X125.168 Y107.031 E0.06512
G1 X125.975 Y107.029 E0.02529
G1 X126.353 Y107.053 E0.01188
G1 X126.701 Y107.115 E0.01109
G1 X127.037 Y107.218 E0.01102
G1 X127.359 Y107.360 E0.01102
G1 X127.662 Y107.539 E0.01102
G1 X127.941 Y107.752 E0.01102
G1 X128.193 Y107.997 E0.01102
G1 X128.415 Y108.270 E0.01102
G1 X128.663 Y108.694 E0.01542
G1 X128.574 Y108.643 E0.00323
G1 X128.184 Y108.539 E0.01264
G1 X127.834 Y108.539 E0.01097
G1 X127.463 Y108.630 E0.01199
G1 X127.104 Y108.836 E0.01298
G1 X126.855 Y109.081 E0.01096
G1 X126.655 Y109.408 E0.01201
G1 X126.545 Y109.806 E0.01296
G1 X126.541 Y110.156 E0.01095
G1 X126.626 Y110.518 E0.01167
G1 X126.840 Y110.891 E0.01349
G1 X126.840 Y112.846 E0.06127
G1 X126.541 Y112.918 E0.00962
G1 X125.961 Y112.971 E0.01828
G1 X122.873 Y112.963 E0.09683
G1 X120.261 Y112.194 E0.08536
G1 X119.286 Y111.950 E0.03150
G1 X117.972 Y111.700 E0.04197
G1 X117.434 Y111.636 E0.01698
G1 X117.433 Y108.423 E0.10074
G1 X117.056 Y108.029 F9000.000
G1 F1200.000
G1 X118.005 Y107.913 E0.02998
G1 X119.145 Y107.695 E0.03640
G1 X120.329 Y107.396 E0.03830
G1 X122.821 Y106.658 E0.08148
G1 X123.217 Y106.658 E0.01240
G1 X123.217 Y109.257 E0.08149
G1 X123.115 Y109.366 E0.00466
G1 X122.982 Y109.616 E0.00888
G1 X122.919 Y109.886 E0.00870
G1 X122.922 Y110.141 E0.00799
G1 X123.004 Y110.441 E0.00975
G1 X123.156 Y110.688 E0.00910
G1 X123.362 Y110.883 E0.00888
G1 X123.605 Y111.015 E0.00868
G1 X123.851 Y111.081 E0.00800
G1 X124.156 Y111.081 E0.00955
G1 X124.403 Y111.015 E0.00800
G1 X124.646 Y110.883 E0.00868
G1 X124.851 Y110.688 E0.00888
G1 X125.004 Y110.441 E0.00910
G1 X125.086 Y110.141 E0.00975
G1 X125.089 Y109.886 E0.00799
G1 X125.026 Y109.616 E0.00870
G1 X124.892 Y109.366 E0.00888
G1 X124.791 Y109.257 E0.00466
G1 X124.791 Y106.656 E0.08156
G1 X125.986 Y106.652 E0.03747
G1 X126.398 Y106.678 E0.01295
G1 X126.790 Y106.748 E0.01247
G1 X127.169 Y106.864 E0.01243
G1 X127.531 Y107.024 E0.01243
G1 X127.873 Y107.225 E0.01243
G1 X128.188 Y107.466 E0.01243
G1 X128.472 Y107.742 E0.01243
G1 X128.722 Y108.050 E0.01243
G1 X128.933 Y108.385 E0.01243
G1 X129.104 Y108.743 E0.01243
G1 X129.231 Y109.118 E0.01243
G1 X129.312 Y109.506 E0.01243
G1 X129.348 Y109.901 E0.01243
G1 X129.336 Y110.297 E0.01243
G1 X129.277 Y110.689 E0.01243
G1 X129.173 Y111.071 E0.01243
G1 X129.024 Y111.439 E0.01243
G1 X128.791 Y111.844 E0.01466
G1 X128.791 Y110.743 E0.03451
G1 X128.892 Y110.634 E0.00466
G1 X129.026 Y110.384 E0.00888
G1 X129.089 Y110.114 E0.00870
G1 X129.086 Y109.859 E0.00799
G1 X129.004 Y109.559 E0.00975
G1 X128.851 Y109.312 E0.00910
G1 X128.651 Y109.122 E0.00868
G1 X128.429 Y108.995 E0.00800
G1 X128.135 Y108.916 E0.00955
G1 X127.879 Y108.916 E0.00800
G1 X127.604 Y108.983 E0.00889
G1 X127.334 Y109.138 E0.00976
G1 X127.153 Y109.318 E0.00800
G1 X127.004 Y109.559 E0.00890
G1 X126.922 Y109.859 E0.00975
G1 X126.919 Y110.114 E0.00799
G1 X126.982 Y110.384 E0.00870
G1 X127.115 Y110.634 E0.00888
G1 X127.217 Y110.743 E0.00466
G1 X127.217 Y113.111 E0.07426
G1 X126.980 Y113.200 E0.00791
G1 X126.603 Y113.291 E0.01217
G1 X125.978 Y113.348 E0.01970
G1 X122.818 Y113.340 E0.09907
G1 X120.162 Y112.558 E0.08681
G1 X119.205 Y112.319 E0.03092
G1 X117.914 Y112.073 E0.04121
G1 X117.056 Y111.971 E0.02711
G1 X117.056 Y108.089 E0.12172
G1 X116.678 Y107.677 F9000.000
G1 F1200.000
G1 X117.029 Y107.653 E0.01100
G1 X117.946 Y107.541 E0.02899
G1 X119.063 Y107.327 E0.03565
G1 X120.229 Y107.032 E0.03772
G1 X122.766 Y106.281 E0.08295
G1 X123.594 Y106.281 E0.02594
G1 X123.594 Y109.425 E0.09858
G1 X123.425 Y109.587 E0.00734
G1 X123.338 Y109.750 E0.00579
G1 X123.297 Y109.927 E0.00572
G1 X123.298 Y110.088 E0.00503
G1 X123.353 Y110.289 E0.00653
G1 X123.451 Y110.448 E0.00587
G1 X123.585 Y110.575 E0.00579
G1 X123.745 Y110.662 E0.00572
G1 X123.901 Y110.704 E0.00504
G1 X124.107 Y110.704 E0.00646
G1 X124.262 Y110.662 E0.00504
G1 X124.422 Y110.575 E0.00572
G1 X124.556 Y110.448 E0.00579
G1 X124.654 Y110.289 E0.00587
G1 X124.709 Y110.088 E0.00653
G1 X124.711 Y109.927 E0.00503
G1 X124.670 Y109.750 E0.00572
G1 X124.583 Y109.587 E0.00579
G1 X124.414 Y109.425 E0.00734
G1 X124.414 Y106.280 E0.09861
G1 X125.997 Y106.275 E0.04965
G1 X126.444 Y106.303 E0.01402
G1 X126.878 Y106.381 E0.01385
G1 X127.300 Y106.510 E0.01383
G1 X127.704 Y106.688 E0.01383
G1 X128.084 Y106.912 E0.01383
G1 X128.434 Y107.180 E0.01383
G1 X128.751 Y107.487 E0.01383
G1 X129.029 Y107.830 E0.01383
G1 X129.264 Y108.203 E0.01383
G1 X129.454 Y108.601 E0.01383
G1 X129.595 Y109.019 E0.01383
G1 X129.686 Y109.450 E0.01383
G1 X129.725 Y109.890 E0.01383
G1 X129.712 Y110.331 E0.01383
G1 X129.647 Y110.767 E0.01383
G1 X129.531 Y111.192 E0.01383
G1 X129.365 Y111.601 E0.01383
G1 X129.152 Y111.987 E0.01383
G1 X128.895 Y112.346 E0.01383
G1 X128.597 Y112.671 E0.01382
G1 X128.414 Y112.828 E0.00757
G1 X128.414 Y110.575 E0.07063
G1 X128.583 Y110.413 E0.00734
G1 X128.670 Y110.250 E0.00579
G1 X128.711 Y110.073 E0.00572
G1 X128.709 Y109.912 E0.00503
G1 X128.654 Y109.711 E0.00653
G1 X128.556 Y109.552 E0.00587
G1 X128.424 Y109.426 E0.00572
G1 X128.284 Y109.347 E0.00504
G1 X128.085 Y109.294 E0.00646
G1 X127.925 Y109.294 E0.00504
G1 X127.745 Y109.337 E0.00579
G1 X127.564 Y109.441 E0.00653
G1 X127.450 Y109.554 E0.00504
G1 X127.353 Y109.711 E0.00580
G1 X127.298 Y109.912 E0.00653
G1 X127.297 Y110.073 E0.00503
G1 X127.338 Y110.250 E0.00572
G1 X127.425 Y110.413 E0.00579
G1 X127.594 Y110.575 E0.00734
G1 X127.594 Y113.363 E0.08740
G1 X127.091 Y113.561 E0.01694
G1 X126.665 Y113.664 E0.01374
G1 X125.994 Y113.725 E0.02112
G1 X122.763 Y113.717 E0.10132
G1 X120.063 Y112.922 E0.08825
G1 X119.124 Y112.687 E0.03034
G1 X117.857 Y112.446 E0.04046
G1 X116.678 Y112.323 E0.03714
G1 X116.678 Y107.737 E0.14381
G1 X117.002 Y107.812 F9000.000
G1 E-3.50000 F3600.00000
G1 F7200.000
G1 X117.029 Y107.653 E-0.17099
G1 X117.946 Y107.541 E-0.43921
G1 X119.063 Y107.327 E-0.54012
G1 X119.624 Y107.185 E-0.27468
G1 E-0.07500 F3600.00000
G1 X118.468 Y111.679 F9000.000
G1 E5.00000 F2400.00000
G1 F1200.000
G1 X117.716 Y110.928 E0.03385
G1 X117.716 Y110.386 E0.01727
G1 X118.924 Y111.593 E0.05440
G1 X119.613 Y111.740 E0.02244
G1 X117.716 Y109.844 E0.08544
G1 X117.716 Y109.302 E0.01727
G1 X120.336 Y111.922 E0.11802
G1 X121.103 Y112.148 E0.02550
G1 X117.716 Y108.760 E0.15263
G1 X117.716 Y108.613 E0.00467
G1 X118.068 Y108.570 E0.01131
G1 X121.871 Y112.374 E0.17135
G1 X122.639 Y112.600 E0.02550
G1 X118.525 Y108.486 E0.18536
G1 X118.980 Y108.399 E0.01475
G1 X123.263 Y112.682 E0.19295
G1 X123.806 Y112.683 E0.01730
G1 X119.428 Y108.305 E0.19726
G1 X119.860 Y108.195 E0.01421
G1 X124.519 Y112.854 E0.20991
G1 X123.774 Y111.567 F9000.000
G1 F1200.000
G1 X124.892 Y112.686 E0.05038
G1 X125.436 Y112.687 E0.01730
G1 X124.437 Y111.689 E0.04497
G1 X124.649 Y111.632 E0.00698
G1 X124.826 Y111.536 E0.00643
G1 X125.976 Y112.686 E0.05180
G1 X126.472 Y112.640 E0.01587
G1 X125.148 Y111.316 E0.05965
G1 X125.368 Y111.107 E0.00967
G1 X125.411 Y111.037 E0.00261
G1 X126.557 Y112.183 E0.05161
G1 X126.557 Y111.641 E0.01726
G1 X125.616 Y110.701 E0.04237
G1 X125.733 Y110.276 E0.01404
G1 X126.557 Y111.099 E0.03711
G1 X126.557 Y110.967 E0.00423
G1 X126.360 Y110.623 E0.01263
G1 X126.280 Y110.281 E0.01117
G1 X125.730 Y109.731 E0.02479
G1 X125.648 Y109.377 E0.01156
G1 X125.451 Y109.033 E0.01263
G1 X125.451 Y108.910 E0.00394
G1 X126.273 Y109.731 E0.03702
G1 X126.389 Y109.306 E0.01404
G1 X125.451 Y108.368 E0.04228
G1 X125.451 Y107.826 E0.01726
G1 X126.593 Y108.968 E0.05146
G1 X126.632 Y108.904 E0.00239
G1 X126.853 Y108.686 E0.00988
G1 X125.480 Y107.313 E0.06185
G1 X126.024 Y107.315 E0.01733
G1 X127.176 Y108.468 E0.05193
G1 X127.357 Y108.364 E0.00663
G1 X127.564 Y108.314 E0.00679
G1 X126.644 Y107.394 E0.04145
G1 X126.938 Y107.484 E0.00981
G1 X127.230 Y107.612 E0.01013
