; generated by PrusaSlicer 2.2.0+win64 on 2021-04-25 at 18:14:37 UTC

; 

; external perimeters extrusion width = 0.45mm
; perimeters extrusion width = 0.45mm
; infill extrusion width = 0.45mm
; solid infill extrusion width = 0.45mm
; top infill extrusion width = 0.40mm
; support material extrusion width = 0.38mm
; first layer extrusion width = 0.42mm

M201 X500 Y500 Z100 E5000 ; sets maximum accelerations, mm/sec^2
M203 X500 Y500 Z10 E60 ; sets maximum feedrates, mm/sec
M204 P500 R1000 T500 ; sets acceleration (P, T) and retract acceleration (R), mm/sec^2
M205 X8.00 Y8.00 Z0.40 E5.00 ; sets the jerk limits, mm/sec
M205 S0 T0 ; sets the minimum extruding and travel feed rate, mm/sec
M107
G90 ; use absolute coordinates
M83 ; extruder relative mode
M104 S200 ; set extruder temp
M140 S60 ; set bed temp
M190 S60 ; wait for bed temp
M109 S200 ; wait for extruder temp
G28 ; home all
G1 Z2 F240
G1 X2 Y10 F3000
G1 Z0.28 F240
G92 E0.0
G1 Y190 E15.0 F1500.0 ; intro line
G1 X2.3 F5000
G1 Y10 E30 F1200.0 ; intro line
G92 E0.0
G21 ; set units to millimeters
G90 ; use absolute coordinates
M83 ; use relative distances for extrusion
; Filament gcode
;BEFORE_LAYER_CHANGE
;0.2


G1 E-5.00000 F3600.00000
G1 Z0.200 F9000.000
;AFTER_LAYER_CHANGE
;0.2
G1 X84.423 Y97.890
G1 E5.00000 F2400.00000
G1 F1200.000
G1 X84.999 Y97.566 E0.02071
G1 X85.664 Y97.411 E0.02142
G1 X112.142 Y95.220 E0.83304
G1 X131.120 Y95.217 E0.59504
G1 X132.012 Y95.392 E0.02849
G1 X132.775 Y95.892 E0.02860
G1 X133.293 Y96.639 E0.02849
G1 X133.493 Y97.525 E0.02849
G1 X133.490 Y122.708 E0.78961
G1 X133.356 Y123.371 E0.02119
G1 X133.042 Y123.969 E0.02119
G1 X132.572 Y124.454 E0.02119
G1 X131.984 Y124.788 E0.02119
G1 X131.110 Y124.952 E0.02790
G1 X111.692 Y124.782 E0.60887
G1 X111.197 Y124.724 E0.01562
G1 X84.996 Y115.200 E0.87409
G1 X84.564 Y114.977 E0.01526
G1 X84.184 Y114.667 E0.01538
G1 X83.654 Y113.857 E0.03036
G1 X83.490 Y113.012 E0.02696
G1 X83.498 Y99.585 E0.42101
G1 X83.643 Y98.940 E0.02071
G1 X83.959 Y98.361 E0.02071
G1 X84.381 Y97.933 E0.01883
G1 E-3.50000 F3600.00000
G1 F7200.000
G1 X84.999 Y97.566 E-0.34129
G1 X85.664 Y97.411 E-0.32454
G1 X87.257 Y97.279 E-0.75917
G1 E-0.07500 F3600.00000
G1 X85.867 Y99.779 F9000.000
G1 E5.00000 F2400.00000
G1 F1200.000
G1 X85.867 Y112.988 E0.41417
G1 X86.621 Y112.988 E0.02365
G1 X86.621 Y99.949 E0.40885
G1 X87.375 Y99.949 E0.02365
G1 X87.375 Y112.988 E0.40885
G1 X88.129 Y112.988 E0.02365
G1 X88.129 Y99.949 E0.40885
G1 X88.884 Y99.949 E0.02365
G1 X88.884 Y112.988 E0.40885
G1 X89.638 Y112.988 E0.02365
G1 X89.638 Y99.949 E0.40885
G1 X90.392 Y99.949 E0.02365
G1 X90.392 Y112.988 E0.40885
G1 X91.146 Y112.988 E0.02365
G1 X91.146 Y99.949 E0.40885
G1 X91.900 Y99.949 E0.02365
G1 X91.900 Y112.988 E0.40885
G1 X92.654 Y112.988 E0.02365
G1 X92.654 Y99.949 E0.40885
G1 X93.409 Y99.949 E0.02365
G1 X93.409 Y112.988 E0.40885
G1 X94.163 Y112.988 E0.02365
G1 X94.163 Y99.949 E0.40885
G1 X94.917 Y99.949 E0.02365
G1 X94.917 Y112.988 E0.40885
G1 X95.671 Y112.988 E0.02365
G1 X95.671 Y99.949 E0.40885
G1 X96.425 Y99.949 E0.02365
G1 X96.425 Y112.988 E0.40885
G1 X97.179 Y112.988 E0.02365
G1 X97.179 Y99.949 E0.40885
G1 X97.933 Y99.949 E0.02365
G1 X97.933 Y112.988 E0.40885
G1 X98.688 Y112.988 E0.02365
G1 X98.688 Y99.949 E0.40885
G1 X99.442 Y99.949 E0.02365
G1 X99.442 Y112.988 E0.40885
G1 X100.196 Y112.988 E0.02365
G1 X100.196 Y99.949 E0.40885
G1 X100.950 Y99.949 E0.02365
G1 X100.950 Y112.988 E0.40885
G1 X101.704 Y112.988 E0.02365
G1 X101.704 Y99.949 E0.40885
G1 X102.458 Y99.949 E0.02365
G1 X102.458 Y112.988 E0.40885
G1 X103.213 Y112.988 E0.02365
G1 X103.213 Y99.949 E0.40885
G1 X103.967 Y99.949 E0.02365
G1 X103.967 Y112.988 E0.40885
G1 X104.721 Y112.988 E0.02365
G1 X104.721 Y99.949 E0.40885
G1 X105.475 Y99.949 E0.02365
G1 X105.475 Y112.988 E0.40885
G1 X106.229 Y112.988 E0.02365
G1 X106.229 Y99.949 E0.40885
G1 X106.983 Y99.949 E0.02365
G1 X106.983 Y112.988 E0.40885
G1 X107.738 Y112.988 E0.02365
G1 X107.738 Y99.949 E0.40885
G1 X108.492 Y99.949 E0.02365
G1 X108.492 Y112.988 E0.40885
G1 X109.246 Y112.988 E0.02365
G1 X109.246 Y99.949 E0.40885
G1 X110.000 Y99.949 E0.02365
G1 X110.000 Y112.988 E0.40885
G1 X110.754 Y112.988 E0.02365
G1 X110.754 Y99.949 E0.40885
G1 X111.508 Y99.949 E0.02365
G1 X111.508 Y112.988 E0.40885
G1 X111.720 Y112.988 E0.00664
G1 X111.720 Y122.405 E0.29526
G1 X112.262 Y122.405 E0.01701
G1 X112.262 Y97.594 E0.77793
G1 X113.017 Y97.594 E0.02365
G1 X113.017 Y122.405 E0.77793
G1 X113.771 Y122.405 E0.02365
G1 X113.771 Y97.594 E0.77793
G1 X114.525 Y97.594 E0.02365
G1 X114.525 Y122.405 E0.77793
G1 X115.279 Y122.405 E0.02365
G1 X115.279 Y97.594 E0.77793
G1 X116.033 Y97.594 E0.02365
G1 X116.033 Y122.405 E0.77793
G1 X116.787 Y122.405 E0.02365
G1 X116.787 Y97.594 E0.77793
G1 X117.542 Y97.594 E0.02365
G1 X117.542 Y122.405 E0.77793
G1 X118.296 Y122.405 E0.02365
G1 X118.296 Y97.594 E0.77793
G1 X119.050 Y97.594 E0.02365
G1 X119.050 Y122.405 E0.77793
G1 X119.804 Y122.405 E0.02365
G1 X119.804 Y97.594 E0.77793
G1 X120.558 Y97.594 E0.02365
G1 X120.558 Y122.405 E0.77793
G1 X121.312 Y122.405 E0.02365
G1 X121.312 Y97.594 E0.77793
G1 X122.067 Y97.594 E0.02365
G1 X122.067 Y100.217 E0.08224
G1 X122.821 Y100.217 E0.02365
G1 X122.821 Y97.594 E0.08224
G1 X123.575 Y97.594 E0.02365
G1 X123.575 Y100.387 E0.08756
G1 X123.856 Y100.933 F9000.000
G1 F1200.000
G1 X123.856 Y100.583 E0.00980
G1 X123.302 Y100.583 E0.01553
G1 X123.302 Y100.722 E0.00389
G1 X122.949 Y100.722 E0.00988
G1 X122.748 Y100.924 E0.00800
G1 X122.748 Y100.583 E0.00954
G1 X122.193 Y100.583 E0.01553
G1 X122.193 Y105.451 E0.13644
G1 E-3.50000 F3600.00000
G1 F7200.000
G1 X122.193 Y102.451 E-1.42500
G1 E-0.07500 F3600.00000
G1 X126.591 Y101.379 F9000.000
G1 E5.00000 F2400.00000
G1 F1200.000
G1 X126.591 Y97.594 E0.11865
G1 X125.837 Y97.594 E0.02365
G1 X125.837 Y101.107 E0.11013
G1 X125.083 Y101.112 E0.02365
G1 X125.083 Y97.594 E0.11029
G1 X124.329 Y97.594 E0.02365
G1 X124.329 Y122.405 E0.77793
G1 X123.575 Y122.405 E0.02365
G1 X123.575 Y119.783 E0.08224
G1 X122.821 Y119.783 E0.02365
G1 X122.821 Y122.405 E0.08224
G1 X122.067 Y122.405 E0.02365
G1 X122.067 Y119.783 E0.08223
G1 X121.406 Y119.783 E0.02073
G1 X121.405 Y114.343 E0.17057
G1 X122.067 Y114.343 E0.02073
G1 X122.067 Y105.657 E0.27233
G1 X122.821 Y105.657 E0.02365
G1 X122.821 Y114.343 E0.27233
G1 X123.575 Y114.343 E0.02365
G1 X123.575 Y105.488 E0.27765
G1 X123.856 Y105.451 F9000.000
G1 F1200.000
G1 X123.856 Y103.919 E0.04294
G1 X123.516 Y103.765 E0.01045
G1 X123.302 Y103.597 E0.00764
G1 X123.302 Y105.292 E0.04749
G1 X122.748 Y105.292 E0.01553
G1 X122.748 Y103.081 E0.06195
G1 X122.821 Y103.181 F9000.000
G1 F1200.000
G1 X122.821 Y102.302 E0.02755
G1 X122.940 Y102.302 E0.00374
G1 X122.939 Y101.250 E0.03300
G1 X123.052 Y101.137 E0.00500
G1 X123.051 Y101.496 E0.01125
G1 X123.407 Y101.140 E0.01575
G1 X123.575 Y101.140 E0.00527
G1 X123.575 Y103.566 E0.07608
G1 X125.083 Y103.574 F9000.000
G1 F1200.000
G1 X125.083 Y108.280 E0.14756
G1 X125.837 Y108.280 E0.02365
G1 X125.837 Y103.880 E0.13796
G1 X126.044 Y103.892 E0.00650
G1 X126.349 Y103.859 E0.00963
G1 X126.591 Y103.805 E0.00778
G1 X126.591 Y108.280 E0.14032
G1 X127.346 Y108.280 E0.02365
G1 X127.346 Y97.594 E0.33504
G1 X128.100 Y97.594 E0.02365
G1 X128.100 Y108.280 E0.33504
G1 X128.854 Y108.280 E0.02365
G1 X128.854 Y97.594 E0.33504
G1 X129.608 Y97.594 E0.02365
G1 X129.608 Y108.280 E0.33504
G1 X130.362 Y108.280 E0.02365
G1 X130.362 Y97.594 E0.33504
G1 X131.116 Y97.594 E0.02365
G1 X131.116 Y108.450 E0.34036
G1 E-3.50000 F3600.00000
G1 F7200.000
G1 X131.116 Y105.450 E-1.42500
G1 E-0.07500 F3600.00000
G1 X125.083 Y111.550 F9000.000
G1 E5.00000 F2400.00000
G1 F1200.000
G1 X125.083 Y116.254 E0.14749
G1 X125.389 Y116.154 E0.01009
G1 X125.837 Y116.119 E0.01411
G1 X125.837 Y111.720 E0.13792
G1 X126.591 Y111.720 E0.02365
G1 X126.591 Y116.355 E0.14532
G1 E-3.50000 F3600.00000
G1 F7200.000
G1 X126.591 Y113.355 E-1.42500
G1 E-0.07500 F3600.00000
G1 X123.856 Y116.253 F9000.000
G1 E5.00000 F2400.00000
G1 F1200.000
G1 X123.856 Y114.708 E0.04328
G1 X123.302 Y114.708 E0.01553
G1 X123.302 Y116.403 E0.04750
G1 X123.161 Y116.536 E0.00542
G1 X122.983 Y116.323 E0.00775
G1 X122.748 Y116.536 E0.00891
G1 X122.748 Y114.708 E0.05123
G1 X122.193 Y114.708 E0.01553
G1 X122.193 Y119.576 E0.13644
G1 X123.856 Y119.576 F9000.000
G1 F1200.000
G1 X123.856 Y118.907 E0.01875
G1 X123.653 Y118.834 E0.00604
G1 X123.302 Y118.608 E0.01171
G1 X123.302 Y119.417 E0.02267
G1 X122.748 Y119.417 E0.01553
G1 X122.748 Y118.055 E0.03816
G1 X122.821 Y118.154 F9000.000
G1 F1200.000
G1 X122.821 Y117.227 E0.02907
G1 X122.941 Y117.227 E0.00378
G1 X122.941 Y117.015 E0.00664
G1 X122.977 Y116.886 E0.00419
G1 X123.284 Y117.253 E0.01499
G1 X123.449 Y116.761 E0.01626
G1 X123.575 Y116.653 E0.00522
G1 X123.575 Y118.558 E0.05973
G1 X125.083 Y118.588 F9000.000
G1 F1200.000
G1 X125.083 Y122.405 E0.11968
G1 X125.837 Y122.405 E0.02365
G1 X125.837 Y118.882 E0.11047
G1 X126.050 Y118.892 E0.00668
G1 X126.591 Y118.818 E0.01713
G1 X126.591 Y122.405 E0.11247
G1 X127.346 Y122.405 E0.02365
G1 X127.346 Y111.720 E0.33504
G1 X128.100 Y111.720 E0.02365
G1 X128.100 Y122.405 E0.33504
G1 X128.854 Y122.405 E0.02365
G1 X128.854 Y111.720 E0.33504
G1 X129.608 Y111.720 E0.02365
G1 X129.608 Y122.405 E0.33504
G1 X130.362 Y122.405 E0.02365
G1 X130.362 Y111.720 E0.33504
G1 X131.116 Y111.720 E0.02365
G1 X131.116 Y122.575 E0.34036
G1 E-3.50000 F3600.00000
G1 F7200.000
G1 X131.116 Y119.575 E-1.42500
G1 E-0.07500 F3600.00000
G1 X126.281 Y102.800 F9000.000
G1 E5.00000 F2400.00000
G1 F1200.000
G1 X125.988 Y102.844 E0.00927
G1 X125.495 Y102.794 E0.01554
G1 X125.359 Y102.741 E0.00459
G1 X125.360 Y102.156 E0.01835
G1 X125.962 Y102.152 E0.01886
G1 X126.281 Y102.200 E0.01012
G1 X126.334 Y102.224 E0.00182
G1 X126.333 Y102.773 E0.01722
G1 X126.710 Y103.002 F9000.000
G1 F1200.000
G1 X126.390 Y103.165 E0.01125
G1 X125.998 Y103.224 E0.01244
G1 X125.407 Y103.164 E0.01863
G1 X125.028 Y103.017 E0.01272
G1 X124.981 Y102.944 E0.00273
G1 X124.984 Y101.781 E0.03646
G1 X125.989 Y101.775 E0.03150
G1 X126.390 Y101.835 E0.01272
G1 X126.677 Y101.967 E0.00990
G1 X126.711 Y101.998 E0.00144
G1 X126.710 Y102.942 E0.02959
G1 X126.358 Y102.931 F9000.000
G1 E-3.50000 F3600.00000
G1 F7200.000
G1 X126.390 Y103.165 E-0.18517
G1 X125.998 Y103.224 E-0.18849
G1 X125.407 Y103.164 E-0.28220
G1 X125.028 Y103.017 E-0.19277
G1 X124.981 Y102.944 E-0.04131
G1 X124.984 Y101.818 E-0.53505
G1 E-0.07500 F3600.00000
G1 X126.309 Y117.199 F9000.000
G1 E5.00000 F2400.00000
G1 F1200.000
G1 X126.334 Y117.216 E0.00093
G1 X126.334 Y117.784 E0.01779
G1 X126.309 Y117.801 E0.00093
G1 X125.985 Y117.845 E0.01028
G1 X125.642 Y117.820 E0.01077
G1 X125.356 Y117.754 E0.00921
G1 X125.357 Y117.267 E0.01525
G1 X125.566 Y117.191 E0.00698
G1 X125.988 Y117.155 E0.01327
G1 X126.250 Y117.191 E0.00828
G1 X126.700 Y117.011 F9000.000
G1 F1200.000
G1 X126.711 Y117.961 E0.02979
G1 X126.700 Y117.989 E0.00096
G1 X126.450 Y118.162 E0.00953
G1 X125.996 Y118.224 E0.01435
G1 X125.585 Y118.193 E0.01293
G1 X125.239 Y118.114 E0.01113
G1 X125.132 Y118.070 E0.00362
G1 X124.978 Y117.914 E0.00688
G1 X124.981 Y117.056 E0.02689
G1 X125.027 Y116.986 E0.00264
G1 X125.484 Y116.819 E0.01525
G1 X125.998 Y116.776 E0.01617
G1 X126.450 Y116.838 E0.01429
G1 X126.650 Y116.977 E0.00765
G1 X126.466 Y117.336 F9000.000
M106 S255
;BEFORE_LAYER_CHANGE
;0.32


G1 E-3.50000 F3600.00000
G1 F7200.000
G1 X126.711 Y117.961 E-0.46828
G1 X126.700 Y117.989 E-0.01451
G1 X126.450 Y118.162 E-0.14433
G1 X125.996 Y118.224 E-0.21740
G1 X125.585 Y118.193 E-0.19588
G1 X125.239 Y118.114 E-0.16868
G1 X125.132 Y118.070 E-0.05480
G1 X124.978 Y117.914 E-0.10427
G1 X124.978 Y117.794 E-0.05686
G1 E-0.07500 F3600.00000
G1 Z0.320 F9000.000
;AFTER_LAYER_CHANGE
;0.32
G1 X131.984 Y124.788
G1 E5.00000 F2400.00000
G1 F900
G1 X131.110 Y124.952 E0.01750
G1 X111.692 Y124.782 E0.38196
G1 X111.197 Y124.724 E0.00980
G1 X84.996 Y115.200 E0.54833
G1 X84.564 Y114.977 E0.00957
G1 X84.184 Y114.667 E0.00965
G1 X83.654 Y113.857 E0.01905
G1 X83.490 Y113.012 E0.01691
G1 X83.498 Y99.585 E0.26411
G1 X83.643 Y98.940 E0.01299
G1 X83.959 Y98.361 E0.01299
G1 X84.423 Y97.890 E0.01299
G1 X84.999 Y97.566 E0.01299
G1 X85.664 Y97.411 E0.01344
G1 X112.142 Y95.220 E0.52258
G1 X131.120 Y95.217 E0.37328
G1 X132.012 Y95.392 E0.01787
G1 X132.775 Y95.892 E0.01794
G1 X133.293 Y96.639 E0.01787
G1 X133.493 Y97.525 E0.01787
G1 X133.490 Y122.708 E0.49534
G1 X133.356 Y123.371 E0.01329
G1 X133.042 Y123.969 E0.01329
G1 X132.572 Y124.454 E0.01329
G1 X132.037 Y124.758 E0.01211
G1 E-3.50000 F3600.00000
G1 F7200.000
G1 X131.110 Y124.952 E-0.44972
G1 X129.057 Y124.934 E-0.97528
G1 E-0.07500 F3600.00000
G1 X126.431 Y102.544 F9000.000
G1 E5.00000 F2400.00000
G1 F900
G1 X125.939 Y102.594 E0.01047
G1 X125.498 Y102.570 E0.00935
G1 X125.012 Y102.480 E0.01046
G1 X125.012 Y102.408 E0.00154
G1 X126.162 Y102.417 E0.02434
G1 X126.431 Y102.451 E0.00574
G1 X126.431 Y102.484 E0.00069
G1 X126.598 Y102.953 F9000.000
G1 F900
G1 X125.949 Y103.019 E0.01381
G1 X125.448 Y102.992 E0.01063
G1 X124.792 Y102.871 E0.01411
G1 X124.601 Y102.803 E0.00428
G1 X124.588 Y102.795 E0.00033
G1 X124.587 Y101.983 E0.01718
G1 X126.199 Y101.994 E0.03412
G1 X126.598 Y102.045 E0.00852
G1 X126.855 Y102.155 E0.00592
G1 X126.855 Y102.840 E0.01451
G1 X126.653 Y102.929 E0.00468
G1 X125.998 Y101.560 F9000.000
G1 F900
G1 X126.236 Y101.571 E0.00503
G1 X126.711 Y101.631 E0.01013
G1 X127.064 Y101.783 E0.00813
G1 F1500.000
G1 X127.140 Y101.815 E0.00411
G1 X127.280 Y102.018 E0.01222
G1 X127.280 Y102.982 E0.04784
G1 X127.153 Y103.173 E0.01137
G1 X127.068 Y103.210 E0.00461
G1 F900
G1 X126.708 Y103.369 E0.00833
G1 X125.959 Y103.445 E0.01593
G1 X125.397 Y103.414 E0.01191
G1 X124.720 Y103.289 E0.01459
G1 F1500.000
G1 X124.408 Y103.185 E0.01631
G1 X124.207 Y103.048 E0.01208
G1 X124.164 Y102.952 E0.00519
G1 X124.162 Y101.558 E0.06917
G1 X124.575 Y101.559 E0.02050
G1 F900
G1 X125.938 Y101.560 E0.02886
G1 E-3.50000 F3600.00000
G1 F7200.000
G1 X126.236 Y101.571 E-0.14140
G1 X126.711 Y101.631 E-0.22744
G1 X127.064 Y101.783 E-0.18250
G1 E-0.94867 F3600.00000
G1 X126.371 Y117.437 F9000.000
G1 E5.00000 F2400.00000
G1 F900
G1 X126.431 Y117.448 E0.00131
G1 X126.431 Y117.552 E0.00218
G1 X125.945 Y117.595 E0.01033
G1 X125.278 Y117.542 E0.01417
G1 X125.091 Y117.497 E0.00408
G1 X125.583 Y117.420 E0.01054
G1 X125.981 Y117.409 E0.00842
G1 X126.311 Y117.433 E0.00701
G1 X126.774 Y117.109 F9000.000
G1 F900
G1 X126.856 Y117.155 E0.00198
G1 X126.856 Y117.845 E0.01458
G1 X126.774 Y117.891 E0.00198
G1 X126.569 Y117.957 E0.00457
G1 X125.954 Y118.020 E0.01309
G1 X125.209 Y117.962 E0.01580
G1 X124.693 Y117.838 E0.01124
G1 X124.592 Y117.782 E0.00244
G1 X124.590 Y117.209 E0.01213
G1 X124.818 Y117.122 E0.00517
G1 X125.544 Y116.997 E0.01560
G1 X125.990 Y116.985 E0.00944
G1 X126.425 Y117.016 E0.00924
G1 X126.717 Y117.090 E0.00638
G1 X125.999 Y116.560 F9000.000
G1 F900
G1 X126.480 Y116.594 E0.01020
G1 X126.674 Y116.631 E0.00417
G1 X126.940 Y116.717 E0.00593
G1 X127.047 Y116.773 E0.00256
G1 F1500.000
G1 X127.118 Y116.811 E0.00399
G1 X127.268 Y116.982 E0.01131
G1 X127.280 Y117.028 E0.00234
G1 X127.280 Y117.972 E0.04684
G1 X127.268 Y118.018 E0.00234
G1 X127.118 Y118.189 E0.01131
G1 X127.047 Y118.227 E0.00399
G1 F900
G1 X126.940 Y118.283 E0.00256
G1 X126.674 Y118.369 E0.00593
G1 X126.479 Y118.406 E0.00418
G1 X125.962 Y118.445 E0.01099
G1 X125.141 Y118.382 E0.01742
G1 X124.776 Y118.294 E0.00794
G1 F1500.000
G1 X124.539 Y118.237 E0.01210
G1 X124.254 Y118.081 E0.01612
G1 X124.169 Y117.937 E0.00830
G1 X124.165 Y117.044 E0.04432
G1 X124.202 Y116.954 E0.00487
G1 X124.418 Y116.816 E0.01270
G1 X124.722 Y116.709 E0.01601
G1 F900
G1 X125.505 Y116.574 E0.01682
G1 X125.939 Y116.562 E0.00918
G1 X126.196 Y116.908 F9000.000
G1 X124.838 Y117.654
G1 F900
G1 X124.844 Y117.338 E0.00127
;BEFORE_LAYER_CHANGE
;0.41


G1 E-3.50000 F3600.00000
G1 F7200.000
G1 X124.838 Y117.654 E-0.15019
G1 E-1.34981 F3600.00000
G1 Z0.410 F9000.000
;AFTER_LAYER_CHANGE
;0.41
G1 X123.856 Y118.914
G1 E5.00000 F2400.00000
G1 F1148
G1 X123.856 Y119.417 E0.01471
G1 X123.302 Y119.417 E0.01621
