; generated by PrusaSlicer 2.2.0+win64 on 2021-04-25 at 03:57:11 UTC

; 

; external perimeters extrusion width = 0.45mm
; perimeters extrusion width = 0.45mm
; infill extrusion width = 0.45mm
; solid infill extrusion width = 0.45mm
; top infill extrusion width = 0.40mm
; support material extrusion width = 0.38mm
; first layer extrusion width = 0.42mm

M201 X500 Y500 Z100 E5000 ; sets maximum accelerations, mm/sec^2
M203 X500 Y500 Z10 E60 ; sets maximum feedrates, mm/sec
M204 P500 R1000 T500 ; sets acceleration (P, T) and retract acceleration (R), mm/sec^2
M205 X8.00 Y8.00 Z0.40 E5.00 ; sets the jerk limits, mm/sec
M205 S0 T0 ; sets the minimum extruding and travel feed rate, mm/sec
M107
G90 ; use absolute coordinates
M83 ; extruder relative mode
M104 S200 ; set extruder temp
M140 S60 ; set bed temp
M190 S60 ; wait for bed temp
M109 S200 ; wait for extruder temp
G28 ; home all
G1 Z2 F240
G1 X2 Y10 F3000
G1 Z0.28 F240
G92 E0.0
G1 Y190 E15.0 F1500.0 ; intro line
G1 X2.3 F5000
G1 Y10 E30 F1200.0 ; intro line
G92 E0.0
G21 ; set units to millimeters
G90 ; use absolute coordinates
M83 ; use relative distances for extrusion
; Filament gcode
;BEFORE_LAYER_CHANGE
;0.2


G1 E-5.00000 F3600.00000
G1 Z0.200 F9000.000
;AFTER_LAYER_CHANGE
;0.2
G1 X82.719 Y102.451
G1 E5.00000 F2400.00000
G1 F1200.000
G1 X116.458 Y95.240 E1.08175
G1 X134.133 Y95.217 E0.55420
G1 X135.025 Y95.391 E0.02849
G1 X135.789 Y95.889 E0.02860
G1 X136.308 Y96.635 E0.02849
G1 X136.509 Y97.521 E0.02849
G1 X136.507 Y122.705 E0.78961
G1 X136.376 Y123.364 E0.02107
G1 X136.065 Y123.960 E0.02107
G1 X135.601 Y124.445 E0.02107
G1 X135.019 Y124.781 E0.02107
G1 X134.153 Y124.952 E0.02767
G1 X116.419 Y124.924 E0.55603
G1 X83.043 Y117.822 E1.06993
G1 X82.516 Y117.626 E0.01763
G1 X82.050 Y117.311 E0.01763
G1 X81.671 Y116.895 E0.01763
G1 X81.399 Y116.399 E0.01775
G1 X81.228 Y115.544 E0.02731
G1 X81.238 Y104.433 E0.34840
G1 X81.386 Y103.804 E0.02024
G1 X81.699 Y103.236 E0.02036
G1 X82.155 Y102.773 E0.02036
G1 X82.667 Y102.481 E0.01848
G1 E-3.50000 F3600.00000
G1 F7200.000
G1 X85.600 Y101.853 E-1.42500
G1 E-0.07500 F3600.00000
G1 X83.604 Y115.512 F9000.000
G1 E5.00000 F2400.00000
G1 F1200.000
G1 X83.604 Y104.657 E0.34036
G1 X84.359 Y104.657 E0.02365
G1 X84.359 Y115.343 E0.33504
G1 X85.113 Y115.343 E0.02365
G1 X85.113 Y104.657 E0.33504
G1 X85.867 Y104.657 E0.02365
G1 X85.867 Y115.343 E0.33504
G1 X86.621 Y115.343 E0.02365
G1 X86.621 Y104.657 E0.33504
G1 X87.375 Y104.657 E0.02365
G1 X87.375 Y115.343 E0.33504
G1 X88.129 Y115.343 E0.02365
G1 X88.129 Y104.657 E0.33504
G1 X88.884 Y104.657 E0.02365
G1 X88.884 Y115.343 E0.33504
G1 X89.638 Y115.343 E0.02365
G1 X89.638 Y104.657 E0.33504
G1 X90.392 Y104.657 E0.02365
G1 X90.392 Y115.343 E0.33504
G1 X91.146 Y115.343 E0.02365
G1 X91.146 Y104.657 E0.33504
G1 X91.900 Y104.657 E0.02365
G1 X91.900 Y115.343 E0.33504
G1 X92.654 Y115.343 E0.02365
G1 X92.654 Y104.657 E0.33504
G1 X93.409 Y104.657 E0.02365
G1 X93.409 Y115.343 E0.33504
G1 X94.163 Y115.343 E0.02365
G1 X94.163 Y104.657 E0.33504
G1 X94.917 Y104.657 E0.02365
G1 X94.917 Y115.343 E0.33504
G1 X95.671 Y115.343 E0.02365
G1 X95.671 Y104.657 E0.33504
G1 X96.425 Y104.657 E0.02365
G1 X96.425 Y115.343 E0.33504
G1 X97.179 Y115.343 E0.02365
G1 X97.179 Y104.657 E0.33504
G1 X97.933 Y104.657 E0.02365
G1 X97.933 Y115.343 E0.33504
G1 X98.688 Y115.343 E0.02365
G1 X98.688 Y104.657 E0.33504
G1 X99.442 Y104.657 E0.02365
G1 X99.442 Y115.343 E0.33504
G1 X100.196 Y115.343 E0.02365
G1 X100.196 Y104.657 E0.33504
G1 X100.950 Y104.657 E0.02365
G1 X100.950 Y115.343 E0.33504
G1 X101.704 Y115.343 E0.02365
G1 X101.704 Y104.657 E0.33504
G1 X102.458 Y104.657 E0.02365
G1 X102.458 Y115.343 E0.33504
G1 X103.213 Y115.343 E0.02365
G1 X103.213 Y104.657 E0.33504
G1 X103.967 Y104.657 E0.02365
G1 X103.967 Y115.343 E0.33504
G1 X104.721 Y115.343 E0.02365
G1 X104.721 Y104.657 E0.33504
G1 X105.475 Y104.657 E0.02365
G1 X105.475 Y115.343 E0.33504
G1 X106.229 Y115.343 E0.02365
G1 X106.229 Y104.657 E0.33504
G1 X106.983 Y104.657 E0.02365
G1 X106.983 Y115.343 E0.33504
G1 X107.738 Y115.343 E0.02365
G1 X107.738 Y104.657 E0.33504
G1 X108.492 Y104.657 E0.02365
G1 X108.492 Y115.343 E0.33504
G1 X109.246 Y115.343 E0.02365
G1 X109.246 Y104.657 E0.33504
G1 X110.000 Y104.657 E0.02365
G1 X110.000 Y115.343 E0.33504
G1 X110.754 Y115.343 E0.02365
G1 X110.754 Y104.657 E0.33504
G1 X111.508 Y104.657 E0.02365
G1 X111.508 Y115.343 E0.33504
G1 X112.262 Y115.343 E0.02365
G1 X112.262 Y104.657 E0.33504
G1 X113.017 Y104.657 E0.02365
G1 X113.017 Y115.512 E0.34036
G1 E-3.50000 F3600.00000
G1 F7200.000
G1 X113.017 Y112.512 E-1.42500
G1 E-0.07500 F3600.00000
G1 X116.787 Y122.575 F9000.000
G1 E5.00000 F2400.00000
G1 F1200.000
G1 X116.787 Y118.080 E0.14095
G1 X117.088 Y118.079 E0.00943
G1 X117.301 Y117.955 E0.00771
G1 X117.402 Y117.771 E0.00659
G1 X117.542 Y117.338 E0.01426
G1 X117.542 Y122.405 E0.15888
G1 X118.296 Y122.405 E0.02365
G1 X118.296 Y111.720 E0.33504
G1 X119.050 Y111.720 E0.02365
G1 X119.050 Y122.405 E0.33504
G1 X119.804 Y122.405 E0.02365
G1 X119.804 Y111.720 E0.33504
G1 X120.558 Y111.720 E0.02365
G1 X120.558 Y122.405 E0.33504
G1 X121.312 Y122.405 E0.02365
G1 X121.312 Y111.720 E0.33504
G1 X122.067 Y111.720 E0.02365
G1 X122.067 Y122.405 E0.33504
G1 X122.821 Y122.405 E0.02365
G1 X122.821 Y111.720 E0.33504
G1 X123.575 Y111.720 E0.02365
G1 X123.575 Y122.405 E0.33504
G1 X124.329 Y122.405 E0.02365
G1 X124.329 Y111.720 E0.33504
G1 X125.083 Y111.720 E0.02365
G1 X125.083 Y122.405 E0.33504
G1 X125.837 Y122.405 E0.02365
G1 X125.837 Y111.720 E0.33504
G1 X126.591 Y111.720 E0.02365
G1 X126.591 Y122.405 E0.33504
G1 X127.346 Y122.405 E0.02365
G1 X127.346 Y111.720 E0.33504
G1 X128.100 Y111.720 E0.02365
G1 X128.100 Y122.405 E0.33504
G1 X128.854 Y122.405 E0.02365
G1 X128.854 Y111.720 E0.33504
G1 X129.608 Y111.720 E0.02365
G1 X129.608 Y122.405 E0.33504
G1 X130.362 Y122.405 E0.02365
G1 X130.362 Y111.720 E0.33504
G1 X131.116 Y111.720 E0.02365
G1 X131.116 Y122.405 E0.33504
G1 X131.871 Y122.405 E0.02365
G1 X131.871 Y111.720 E0.33504
G1 X132.625 Y111.720 E0.02365
G1 X132.625 Y122.405 E0.33504
G1 X133.379 Y122.405 E0.02365
G1 X133.379 Y111.720 E0.33504
G1 X134.133 Y111.720 E0.02365
G1 X134.133 Y122.575 E0.34036
G1 E-3.50000 F3600.00000
G1 F7200.000
G1 X134.133 Y119.575 E-1.42500
G1 E-0.07500 F3600.00000
G1 X134.133 Y108.450 F9000.000
G1 E5.00000 F2400.00000
G1 F1200.000
G1 X134.133 Y97.594 E0.34036
G1 X133.379 Y97.594 E0.02365
G1 X133.379 Y108.280 E0.33504
G1 X132.625 Y108.280 E0.02365
G1 X132.625 Y97.594 E0.33504
G1 X131.871 Y97.594 E0.02365
G1 X131.871 Y108.280 E0.33504
G1 X131.116 Y108.280 E0.02365
G1 X131.116 Y97.594 E0.33504
G1 X130.362 Y97.594 E0.02365
G1 X130.362 Y108.280 E0.33504
G1 X129.608 Y108.280 E0.02365
G1 X129.608 Y97.594 E0.33504
G1 X128.854 Y97.594 E0.02365
G1 X128.854 Y108.280 E0.33504
G1 X128.100 Y108.280 E0.02365
G1 X128.100 Y97.594 E0.33504
G1 X127.346 Y97.594 E0.02365
G1 X127.346 Y108.280 E0.33504
G1 X126.591 Y108.280 E0.02365
G1 X126.591 Y97.594 E0.33504
G1 X125.837 Y97.594 E0.02365
G1 X125.837 Y108.280 E0.33504
G1 X125.083 Y108.280 E0.02365
G1 X125.083 Y97.594 E0.33504
G1 X124.329 Y97.594 E0.02365
G1 X124.329 Y108.280 E0.33504
G1 X123.575 Y108.280 E0.02365
G1 X123.575 Y97.594 E0.33504
G1 X122.821 Y97.594 E0.02365
G1 X122.821 Y108.280 E0.33504
G1 X122.067 Y108.280 E0.02365
G1 X122.067 Y97.594 E0.33504
G1 X121.312 Y97.594 E0.02365
G1 X121.312 Y108.280 E0.33504
G1 X120.558 Y108.280 E0.02365
G1 X120.558 Y97.594 E0.33504
G1 X119.804 Y97.594 E0.02365
G1 X119.804 Y108.280 E0.33504
G1 X119.050 Y108.280 E0.02365
G1 X119.050 Y97.594 E0.33504
G1 X118.296 Y97.594 E0.02365
G1 X118.296 Y108.280 E0.33504
G1 X117.571 Y108.280 E0.02271
G1 X117.571 Y102.991 E0.16582
G1 X117.542 Y102.672 E0.01006
G1 X117.542 Y97.594 E0.15920
G1 X116.787 Y97.594 E0.02365
G1 X116.787 Y102.090 E0.14095
G1 X116.149 Y103.348 F9000.000
G1 F1200.000
G1 X116.149 Y116.652 E0.41711
G1 X115.139 Y116.645 E0.03166
G1 X115.139 Y103.355 E0.41672
G1 X116.089 Y103.349 E0.02978
G1 X116.521 Y102.969 F9000.000
G1 F1200.000
G1 X116.522 Y117.031 E0.44090
G1 X114.850 Y117.021 E0.05245
G1 X114.813 Y117.008 E0.00122
G1 X114.762 Y116.888 E0.00410
G1 X114.762 Y103.082 E0.43288
G1 X114.785 Y103.006 E0.00246
G1 X114.859 Y102.979 E0.00247
G1 X116.461 Y102.969 E0.05024
G1 X116.822 Y102.590 F9000.000
G1 F1200.000
G1 X116.885 Y102.798 E0.00680
G1 X116.903 Y103.009 E0.00664
G1 X116.890 Y117.180 E0.44432
G1 X116.813 Y117.410 E0.00760
G1 X114.787 Y117.397 E0.06352
G1 X114.531 Y117.311 E0.00847
G1 X114.385 Y116.964 E0.01182
G1 X114.385 Y103.029 E0.43692
G1 X114.439 Y102.838 E0.00623
G1 X114.551 Y102.690 E0.00582
G1 X114.790 Y102.603 E0.00799
G1 X116.762 Y102.591 E0.06183
G1 X116.755 Y102.796 F9000.000
G1 E-3.50000 F3600.00000
G1 F7200.000
G1 X116.885 Y102.798 E-0.11438
G1 X116.903 Y103.009 E-0.10059
G1 X116.901 Y105.556 E-1.21003
G1 E-0.07500 F3600.00000
G1 X116.023 Y116.538 F9000.000
G1 E5.00000 F2400.00000
G1 F1200.000
G1 X115.422 Y115.937 E0.02678
G1 X115.422 Y115.401 E0.01688
G1 X115.866 Y115.845 E0.01979
G1 X115.866 Y115.309 E0.01688
G1 X115.422 Y114.865 E0.01979
G1 X115.422 Y114.329 E0.01688
G1 X115.866 Y114.774 E0.01979
G1 X115.866 Y114.238 E0.01688
G1 X115.422 Y113.794 E0.01979
G1 X115.422 Y113.258 E0.01688
G1 X115.866 Y113.702 E0.01979
G1 X115.866 Y113.166 E0.01688
G1 X115.422 Y112.722 E0.01979
G1 X115.422 Y112.186 E0.01688
G1 X115.866 Y112.631 E0.01979
G1 X115.866 Y112.095 E0.01688
G1 X115.422 Y111.651 E0.01979
G1 X115.422 Y111.115 E0.01688
G1 X115.866 Y111.559 E0.01979
G1 X115.866 Y111.023 E0.01688
G1 X115.422 Y110.579 E0.01979
G1 X115.422 Y110.043 E0.01688
G1 X115.866 Y110.488 E0.01979
G1 X115.866 Y109.952 E0.01688
G1 X115.422 Y109.508 E0.01979
G1 X115.422 Y108.972 E0.01688
G1 X115.866 Y109.416 E0.01979
G1 X115.866 Y108.880 E0.01688
G1 X115.422 Y108.436 E0.01979
G1 X115.422 Y107.900 E0.01688
G1 X115.866 Y108.345 E0.01979
G1 X115.866 Y107.809 E0.01688
G1 X115.422 Y107.365 E0.01979
G1 X115.422 Y106.829 E0.01688
G1 X115.866 Y107.273 E0.01979
G1 X115.866 Y106.737 E0.01688
G1 X115.422 Y106.293 E0.01979
G1 X115.422 Y105.757 E0.01688
G1 X115.866 Y106.201 E0.01979
G1 X115.866 Y105.666 E0.01688
G1 X115.422 Y105.222 E0.01979
G1 X115.422 Y104.686 E0.01688
G1 X115.866 Y105.130 E0.01979
G1 X115.866 Y104.594 E0.01688
G1 X115.422 Y104.150 E0.01979
G1 X115.422 Y103.636 E0.01620
G1 X115.443 Y103.636 E0.00067
G1 X116.035 Y104.228 E0.02640
M106 S255
;BEFORE_LAYER_CHANGE
;0.32


G1 E-3.50000 F3600.00000
G1 F7200.000
G1 X115.443 Y103.636 E-0.39804
G1 X115.422 Y103.636 E-0.01013
G1 X115.422 Y104.150 E-0.24429
G1 X115.866 Y104.594 E-0.29838
G1 X115.866 Y105.130 E-0.25448
G1 X115.539 Y104.803 E-0.21967
G1 E-0.07500 F3600.00000
G1 Z0.320 F9000.000
;AFTER_LAYER_CHANGE
;0.32
G1 X135.025 Y95.391
G1 E5.00000 F2400.00000
G1 F955
G1 X135.789 Y95.889 E0.01794
G1 X136.308 Y96.635 E0.01787
G1 X136.509 Y97.521 E0.01787
G1 X136.507 Y122.705 E0.49534
G1 X136.376 Y123.364 E0.01322
G1 X136.065 Y123.960 E0.01322
G1 X135.601 Y124.445 E0.01322
G1 X135.019 Y124.781 E0.01322
G1 X134.153 Y124.952 E0.01736
G1 X116.419 Y124.924 E0.34881
G1 X83.043 Y117.822 E0.67118
G1 X82.516 Y117.626 E0.01106
G1 X82.050 Y117.311 E0.01106
G1 X81.671 Y116.895 E0.01106
G1 X81.399 Y116.399 E0.01114
G1 X81.228 Y115.544 E0.01713
G1 X81.238 Y104.433 E0.21856
G1 X81.386 Y103.804 E0.01270
G1 X81.699 Y103.236 E0.01277
G1 X82.155 Y102.773 E0.01277
G1 X82.719 Y102.451 E0.01277
G1 X116.458 Y95.240 E0.67860
G1 X134.133 Y95.217 E0.34766
G1 X134.966 Y95.380 E0.01669
G1 E-3.50000 F3600.00000
G1 F7200.000
G1 X135.789 Y95.889 E-0.45987
G1 X136.308 Y96.635 E-0.43156
G1 X136.509 Y97.521 E-0.43156
G1 X136.509 Y97.736 E-0.10202
G1 E-0.07500 F3600.00000
G1 X116.218 Y103.090 F9000.000
G1 E5.00000 F2400.00000
G1 F955
G1 X116.218 Y116.910 E0.29252
G1 X114.911 Y116.910 E0.02767
G1 X114.920 Y103.090 E0.29249
G1 X116.158 Y103.090 E0.02621
G1 X116.551 Y102.665 F9000.000
G1 F955
G1 X116.621 Y102.841 E0.00401
G1 X116.642 Y103.035 E0.00413
G1 X116.633 Y117.127 E0.29827
G1 X116.559 Y117.335 E0.00466
G1 X114.829 Y117.334 E0.03661
G1 X114.674 Y117.296 E0.00339
G1 X114.596 Y117.249 E0.00193
G1 X114.533 Y117.144 E0.00258
G1 X114.487 Y116.962 E0.00398
G1 X114.496 Y102.960 E0.29637
G1 X114.573 Y102.779 E0.00415
G1 X114.691 Y102.691 E0.00313
G1 X114.817 Y102.666 E0.00270
G1 X116.491 Y102.665 E0.03543
G1 X116.992 Y102.605 F9000.000
G1 F955
G1 X117.039 Y102.753 E0.00329
G1 X117.067 Y103.012 E0.00552
G1 X117.067 Y116.993 E0.29592
G1 X117.053 Y117.211 E0.00462
G1 X116.947 Y117.519 E0.00689
G1 X116.783 Y117.759 E0.00616
G1 X114.779 Y117.758 E0.04241
G1 X114.509 Y117.693 E0.00589
G1 X114.279 Y117.544 E0.00580
G1 X114.138 Y117.309 E0.00580
G1 X114.062 Y117.015 E0.00643
G1 X114.072 Y102.921 E0.29832
G1 X114.088 Y102.830 E0.00195
G1 X114.210 Y102.549 E0.00648
G1 X114.262 Y102.482 E0.00179
G1 X114.515 Y102.294 E0.00669
G1 X114.775 Y102.242 E0.00561
G1 X116.788 Y102.241 E0.04262
G1 X116.873 Y102.356 E0.00303
G1 X116.966 Y102.551 E0.00457
G1 X116.895 Y102.727 F9000.000
G1 E-3.50000 F3600.00000
G1 F7200.000
G1 X117.039 Y102.753 E-0.10206
G1 X117.067 Y103.012 E-0.12380
G1 X117.067 Y105.537 E-1.19914
G1 E-0.07500 F3600.00000
G1 X115.216 Y116.782 F9000.000
G1 E5.00000 F2400.00000
G1 F955
G1 X115.900 Y116.098 E0.02090
G1 X115.900 Y115.485 E0.01322
G1 X115.230 Y116.156 E0.02048
G1 X115.230 Y115.543 E0.01323
G1 X115.900 Y114.873 E0.02047
G1 X115.900 Y114.261 E0.01322
G1 X115.230 Y114.931 E0.02046
G1 X115.231 Y114.318 E0.01323
G1 X115.900 Y113.649 E0.02044
G1 X115.900 Y113.036 E0.01322
G1 X115.231 Y113.705 E0.02043
G1 X115.232 Y113.093 E0.01323
G1 X115.900 Y112.424 E0.02042
G1 X115.900 Y111.812 E0.01322
G1 X115.232 Y112.480 E0.02041
G1 X115.232 Y111.867 E0.01323
G1 X115.900 Y111.200 E0.02039
G1 X115.900 Y110.588 E0.01322
G1 X115.233 Y111.255 E0.02038
G1 X115.233 Y110.642 E0.01323
G1 X115.900 Y109.975 E0.02037
G1 X115.900 Y109.363 E0.01322
G1 X115.234 Y110.030 E0.02036
G1 X115.234 Y109.417 E0.01323
G1 X115.900 Y108.751 E0.02034
G1 X115.900 Y108.139 E0.01322
G1 X115.234 Y108.804 E0.02033
G1 X115.235 Y108.192 E0.01323
G1 X115.900 Y107.526 E0.02032
G1 X115.900 Y106.914 E0.01322
G1 X115.235 Y107.579 E0.02031
G1 X115.236 Y106.966 E0.01323
G1 X115.900 Y106.302 E0.02029
G1 X115.900 Y105.690 E0.01322
G1 X115.236 Y106.354 E0.02028
G1 X115.236 Y105.741 E0.01323
G1 X115.900 Y105.077 E0.02027
G1 X115.900 Y104.465 E0.01322
G1 X115.237 Y105.128 E0.02026
G1 X115.237 Y104.516 E0.01323
G1 X115.900 Y103.853 E0.02024
G1 X115.900 Y103.408 E0.00961
G1 X115.733 Y103.408 E0.00362
G1 X115.047 Y104.094 E0.02095
;BEFORE_LAYER_CHANGE
;0.430021


G1 E-3.50000 F3600.00000
G1 F7200.000
G1 X115.733 Y103.408 E-0.46074
G1 X115.900 Y103.408 E-0.07957
G1 X115.900 Y103.853 E-0.21128
G1 X115.237 Y104.516 E-0.44522
G1 X115.237 Y104.996 E-0.22819
G1 E-0.07500 F3600.00000
G1 Z0.430 F9000.000
;AFTER_LAYER_CHANGE
;0.430021
G1 X113.131 Y107.646
G1 E5.00000 F2400.00000
G1 F900
G1 X86.457 Y107.646 E0.84339
G1 X86.457 Y110.000 E0.07444
G1 X112.972 Y110.000 E0.83836
G1 X112.971 Y112.354 E0.07444
G1 X86.298 Y112.354 E0.84339
G1 E-3.50000 F3600.00000
G1 F7200.000
G1 X89.298 Y112.354 E-1.42500
G1 E-0.07500 F3600.00000
G1 X131.348 Y114.708 F9000.000
G1 E5.00000 F2400.00000
G1 F900
G1 X119.417 Y114.708 E0.37724
G1 X119.417 Y117.063 E0.07444
G1 X131.188 Y117.063 E0.37220
G1 X131.188 Y119.417 E0.07444
G1 X119.258 Y119.417 E0.37724
G1 E-3.50000 F3600.00000
G1 F7200.000
G1 X122.258 Y119.417 E-1.42500
G1 E-0.07500 F3600.00000
G1 X119.258 Y105.292 F9000.000
G1 E5.00000 F2400.00000
G1 F900
G1 X131.188 Y105.292 E0.37724
G1 X131.188 Y102.937 E0.07444
G1 X119.417 Y102.937 E0.37220
G1 X119.417 Y100.583 E0.07444
G1 X131.348 Y100.583 E0.37724
;BEFORE_LAYER_CHANGE
;0.44


G1 E-3.50000 F3600.00000
G1 F7200.000
G1 X128.348 Y100.583 E-1.42500
G1 E-0.07500 F3600.00000
G1 Z0.440 F9000.000
;AFTER_LAYER_CHANGE
;0.44
G1 X116.334 Y102.916
G1 E5.00000 F2400.00000
G1 F900
G1 X116.355 Y103.072 E0.00334
G1 X116.350 Y117.041 E0.29567
G1 X116.329 Y117.094 E0.00119
G1 X114.825 Y117.087 E0.03184
G1 X114.766 Y117.066 E0.00131
G1 X114.742 Y116.925 E0.00304
G1 X114.743 Y103.062 E0.29341
