; generated by PrusaSlicer 2.2.0+win64 on 2021-04-25 at 04:01:59 UTC

; 

; external perimeters extrusion width = 0.45mm
; perimeters extrusion width = 0.45mm
; infill extrusion width = 0.45mm
; solid infill extrusion width = 0.45mm
; top infill extrusion width = 0.40mm
; support material extrusion width = 0.38mm
; first layer extrusion width = 0.42mm

M201 X500 Y500 Z100 E5000 ; sets maximum accelerations, mm/sec^2
M203 X500 Y500 Z10 E60 ; sets maximum feedrates, mm/sec
M204 P500 R1000 T500 ; sets acceleration (P, T) and retract acceleration (R), mm/sec^2
M205 X8.00 Y8.00 Z0.40 E5.00 ; sets the jerk limits, mm/sec
M205 S0 T0 ; sets the minimum extruding and travel feed rate, mm/sec
M107
G90 ; use absolute coordinates
M83 ; extruder relative mode
M104 S200 ; set extruder temp
M140 S60 ; set bed temp
M190 S60 ; wait for bed temp
M109 S200 ; wait for extruder temp
G28 ; home all
G1 Z2 F240
G1 X2 Y10 F3000
G1 Z0.28 F240
G92 E0.0
G1 Y190 E15.0 F1500.0 ; intro line
G1 X2.3 F5000
G1 Y10 E30 F1200.0 ; intro line
G92 E0.0
G21 ; set units to millimeters
G90 ; use absolute coordinates
M83 ; use relative distances for extrusion
; Filament gcode
;BEFORE_LAYER_CHANGE
;0.2


G1 E-5.00000 F3600.00000
G1 Z0.200 F9000.000
;AFTER_LAYER_CHANGE
;0.2
G1 X103.796 Y97.354
G1 E5.00000 F2400.00000
G1 F1200.000
G1 X104.684 Y97.195 E0.02828
G1 X115.347 Y97.195 E0.33432
G1 X116.348 Y97.385 E0.03195
G1 X117.215 Y97.928 E0.03208
G1 X121.859 Y102.823 E0.21156
G1 X122.173 Y103.253 E0.01669
G1 X122.398 Y103.731 E0.01656
G1 X122.558 Y104.618 E0.02828
G1 X122.558 Y115.533 E0.34222
G1 X122.492 Y116.114 E0.01835
G1 X122.302 Y116.672 E0.01848
G1 X121.810 Y117.399 E0.02752
G1 X117.269 Y122.020 E0.20312
G1 X116.757 Y122.414 E0.02026
G1 X116.168 Y122.679 E0.02026
G1 X115.373 Y122.805 E0.02523
G1 X104.692 Y122.805 E0.33489
G1 X104.115 Y122.738 E0.01822
G1 X103.561 Y122.549 E0.01835
G1 X102.816 Y122.041 E0.02828
G1 X98.211 Y117.422 E0.20450
G1 X97.823 Y116.910 E0.02014
G1 X97.564 Y116.323 E0.02014
G1 X97.442 Y115.539 E0.02485
G1 X97.442 Y104.629 E0.34210
G1 X97.509 Y104.051 E0.01822
G1 X97.698 Y103.497 E0.01835
G1 X98.173 Y102.788 E0.02676
G1 X102.767 Y98.008 E0.20787
G1 X103.245 Y97.623 E0.01924
G1 X103.743 Y97.381 E0.01736
G1 X103.906 Y97.719 F9000.000
G1 F1200.000
G1 X104.692 Y97.572 E0.02507
G1 X115.347 Y97.572 E0.33406
G1 X116.220 Y97.740 E0.02790
G1 X116.971 Y98.217 E0.02790
G1 X121.573 Y103.070 E0.20970
G1 X122.049 Y103.875 E0.02931
G1 X122.181 Y104.629 E0.02402
G1 X122.181 Y115.531 E0.34183
G1 X122.121 Y116.045 E0.01621
G1 X121.952 Y116.530 E0.01609
G1 X121.530 Y117.146 E0.02343
G1 X117.008 Y121.747 E0.20227
G1 X116.563 Y122.091 E0.01763
G1 X116.046 Y122.322 E0.01775
G1 X115.364 Y122.428 E0.02166
G1 X104.698 Y122.428 E0.33442
G1 X104.188 Y122.368 E0.01609
G1 X103.704 Y122.200 E0.01609
G1 X103.070 Y121.762 E0.02414
G1 X98.486 Y117.164 E0.20359
G1 X98.146 Y116.716 E0.01763
G1 X97.922 Y116.204 E0.01752
G1 X97.819 Y115.532 E0.02130
G1 X97.819 Y104.634 E0.34169
G1 X97.879 Y104.125 E0.01609
G1 X98.048 Y103.640 E0.01609
G1 X98.454 Y103.040 E0.02272
G1 X103.034 Y98.274 E0.20723
G1 X103.452 Y97.939 E0.01680
G1 X103.852 Y97.745 E0.01395
G1 E-3.50000 F3600.00000
G1 F7200.000
G1 X104.692 Y97.572 E-0.40742
G1 X106.834 Y97.572 E-1.01758
G1 E-0.07500 F3600.00000
G1 X107.783 Y102.778 F9000.000
G1 E5.00000 F2400.00000
G1 F1200.000
G1 X107.783 Y106.553 E0.10581
G1 X108.337 Y106.553 E0.01553
G1 X108.337 Y102.937 E0.10134
G1 X108.892 Y102.937 E0.01553
G1 X108.892 Y104.110 E0.03288
G1 X109.121 Y103.961 E0.00767
G1 X109.446 Y103.874 E0.00943
G1 X109.446 Y102.937 E0.02626
G1 X110.000 Y102.937 E0.01553
G1 X110.000 Y103.835 E0.02517
G1 X110.554 Y103.874 E0.01557
G1 X110.554 Y102.937 E0.02626
G1 X111.108 Y102.937 E0.01553
G1 X111.108 Y104.110 E0.03288
G1 X111.206 Y104.237 E0.00448
G1 X111.274 Y104.467 E0.00673
G1 X111.280 Y106.547 E0.05830
G1 X111.366 Y106.553 E0.00242
G1 X111.663 Y106.553 E0.00832
G1 X111.663 Y102.937 E0.10134
G1 X112.217 Y102.937 E0.01553
G1 X112.217 Y106.712 E0.10581
G1 X110.754 Y106.738 F9000.000
G1 F1200.000
G1 X110.754 Y104.308 E0.07618
G1 X110.619 Y104.258 E0.00453
G1 X110.365 Y104.217 E0.00807
G1 X110.000 Y104.201 E0.01144
G1 X110.000 Y106.568 E0.07422
G1 X109.246 Y106.568 E0.02365
G1 X109.246 Y104.125 E0.07659
G1 E-3.50000 F3600.00000
G1 F7200.000
G1 X109.246 Y106.568 E-1.16031
G1 X109.803 Y106.568 E-0.26469
G1 E-0.07500 F3600.00000
G1 X106.120 Y107.486 F9000.000
G1 E5.00000 F2400.00000
G1 F1200.000
G1 X106.120 Y108.720 E0.03458
G1 X105.566 Y108.722 E0.01553
G1 X105.566 Y107.646 E0.03017
G1 X105.012 Y107.646 E0.01553
G1 X105.012 Y108.724 E0.03023
G1 X104.458 Y108.726 E0.01553
G1 X104.458 Y107.646 E0.03029
G1 X103.903 Y107.646 E0.01553
G1 X103.903 Y112.354 E0.13197
G1 X104.458 Y112.354 E0.01553
G1 X104.458 Y111.274 E0.03029
G1 X105.012 Y111.276 E0.01553
G1 X105.012 Y112.354 E0.03023
G1 X105.566 Y112.354 E0.01553
G1 X105.566 Y111.278 E0.03017
G1 X106.120 Y111.280 E0.01553
G1 X106.120 Y112.514 E0.03458
G1 X106.229 Y111.084 F9000.000
G1 F1200.000
G1 X106.229 Y109.085 E0.06268
G1 X105.475 Y109.088 E0.02365
G1 X105.475 Y110.912 E0.05718
G1 X104.721 Y110.909 E0.02365
G1 X104.721 Y108.921 E0.06232
G1 X103.349 Y107.486 F9000.000
G1 F1200.000
G1 X103.349 Y112.514 E0.14091
G1 E-3.50000 F3600.00000
G1 F7200.000
G1 X103.349 Y109.514 E-1.42500
G1 E-0.07500 F3600.00000
G1 X102.458 Y115.512 F9000.000
G1 E5.00000 F2400.00000
G1 F1200.000
G1 X102.458 Y104.657 E0.34036
G1 X101.704 Y104.657 E0.02365
G1 X101.704 Y115.343 E0.33504
G1 X100.950 Y115.343 E0.02365
G1 X100.950 Y104.657 E0.33504
G1 X100.196 Y104.657 E0.02365
G1 X100.196 Y115.512 E0.34036
G1 E-3.50000 F3600.00000
G1 F7200.000
G1 X100.196 Y112.512 E-1.42500
G1 E-0.07500 F3600.00000
G1 X112.217 Y117.222 F9000.000
G1 E5.00000 F2400.00000
G1 F1200.000
G1 X112.217 Y113.447 E0.10581
G1 X111.663 Y113.447 E0.01553
G1 X111.663 Y117.063 E0.10134
G1 X111.108 Y117.063 E0.01553
G1 X111.108 Y115.890 E0.03288
G1 X110.879 Y116.039 E0.00767
G1 X110.554 Y116.126 E0.00943
G1 X110.554 Y117.063 E0.02626
G1 X110.000 Y117.063 E0.01553
G1 X110.000 Y116.165 E0.02517
G1 X109.446 Y116.126 E0.01557
G1 X109.446 Y117.063 E0.02626
G1 X108.892 Y117.063 E0.01553
G1 X108.892 Y115.890 E0.03288
G1 X108.794 Y115.763 E0.00448
G1 X108.726 Y115.533 E0.00673
G1 X108.720 Y113.453 E0.05830
G1 X108.634 Y113.447 E0.00242
G1 X108.337 Y113.447 E0.00832
G1 X108.337 Y117.063 E0.10134
G1 X107.783 Y117.063 E0.01553
G1 X107.783 Y113.288 E0.10581
G1 X109.246 Y113.262 F9000.000
G1 F1200.000
G1 X109.246 Y115.692 E0.07618
G1 X109.381 Y115.742 E0.00453
G1 X109.635 Y115.783 E0.00807
G1 X110.000 Y115.799 E0.01144
G1 X110.000 Y113.432 E0.07422
G1 X110.754 Y113.432 E0.02365
G1 X110.754 Y115.875 E0.07659
G1 E-3.50000 F3600.00000
G1 F7200.000
G1 X110.754 Y113.432 E-1.16031
G1 X110.197 Y113.432 E-0.26469
G1 E-0.07500 F3600.00000
G1 X113.880 Y112.514 F9000.000
G1 E5.00000 F2400.00000
G1 F1200.000
G1 X113.880 Y111.280 E0.03458
G1 X114.434 Y111.278 E0.01553
G1 X114.434 Y112.354 E0.03017
G1 X114.988 Y112.354 E0.01553
G1 X114.988 Y111.276 E0.03023
G1 X115.542 Y111.274 E0.01553
G1 X115.542 Y112.354 E0.03029
G1 X116.097 Y112.354 E0.01553
G1 X116.097 Y107.646 E0.13197
G1 X116.651 Y107.646 E0.01553
G1 X116.651 Y112.514 E0.13644
G1 X115.279 Y111.079 F9000.000
G1 F1200.000
G1 X115.279 Y109.091 E0.06232
G1 X114.525 Y109.088 E0.02365
G1 X114.525 Y110.912 E0.05718
G1 X113.771 Y110.915 E0.02365
G1 X113.771 Y108.916 E0.06268
G1 X113.880 Y108.879 F9000.000
G1 F1200.000
G1 X113.880 Y107.646 E0.03458
G1 X114.434 Y107.646 E0.01553
G1 X114.434 Y108.722 E0.03017
G1 X114.988 Y108.724 E0.01553
G1 X114.988 Y107.646 E0.03023
G1 X115.542 Y107.646 E0.01553
G1 X115.542 Y108.888 E0.03483
G1 E-3.50000 F3600.00000
G1 F7200.000
G1 X115.542 Y107.646 E-0.59023
G1 X114.988 Y107.646 E-0.26327
G1 X114.988 Y108.724 E-0.51229
G1 X114.864 Y108.724 E-0.05921
G1 E-0.07500 F3600.00000
G1 X116.787 Y104.488 F9000.000
G1 E5.00000 F2400.00000
G1 F1200.000
G1 X116.787 Y107.280 E0.08755
G1 X116.033 Y107.280 E0.02365
G1 X116.033 Y104.657 E0.08223
G1 X115.343 Y104.657 E0.02165
G1 X115.343 Y99.949 E0.14763
G1 X115.279 Y99.949 E0.00199
G1 X115.279 Y107.280 E0.22987
G1 X114.525 Y107.280 E0.02365
G1 X114.525 Y99.949 E0.22987
G1 X113.771 Y99.949 E0.02365
G1 X113.771 Y107.280 E0.22987
G1 X113.432 Y107.280 E0.01063
G1 X113.424 Y107.107 E0.00543
G1 X113.362 Y106.913 E0.00638
G1 X113.296 Y106.811 E0.00381
G1 X113.192 Y106.707 E0.00462
G1 X113.017 Y106.610 E0.00629
G1 X113.017 Y99.949 E0.20886
G1 X112.262 Y99.949 E0.02365
G1 X112.262 Y102.571 E0.08223
G1 X111.508 Y102.571 E0.02365
G1 X111.508 Y99.949 E0.08223
G1 X110.754 Y99.949 E0.02365
G1 X110.754 Y102.571 E0.08223
G1 X110.000 Y102.572 E0.02365
G1 X110.000 Y99.949 E0.08224
G1 X109.246 Y99.949 E0.02365
G1 X109.246 Y102.572 E0.08224
G1 X108.492 Y102.572 E0.02365
G1 X108.492 Y99.949 E0.08224
G1 X107.738 Y99.949 E0.02365
G1 X107.738 Y102.572 E0.08224
G1 X107.280 Y102.572 E0.01435
G1 X107.280 Y106.568 E0.12531
G1 X107.148 Y106.571 E0.00415
G1 X106.983 Y106.610 E0.00529
G1 X106.983 Y99.949 E0.20886
G1 X106.229 Y99.949 E0.02365
G1 X106.229 Y107.280 E0.22987
G1 X105.475 Y107.280 E0.02365
G1 X105.475 Y99.949 E0.22987
G1 X104.721 Y99.949 E0.02365
G1 X104.721 Y107.280 E0.22987
G1 X103.967 Y107.280 E0.02365
G1 X103.967 Y104.657 E0.08224
G1 X103.213 Y104.657 E0.02365
G1 X103.213 Y107.280 E0.08224
G1 X102.571 Y107.280 E0.02010
G1 X102.572 Y112.720 E0.17057
G1 X103.213 Y112.720 E0.02010
G1 X103.213 Y115.343 E0.08223
G1 X103.967 Y115.343 E0.02365
G1 X103.967 Y112.720 E0.08223
G1 X104.721 Y112.720 E0.02365
G1 X104.721 Y120.051 E0.22987
G1 X105.475 Y120.051 E0.02365
G1 X105.475 Y112.720 E0.22987
G1 X106.229 Y112.720 E0.02365
G1 X106.229 Y120.051 E0.22987
G1 X106.983 Y120.051 E0.02365
G1 X106.983 Y113.390 E0.20886
G1 X107.148 Y113.429 E0.00529
G1 X107.280 Y113.432 E0.00415
G1 X107.280 Y117.428 E0.12532
G1 X107.738 Y117.428 E0.01434
G1 X107.738 Y120.051 E0.08223
G1 X108.492 Y120.051 E0.02365
G1 X108.492 Y117.428 E0.08223
G1 X109.246 Y117.428 E0.02365
G1 X109.246 Y120.051 E0.08223
G1 X110.000 Y120.051 E0.02365
G1 X110.000 Y117.428 E0.08224
G1 X110.754 Y117.428 E0.02365
G1 X110.754 Y120.051 E0.08224
G1 X111.508 Y120.051 E0.02365
G1 X111.508 Y117.428 E0.08224
G1 X112.262 Y117.428 E0.02365
G1 X112.262 Y120.051 E0.08224
G1 X113.017 Y120.051 E0.02365
G1 X113.017 Y113.390 E0.20886
G1 X113.192 Y113.293 E0.00629
G1 X113.296 Y113.189 E0.00462
G1 X113.362 Y113.087 E0.00381
G1 X113.424 Y112.893 E0.00638
G1 X113.432 Y112.720 E0.00543
G1 X113.771 Y112.720 E0.01063
G1 X113.771 Y120.051 E0.22987
G1 X114.525 Y120.051 E0.02365
G1 X114.525 Y112.720 E0.22987
G1 X115.279 Y112.720 E0.02365
G1 X115.279 Y120.051 E0.22987
G1 X115.343 Y120.051 E0.00200
G1 X115.343 Y115.343 E0.14763
G1 X116.033 Y115.343 E0.02165
G1 X116.033 Y112.720 E0.08224
G1 X116.787 Y112.720 E0.02365
G1 X116.787 Y115.343 E0.08224
G1 X117.542 Y115.343 E0.02365
G1 X117.542 Y104.657 E0.33504
G1 X118.296 Y104.657 E0.02365
G1 X118.296 Y115.343 E0.33504
G1 X119.050 Y115.343 E0.02365
G1 X119.050 Y104.657 E0.33504
G1 X119.804 Y104.657 E0.02365
G1 X119.804 Y115.512 E0.34036
G1 E-3.50000 F3600.00000
G1 F7200.000
G1 X119.804 Y112.512 E-1.42500
G1 E-0.07500 F3600.00000
G1 X112.009 Y112.009 F9000.000
G1 E5.00000 F2400.00000
G1 F1200.000
G1 X107.991 Y112.009 E0.12598
G1 X107.991 Y107.992 E0.12596
G1 X112.009 Y107.995 E0.12598
G1 X112.009 Y111.949 E0.12396
G1 X112.386 Y112.386 F9000.000
G1 F1200.000
G1 X107.614 Y112.386 E0.14963
G1 X107.614 Y107.614 E0.14962
G1 X112.386 Y107.619 E0.14963
G1 X112.386 Y112.326 E0.14760
G1 X112.763 Y112.760 F9000.000
G1 F1200.000
G1 X107.238 Y112.763 E0.17323
G1 X107.238 Y107.237 E0.17328
G1 X112.763 Y107.242 E0.17324
G1 X112.763 Y112.700 E0.17113
G1 X112.377 Y112.656 F9000.000
G1 E-3.50000 F3600.00000
G1 F7200.000
G1 X109.763 Y112.734 E-1.42500
G1 E-0.07500 F3600.00000
G1 X108.886 Y111.896 F9000.000
G1 E5.00000 F2400.00000
G1 F1200.000
G1 X108.274 Y111.283 E0.02786
G1 X108.274 Y110.736 E0.01758
G1 X109.264 Y111.726 E0.04500
G1 X109.810 Y111.726 E0.01758
G1 X108.274 Y110.190 E0.06986
G1 X108.274 Y109.643 E0.01758
G1 X110.357 Y111.726 E0.09472
G1 X110.904 Y111.726 E0.01758
G1 X108.274 Y109.096 E0.11957
G1 X108.274 Y108.549 E0.01758
G1 X111.451 Y111.726 E0.14443
G1 X111.726 Y111.726 E0.00886
G1 X111.726 Y111.455 E0.00872
G1 X108.546 Y108.275 E0.14458
G1 X109.093 Y108.276 E0.01759
G1 X111.726 Y110.908 E0.11970
G1 X111.726 Y110.362 E0.01758
G1 X109.641 Y108.276 E0.09482
G1 X110.188 Y108.277 E0.01759
G1 X111.726 Y109.815 E0.06994
G1 X111.726 Y109.268 E0.01758
G1 X110.735 Y108.277 E0.04506
G1 X111.283 Y108.278 E0.01759
G1 X111.896 Y108.891 E0.02789
M106 S255
;BEFORE_LAYER_CHANGE
;0.32


G1 E-3.50000 F3600.00000
G1 F7200.000
G1 X111.283 Y108.278 E-0.41206
G1 X110.735 Y108.277 E-0.25996
G1 X111.726 Y109.268 E-0.66571
G1 X111.726 Y109.452 E-0.08727
G1 E-0.07500 F3600.00000
G1 Z0.320 F9000.000
;AFTER_LAYER_CHANGE
;0.32
G1 X116.348 Y97.385
G1 E5.00000 F2400.00000
G1 F900
G1 X117.215 Y97.928 E0.02012
G1 X121.859 Y102.823 E0.13271
G1 X122.173 Y103.253 E0.01047
G1 X122.398 Y103.731 E0.01039
G1 X122.558 Y104.618 E0.01774
G1 X122.558 Y115.533 E0.21468
G1 X122.492 Y116.114 E0.01151
G1 X122.302 Y116.672 E0.01159
G1 X121.810 Y117.399 E0.01726
G1 X117.269 Y122.020 E0.12742
G1 X116.757 Y122.414 E0.01271
G1 X116.168 Y122.679 E0.01271
G1 X115.373 Y122.805 E0.01583
G1 X104.692 Y122.805 E0.21008
G1 X104.115 Y122.738 E0.01143
G1 X103.561 Y122.549 E0.01151
G1 X102.816 Y122.041 E0.01774
G1 X98.211 Y117.422 E0.12829
G1 X97.823 Y116.910 E0.01263
G1 X97.564 Y116.323 E0.01263
G1 X97.442 Y115.539 E0.01559
G1 X97.442 Y104.629 E0.21461
G1 X97.509 Y104.051 E0.01143
G1 X97.698 Y103.497 E0.01151
G1 X98.173 Y102.788 E0.01679
G1 X102.767 Y98.008 E0.13040
G1 X103.245 Y97.623 E0.01207
G1 X103.796 Y97.354 E0.01207
G1 X104.684 Y97.195 E0.01774
G1 X115.347 Y97.195 E0.20972
G1 X116.289 Y97.373 E0.01886
G1 X116.219 Y97.739 F9000.000
G1 F900
G1 X116.971 Y98.217 E0.01753
G1 X121.573 Y103.070 E0.13155
G1 X122.049 Y103.875 E0.01838
G1 X122.181 Y104.629 E0.01507
G1 X122.181 Y115.531 E0.21444
G1 X122.121 Y116.045 E0.01017
G1 X121.952 Y116.530 E0.01009
G1 X121.530 Y117.146 E0.01470
G1 X117.008 Y121.747 E0.12689
G1 X116.563 Y122.091 E0.01106
G1 X116.046 Y122.322 E0.01114
G1 X115.364 Y122.428 E0.01359
G1 X104.698 Y122.428 E0.20979
G1 X104.188 Y122.368 E0.01009
G1 X103.704 Y122.200 E0.01009
G1 X103.070 Y121.762 E0.01514
G1 X98.486 Y117.164 E0.12772
G1 X98.146 Y116.716 E0.01106
G1 X97.922 Y116.204 E0.01099
G1 X97.819 Y115.532 E0.01336
G1 X97.819 Y104.634 E0.21435
G1 X97.879 Y104.125 E0.01009
G1 X98.048 Y103.640 E0.01009
G1 X98.454 Y103.040 E0.01425
G1 X103.034 Y98.274 E0.13000
G1 X103.452 Y97.939 E0.01054
G1 X103.934 Y97.706 E0.01054
G1 X104.692 Y97.572 E0.01514
G1 X115.347 Y97.572 E0.20956
G1 X116.160 Y97.728 E0.01629
G1 E-3.50000 F3600.00000
G1 F7200.000
G1 X116.971 Y98.217 E-0.45003
G1 X118.384 Y99.706 E-0.97497
G1 E-0.07500 F3600.00000
G1 X111.930 Y108.070 F9000.000
G1 E5.00000 F2400.00000
G1 F900
G1 X111.934 Y109.134 E0.02251
G1 X112.011 Y109.677 E0.01162
G1 X112.091 Y110.011 E0.00726
G1 X112.049 Y110.137 E0.00280
G1 X111.934 Y110.857 E0.01545
G1 X111.930 Y111.930 E0.02270
G1 X110.865 Y111.934 E0.02253
G1 X110.323 Y112.011 E0.01160
G1 X109.989 Y112.091 E0.00726
G1 X109.864 Y112.049 E0.00279
G1 X109.146 Y111.934 E0.01538
G1 X108.070 Y111.930 E0.02277
G1 X108.066 Y110.864 E0.02256
G1 X107.989 Y110.322 E0.01158
G1 X107.909 Y109.989 E0.00726
G1 X107.951 Y109.864 E0.00280
G1 X108.066 Y109.145 E0.01540
G1 X108.070 Y108.070 E0.02275
G1 X109.135 Y108.066 E0.02253
G1 X109.677 Y107.989 E0.01160
G1 X110.011 Y107.909 E0.00726
G1 X110.136 Y107.951 E0.00279
G1 X110.854 Y108.066 E0.01538
G1 X111.870 Y108.070 E0.02150
G1 X112.352 Y107.648 F9000.000
G1 F900
G1 X112.358 Y109.103 E0.03080
G1 X112.428 Y109.598 E0.01058
G1 X112.501 Y109.900 E0.00659
G1 X112.544 Y109.994 E0.00219
G1 X112.462 Y110.238 E0.00545
G1 X112.358 Y110.892 E0.01400
G1 X112.352 Y112.352 E0.03092
G1 X110.896 Y112.358 E0.03083
G1 X110.402 Y112.428 E0.01056
G1 X110.100 Y112.501 E0.00659
G1 X110.006 Y112.544 E0.00219
