; generated by PrusaSlicer 2.2.0+win64 on 2021-05-08 at 20:18:12 UTC

; 

; external perimeters extrusion width = 0.45mm
; perimeters extrusion width = 0.45mm
; infill extrusion width = 0.45mm
; solid infill extrusion width = 0.45mm
; top infill extrusion width = 0.40mm
; first layer extrusion width = 0.42mm

M201 X500 Y500 Z100 E5000 ; sets maximum accelerations, mm/sec^2
M203 X500 Y500 Z10 E60 ; sets maximum feedrates, mm/sec
M204 P500 R1000 T500 ; sets acceleration (P, T) and retract acceleration (R), mm/sec^2
M205 X8.00 Y8.00 Z0.40 E5.00 ; sets the jerk limits, mm/sec
M205 S0 T0 ; sets the minimum extruding and travel feed rate, mm/sec
M107
G90 ; use absolute coordinates
M83 ; extruder relative mode
M104 S200 ; set extruder temp
M140 S60 ; set bed temp
M190 S60 ; wait for bed temp
M109 S200 ; wait for extruder temp
G28 ; home all
G1 Z2 F240
G1 X2 Y10 F3000
G1 Z0.28 F240
G92 E0.0
G1 Y190 E15.0 F1500.0 ; intro line
G1 X2.3 F5000
G1 Y10 E30 F1200.0 ; intro line
G92 E0.0
G21 ; set units to millimeters
G90 ; use absolute coordinates
M83 ; use relative distances for extrusion
; Filament gcode
;BEFORE_LAYER_CHANGE
;0.2


G1 E-5.00000 F3600.00000
G1 Z0.200 F9000.000
;AFTER_LAYER_CHANGE
;0.2
G1 X103.041 Y102.986
G1 E5.00000 F2400.00000
G1 F1200.000
G1 X104.051 Y102.011 E0.04400
G1 X105.561 Y100.994 E0.05706
G1 X106.837 Y100.422 E0.04386
G1 X108.606 Y99.975 E0.05720
G1 X110.005 Y99.869 E0.04400
G1 X111.941 Y100.073 E0.06102
G1 X113.082 Y100.394 E0.03716
G1 X113.859 Y100.706 E0.02626
G1 X114.906 Y101.263 E0.03717
G1 X115.879 Y101.955 E0.03744
G1 X116.498 Y102.505 E0.02598
G1 X117.295 Y103.383 E0.03717
G1 X118.351 Y105.038 E0.06157
G1 X118.811 Y106.131 E0.03716
G1 X119.048 Y106.921 E0.02585
G1 X119.257 Y108.030 E0.03539
G1 X119.324 Y108.851 E0.02585
G1 X119.294 Y110.036 E0.03717
G1 X119.111 Y111.212 E0.03730
G1 X118.691 Y112.597 E0.04537
G1 X116.239 Y118.318 E0.19519
G1 X115.780 Y119.024 E0.02637
G1 X115.155 Y119.579 E0.02624
G1 X114.396 Y119.952 E0.02651
G1 X113.569 Y120.108 E0.02637
G1 X106.571 Y120.112 E0.21943
G1 X105.980 Y120.052 E0.01861
G1 X105.375 Y119.866 E0.01984
G1 X104.817 Y119.560 E0.01998
G1 X104.331 Y119.147 E0.01998
G1 X103.940 Y118.644 E0.01998
G1 X101.312 Y112.603 E0.20657
G1 X100.913 Y111.321 E0.04209
G1 X100.707 Y110.043 E0.04059
G1 X100.680 Y108.740 E0.04086
G1 X100.838 Y107.433 E0.04127
G1 X101.348 Y105.709 E0.05638
G1 X101.966 Y104.454 E0.04386
G1 X103.006 Y103.034 E0.05518
G1 X103.309 Y103.257 F9000.000
G1 F1200.000
G1 X104.293 Y102.300 E0.04302
G1 X105.748 Y101.322 E0.05496
G1 X106.967 Y100.776 E0.04189
G1 X108.671 Y100.347 E0.05509
G1 X110.003 Y100.246 E0.04189
G1 X111.860 Y100.442 E0.05855
G1 X112.965 Y100.752 E0.03599
G1 X113.697 Y101.047 E0.02474
G1 X114.709 Y101.585 E0.03593
G1 X115.648 Y102.253 E0.03612
G1 X117.005 Y103.623 E0.06046
G1 X118.013 Y105.204 E0.05880
G1 X118.681 Y107.009 E0.06033
G1 X118.892 Y108.146 E0.03625
G1 X118.953 Y109.288 E0.03586
G1 X118.738 Y111.151 E0.05880
G1 X118.341 Y112.456 E0.04279
G1 X115.902 Y118.148 E0.19417
G1 X115.498 Y118.773 E0.02333
G1 X114.942 Y119.268 E0.02333
G1 X114.271 Y119.596 E0.02345
G1 X113.535 Y119.732 E0.02345
G1 X106.572 Y119.735 E0.21831
G1 X106.043 Y119.680 E0.01669
G1 X105.504 Y119.511 E0.01771
G1 X105.007 Y119.233 E0.01784
G1 X104.579 Y118.859 E0.01784
G1 X104.238 Y118.409 E0.01771
G1 X101.651 Y112.435 E0.20411
G1 X101.279 Y111.229 E0.03958
G1 X101.081 Y109.998 E0.03907
G1 X101.057 Y108.757 E0.03894
G1 X101.210 Y107.495 E0.03984
G1 X101.702 Y105.838 E0.05420
G1 X102.292 Y104.644 E0.04176
G1 X103.274 Y103.305 E0.05207
G1 X103.577 Y103.527 F9000.000
G1 F1200.000
G1 X104.532 Y102.592 E0.04192
G1 X105.935 Y101.649 E0.05298
G1 X107.093 Y101.131 E0.03980
G1 X108.736 Y100.718 E0.05310
G1 X110.005 Y100.623 E0.03992
G1 X111.780 Y100.810 E0.05595
G1 X113.534 Y101.386 E0.05787
G1 X114.510 Y101.905 E0.03466
G1 X115.417 Y102.551 E0.03492
G1 X116.712 Y103.860 E0.05773
G1 X117.675 Y105.371 E0.05619
G1 X118.314 Y107.098 E0.05773
G1 X118.517 Y108.189 E0.03480
G1 X118.576 Y109.297 E0.03480
G1 X118.366 Y111.088 E0.05654
G1 X117.991 Y112.317 E0.04028
G1 X115.566 Y117.977 E0.19307
G1 X115.216 Y118.524 E0.02036
G1 X114.731 Y118.955 E0.02036
G1 X114.144 Y119.241 E0.02048
G1 X113.505 Y119.356 E0.02036
G1 X106.109 Y119.308 E0.23190
G1 X105.634 Y119.156 E0.01562
G1 X105.205 Y118.911 E0.01550
G1 X104.836 Y118.582 E0.01550
G1 X104.541 Y118.181 E0.01562
G1 X101.993 Y112.275 E0.20169
G1 X101.644 Y111.137 E0.03730
G1 X101.457 Y109.962 E0.03730
G1 X101.433 Y108.777 E0.03718
G1 X101.581 Y107.562 E0.03837
G1 X102.055 Y105.972 E0.05203
G1 X102.616 Y104.837 E0.03968
G1 X103.541 Y103.576 E0.04906
G1 E-3.50000 F3600.00000
G1 F7200.000
G1 X104.532 Y102.592 E-0.66326
G1 X105.863 Y101.697 E-0.76174
G1 E-0.07500 F3600.00000
G1 X108.910 Y111.735 F9000.000
G1 E5.00000 F2400.00000
G1 F1200.000
G1 X109.194 Y111.559 E0.01046
G1 X109.505 Y111.439 E0.01046
G1 X109.833 Y111.377 E0.01046
G1 X110.167 Y111.377 E0.01046
G1 X110.486 Y111.437 E0.01016
G1 X110.803 Y111.558 E0.01065
G1 X111.090 Y111.735 E0.01057
G1 X111.336 Y111.960 E0.01046
G1 X111.537 Y112.226 E0.01046
G1 X111.686 Y112.525 E0.01046
G1 X111.777 Y112.846 E0.01046
G1 X111.808 Y113.178 E0.01046
G1 X111.777 Y113.510 E0.01046
G1 X111.686 Y113.831 E0.01046
G1 X111.537 Y114.130 E0.01046
G1 X111.336 Y114.396 E0.01046
G1 X111.090 Y114.621 E0.01046
G1 X110.806 Y114.797 E0.01046
G1 X110.495 Y114.917 E0.01046
G1 X110.167 Y114.979 E0.01046
G1 X109.833 Y114.979 E0.01046
G1 X109.505 Y114.917 E0.01046
G1 X109.194 Y114.797 E0.01046
G1 X108.910 Y114.621 E0.01046
G1 X108.671 Y114.403 E0.01016
G1 X108.464 Y114.133 E0.01065
G1 X108.314 Y113.831 E0.01057
G1 X108.223 Y113.510 E0.01046
G1 X108.192 Y113.178 E0.01046
G1 X108.223 Y112.846 E0.01046
G1 X108.314 Y112.525 E0.01046
G1 X108.463 Y112.226 E0.01046
G1 X108.664 Y111.960 E0.01046
G1 X108.866 Y111.775 E0.00858
G1 X109.120 Y112.054 F9000.000
G1 F1200.000
G1 X109.363 Y111.898 E0.00905
G1 X109.609 Y111.803 E0.00827
G1 X109.868 Y111.755 E0.00827
G1 X110.132 Y111.755 E0.00827
G1 X110.383 Y111.802 E0.00802
G1 X110.635 Y111.897 E0.00846
G1 X110.862 Y112.037 E0.00834
G1 X111.056 Y112.215 E0.00827
G1 X111.215 Y112.425 E0.00827
G1 X111.333 Y112.662 E0.00827
G1 X111.405 Y112.915 E0.00827
G1 X111.430 Y113.178 E0.00827
G1 X111.405 Y113.441 E0.00827
G1 X111.333 Y113.694 E0.00827
G1 X111.215 Y113.931 E0.00827
G1 X111.056 Y114.141 E0.00827
G1 X110.862 Y114.319 E0.00827
G1 X110.637 Y114.458 E0.00827
G1 X110.391 Y114.553 E0.00827
G1 X110.132 Y114.602 E0.00827
G1 X109.868 Y114.602 E0.00827
G1 X109.609 Y114.553 E0.00827
G1 X109.363 Y114.458 E0.00827
G1 X109.138 Y114.319 E0.00827
G1 X108.950 Y114.147 E0.00802
G1 X108.785 Y113.932 E0.00846
G1 X108.667 Y113.694 E0.00834
G1 X108.595 Y113.441 E0.00827
G1 X108.570 Y113.178 E0.00827
G1 X108.595 Y112.915 E0.00827
G1 X108.667 Y112.662 E0.00827
G1 X108.785 Y112.425 E0.00827
G1 X108.944 Y112.215 E0.00827
G1 X109.076 Y112.095 E0.00560
G1 X109.367 Y112.339 F9000.000
G1 F1200.000
G1 X109.532 Y112.237 E0.00608
G1 X109.712 Y112.167 E0.00608
G1 X109.903 Y112.132 E0.00608
G1 X110.097 Y112.132 E0.00608
G1 X110.281 Y112.166 E0.00587
G1 X110.468 Y112.237 E0.00627
G1 X110.633 Y112.339 E0.00610
G1 X110.777 Y112.470 E0.00608
G1 X110.893 Y112.625 E0.00608
G1 X110.980 Y112.798 E0.00608
G1 X111.033 Y112.985 E0.00608
G1 X111.051 Y113.178 E0.00608
G1 X111.033 Y113.371 E0.00608
G1 X110.980 Y113.558 E0.00608
G1 X110.893 Y113.731 E0.00608
G1 X110.777 Y113.886 E0.00608
G1 X110.633 Y114.017 E0.00608
G1 X110.468 Y114.119 E0.00608
G1 X110.288 Y114.189 E0.00608
G1 X110.097 Y114.224 E0.00608
G1 X109.903 Y114.224 E0.00608
G1 X109.712 Y114.189 E0.00608
G1 X109.532 Y114.119 E0.00608
G1 X109.367 Y114.017 E0.00608
G1 X109.228 Y113.891 E0.00587
G1 X109.107 Y113.732 E0.00627
G1 X109.020 Y113.558 E0.00610
G1 X108.967 Y113.371 E0.00608
G1 X108.949 Y113.178 E0.00608
G1 X108.967 Y112.985 E0.00608
G1 X109.020 Y112.798 E0.00608
G1 X109.107 Y112.625 E0.00608
G1 X109.223 Y112.470 E0.00608
G1 X109.322 Y112.380 E0.00420
G1 X109.343 Y112.147 F9000.000
G1 E-3.50000 F3600.00000
G1 F7200.000
G1 X109.532 Y112.237 E-0.12024
G1 X109.712 Y112.167 E-0.09212
G1 X109.903 Y112.132 E-0.09212
G1 X110.097 Y112.132 E-0.09212
G1 X110.281 Y112.166 E-0.08886
G1 X110.468 Y112.237 E-0.09498
G1 X110.633 Y112.339 E-0.09247
G1 X110.777 Y112.470 E-0.09212
G1 X110.893 Y112.625 E-0.09212
G1 X110.980 Y112.798 E-0.09212
G1 X111.033 Y112.985 E-0.09212
G1 X111.051 Y113.178 E-0.09212
G1 X111.033 Y113.371 E-0.09212
G1 X110.980 Y113.558 E-0.09212
G1 X110.893 Y113.731 E-0.09212
G1 X110.874 Y113.757 E-0.01517
G1 E-0.07500 F3600.00000
G1 X107.557 Y113.882 F9000.000
G1 E5.00000 F2400.00000
G1 F1200.000
G1 X106.827 Y113.365 E0.02803
G1 X106.547 Y113.136 E0.01135
G1 X106.036 Y112.620 E0.02276
G1 X105.603 Y112.043 E0.02263
G1 X105.417 Y111.732 E0.01135
G1 X105.253 Y111.409 E0.01135
G1 X105.112 Y111.076 E0.01135
G1 X104.994 Y110.733 E0.01135
G1 X104.900 Y110.384 E0.01135
G1 X104.831 Y110.028 E0.01135
G1 X104.786 Y109.669 E0.01135
G1 X104.766 Y109.307 E0.01135
G1 X104.771 Y108.945 E0.01135
G1 X104.801 Y108.584 E0.01135
G1 X104.856 Y108.226 E0.01135
G1 X104.936 Y107.873 E0.01135
G1 X105.040 Y107.526 E0.01135
G1 X105.167 Y107.187 E0.01135
G1 X105.318 Y106.858 E0.01135
G1 X105.687 Y106.233 E0.02276
G1 X105.901 Y105.944 E0.01129
G1 X106.136 Y105.668 E0.01135
G1 X106.389 Y105.409 E0.01135
G1 X106.660 Y105.169 E0.01135
G1 X106.947 Y104.948 E0.01135
G1 X107.248 Y104.747 E0.01135
G1 X107.563 Y104.567 E0.01135
G1 X108.202 Y104.285 E0.02192
G1 X108.572 Y104.164 E0.01219
G1 X109.278 Y104.015 E0.02263
G1 X109.638 Y103.978 E0.01135
G1 X110.337 Y103.977 E0.02192
G1 X110.724 Y104.016 E0.01219
G1 X111.430 Y104.164 E0.02263
G1 X111.775 Y104.275 E0.01135
G1 X112.111 Y104.410 E0.01135
G1 X112.437 Y104.567 E0.01135
G1 X112.752 Y104.747 E0.01135
G1 X113.053 Y104.948 E0.01135
G1 X113.340 Y105.169 E0.01135
G1 X113.611 Y105.409 E0.01135
G1 X113.864 Y105.668 E0.01135
G1 X114.099 Y105.944 E0.01135
G1 X114.314 Y106.235 E0.01135
G1 X114.509 Y106.540 E0.01135
G1 X114.833 Y107.189 E0.02276
G1 X115.064 Y107.873 E0.02263
G1 X115.144 Y108.226 E0.01135
G1 X115.199 Y108.584 E0.01135
G1 X115.229 Y108.945 E0.01135
G1 X115.234 Y109.307 E0.01135
G1 X115.214 Y109.669 E0.01135
G1 X115.169 Y110.028 E0.01135
G1 X115.100 Y110.384 E0.01135
G1 X115.006 Y110.733 E0.01135
G1 X114.888 Y111.076 E0.01135
G1 X114.747 Y111.409 E0.01135
G1 X114.396 Y112.044 E0.02276
G1 X113.963 Y112.622 E0.02263
G1 X113.717 Y112.888 E0.01135
G1 X113.453 Y113.136 E0.01135
G1 X113.173 Y113.365 E0.01135
G1 X112.443 Y113.882 E0.02803
G1 X112.443 Y116.017 E0.06694
G1 X107.557 Y116.017 E0.15321
G1 X107.557 Y113.942 E0.06506
G1 X107.180 Y114.077 F9000.000
G1 F1200.000
G1 X106.599 Y113.665 E0.02233
G1 X106.298 Y113.419 E0.01217
G1 X106.034 Y113.171 E0.01137
G1 X105.751 Y112.868 E0.01301
G1 X105.508 Y112.566 E0.01213
G1 X105.286 Y112.247 E0.01217
G1 X105.087 Y111.914 E0.01217
G1 X104.911 Y111.568 E0.01217
G1 X104.760 Y111.211 E0.01217
G1 X104.633 Y110.844 E0.01217
G1 X104.533 Y110.469 E0.01217
G1 X104.458 Y110.088 E0.01217
G1 X104.410 Y109.703 E0.01217
G1 X104.389 Y109.315 E0.01217
G1 X104.394 Y108.927 E0.01217
G1 X104.426 Y108.540 E0.01217
G1 X104.485 Y108.156 E0.01217
G1 X104.571 Y107.778 E0.01217
G1 X104.682 Y107.406 E0.01217
G1 X104.819 Y107.042 E0.01217
G1 X104.981 Y106.689 E0.01217
G1 X105.154 Y106.371 E0.01137
G1 X105.376 Y106.020 E0.01301
G1 X105.606 Y105.709 E0.01213
G1 X105.858 Y105.414 E0.01217
G1 X106.129 Y105.136 E0.01217
G1 X106.420 Y104.878 E0.01217
G1 X106.727 Y104.641 E0.01217
G1 X107.050 Y104.426 E0.01217
G1 X107.387 Y104.233 E0.01217
G1 X107.737 Y104.065 E0.01217
G1 X108.073 Y103.930 E0.01137
G1 X108.468 Y103.801 E0.01301
G1 X108.843 Y103.708 E0.01213
G1 X109.226 Y103.642 E0.01217
G1 X109.612 Y103.601 E0.01217
G1 X110.000 Y103.588 E0.01217
G1 X110.362 Y103.600 E0.01137
G1 X110.775 Y103.642 E0.01301
G1 X111.157 Y103.708 E0.01213
G1 X111.533 Y103.801 E0.01217
G1 X111.903 Y103.920 E0.01217
G1 X112.263 Y104.065 E0.01217
G1 X112.613 Y104.233 E0.01217
G1 X112.950 Y104.426 E0.01217
G1 X113.273 Y104.641 E0.01217
G1 X113.580 Y104.878 E0.01217
G1 X113.871 Y105.136 E0.01217
G1 X114.142 Y105.414 E0.01217
G1 X114.394 Y105.709 E0.01217
G1 X114.625 Y106.021 E0.01217
G1 X114.834 Y106.348 E0.01217
G1 X115.007 Y106.667 E0.01137
G1 X115.181 Y107.043 E0.01301
G1 X115.318 Y107.406 E0.01213
G1 X115.429 Y107.778 E0.01217
G1 X115.515 Y108.156 E0.01217
G1 X115.574 Y108.540 E0.01217
G1 X115.606 Y108.927 E0.01217
G1 X115.611 Y109.315 E0.01217
G1 X115.590 Y109.703 E0.01217
G1 X115.542 Y110.088 E0.01217
G1 X115.467 Y110.469 E0.01217
G1 X115.367 Y110.844 E0.01217
G1 X115.240 Y111.211 E0.01217
G1 X115.089 Y111.568 E0.01217
G1 X114.924 Y111.892 E0.01137
G1 X114.713 Y112.248 E0.01301
G1 X114.492 Y112.566 E0.01213
G1 X114.248 Y112.868 E0.01217
G1 X113.985 Y113.153 E0.01217
G1 X113.702 Y113.419 E0.01217
G1 X113.401 Y113.665 E0.01217
G1 X112.820 Y114.077 E0.02233
G1 X112.820 Y116.394 E0.07265
G1 X107.180 Y116.394 E0.17685
G1 X107.180 Y114.137 E0.07077
G1 X106.803 Y114.272 F9000.000
G1 F1200.000
G1 X106.370 Y113.965 E0.01662
G1 X106.049 Y113.703 E0.01299
G1 X105.767 Y113.437 E0.01216
G1 X105.466 Y113.115 E0.01383
G1 X105.206 Y112.792 E0.01298
G1 X104.970 Y112.452 E0.01299
G1 X104.757 Y112.097 E0.01299
G1 X104.569 Y111.727 E0.01299
G1 X104.408 Y111.346 E0.01299
G1 X104.273 Y110.954 E0.01299
G1 X104.165 Y110.554 E0.01299
G1 X104.085 Y110.148 E0.01299
G1 X104.034 Y109.736 E0.01299
G1 X104.011 Y109.323 E0.01299
G1 X104.017 Y108.908 E0.01299
G1 X104.052 Y108.496 E0.01299
G1 X104.115 Y108.086 E0.01299
G1 X104.206 Y107.682 E0.01299
G1 X104.325 Y107.285 E0.01299
G1 X104.471 Y106.897 E0.01299
G1 X104.643 Y106.521 E0.01299
G1 X104.829 Y106.180 E0.01216
G1 X105.064 Y105.807 E0.01383
G1 X105.310 Y105.474 E0.01298
G1 X105.579 Y105.159 E0.01299
G1 X105.869 Y104.863 E0.01299
G1 X106.179 Y104.588 E0.01299
G1 X106.507 Y104.335 E0.01299
G1 X106.852 Y104.105 E0.01299
G1 X107.211 Y103.899 E0.01299
G1 X107.584 Y103.719 E0.01299
G1 X107.945 Y103.575 E0.01216
G1 X108.364 Y103.438 E0.01383
G1 X108.766 Y103.339 E0.01298
G1 X109.174 Y103.268 E0.01299
G1 X109.586 Y103.225 E0.01299
G1 X110.000 Y103.211 E0.01299
G1 X110.388 Y103.224 E0.01216
G1 X110.827 Y103.268 E0.01383
G1 X111.234 Y103.339 E0.01298
G1 X111.636 Y103.439 E0.01299
G1 X112.031 Y103.565 E0.01299
G1 X112.416 Y103.719 E0.01299
G1 X112.789 Y103.899 E0.01299
G1 X113.148 Y104.105 E0.01299
G1 X113.493 Y104.335 E0.01299
G1 X113.821 Y104.588 E0.01299
G1 X114.131 Y104.863 E0.01299
G1 X114.421 Y105.159 E0.01299
G1 X114.690 Y105.474 E0.01299
G1 X114.936 Y105.807 E0.01299
G1 X115.159 Y106.157 E0.01299
G1 X115.344 Y106.497 E0.01216
G1 X115.529 Y106.898 E0.01383
G1 X115.675 Y107.285 E0.01298
G1 X115.794 Y107.682 E0.01299
G1 X115.885 Y108.086 E0.01299
G1 X115.948 Y108.496 E0.01299
G1 X115.983 Y108.908 E0.01299
G1 X115.989 Y109.323 E0.01299
G1 X115.966 Y109.736 E0.01299
G1 X115.915 Y110.148 E0.01299
G1 X115.835 Y110.554 E0.01299
G1 X115.727 Y110.954 E0.01299
G1 X115.592 Y111.346 E0.01299
G1 X115.431 Y111.727 E0.01299
G1 X115.255 Y112.073 E0.01216
G1 X115.030 Y112.453 E0.01383
G1 X114.794 Y112.792 E0.01298
G1 X114.534 Y113.115 E0.01299
G1 X114.252 Y113.419 E0.01299
G1 X113.951 Y113.703 E0.01299
G1 X113.630 Y113.965 E0.01299
G1 X113.197 Y114.272 E0.01662
G1 X113.197 Y116.771 E0.07836
G1 X106.803 Y116.771 E0.20050
G1 X106.803 Y114.332 E0.07648
G1 X106.807 Y113.872 F9000.000
G1 X107.670 Y115.124
G1 F1200.000
G1 X108.279 Y115.734 E0.02760
G1 X108.824 Y115.734 E0.01744
G1 X107.840 Y114.750 E0.04458
G1 X107.840 Y114.205 E0.01744
G1 X109.369 Y115.734 E0.06925
G1 X109.913 Y115.734 E0.01744
G1 X109.333 Y115.154 E0.02626
G1 X109.427 Y115.190 E0.00323
G1 X109.807 Y115.261 E0.01236
G1 X109.985 Y115.261 E0.00572
G1 X110.458 Y115.734 E0.02140
G1 X111.003 Y115.734 E0.01744
G1 X110.477 Y115.208 E0.02381
G1 X110.573 Y115.190 E0.00311
G1 X110.883 Y115.070 E0.01067
G1 X111.547 Y115.734 E0.03007
G1 X112.092 Y115.734 E0.01744
G1 X111.227 Y114.869 E0.03918
G1 X111.517 Y114.614 E0.01236
G1 X112.160 Y115.258 E0.02914
