; generated by PrusaSlicer 2.2.0+win64 on 2021-05-12 at 07:12:39 UTC

; 

; external perimeters extrusion width = 0.45mm
; perimeters extrusion width = 0.45mm
; infill extrusion width = 0.45mm
; solid infill extrusion width = 0.45mm
; top infill extrusion width = 0.40mm
; first layer extrusion width = 0.42mm

M201 X500 Y500 Z100 E5000 ; sets maximum accelerations, mm/sec^2
M203 X500 Y500 Z10 E60 ; sets maximum feedrates, mm/sec
M204 P500 R1000 T500 ; sets acceleration (P, T) and retract acceleration (R), mm/sec^2
M205 X8.00 Y8.00 Z0.40 E5.00 ; sets the jerk limits, mm/sec
M205 S0 T0 ; sets the minimum extruding and travel feed rate, mm/sec
M107
G90 ; use absolute coordinates
M83 ; extruder relative mode
M104 S200 ; set extruder temp
M140 S60 ; set bed temp
M190 S60 ; wait for bed temp
M109 S200 ; wait for extruder temp
G28 ; home all
G1 Z2 F240
G1 X2 Y10 F3000
G1 Z0.28 F240
G92 E0.0
G1 Y190 E15.0 F1500.0 ; intro line
G1 X2.3 F5000
G1 Y10 E30 F1200.0 ; intro line
G92 E0.0
G21 ; set units to millimeters
G90 ; use absolute coordinates
M83 ; use relative distances for extrusion
; Filament gcode
;BEFORE_LAYER_CHANGE
;0.2


G1 E-5.00000 F3600.00000
G1 Z0.200 F9000.000
;AFTER_LAYER_CHANGE
;0.2
G1 X106.724 Y101.107
G1 E5.00000 F2400.00000
G1 F948
G1 X107.434 Y100.656 E0.02637
G1 X108.243 Y100.409 E0.02651
G1 X111.261 Y100.369 E0.09465
G1 X111.891 Y100.434 E0.01984
G1 X112.494 Y100.624 E0.01984
G1 X113.047 Y100.931 E0.01984
G1 X113.527 Y101.344 E0.01984
G1 X117.685 Y107.132 E0.22347
G1 X117.978 Y107.775 E0.02216
G1 X118.119 Y108.468 E0.02216
G1 X118.094 Y111.740 E0.10260
G1 X117.913 Y112.405 E0.02161
G1 X117.591 Y113.015 E0.02161
G1 X113.777 Y118.358 E0.20585
G1 X113.212 Y118.946 E0.02556
G1 X112.482 Y119.381 E0.02665
G1 X111.662 Y119.605 E0.02665
G1 X108.260 Y119.594 E0.10667
G1 X107.239 Y119.246 E0.03382
G1 X106.393 Y118.569 E0.03396
G1 X102.269 Y112.788 E0.22266
G1 X102.005 Y112.170 E0.02107
G1 X101.879 Y111.506 E0.02120
G1 X101.906 Y108.260 E0.10178
G1 X102.085 Y107.599 E0.02148
G1 X102.404 Y106.992 E0.02148
G1 X106.218 Y101.649 E0.20585
G1 X106.683 Y101.151 E0.02137
G1 X107.607 Y100.991 F9000.000
G1 F948
G1 X108.332 Y100.777 E0.02371
G1 X111.261 Y100.746 E0.09184
G1 X111.823 Y100.805 E0.01771
G1 X112.361 Y100.977 E0.01771
G1 X112.852 Y101.255 E0.01771
G1 X113.276 Y101.628 E0.01771
G1 X117.371 Y107.342 E0.22043
G1 X117.626 Y107.914 E0.01963
G1 X117.745 Y108.524 E0.01950
G1 X117.719 Y111.694 E0.09938
G1 X117.558 Y112.277 E0.01899
G1 X117.276 Y112.808 E0.01886
G1 X113.474 Y118.133 E0.20514
G1 X112.975 Y118.652 E0.02256
G1 X112.325 Y119.038 E0.02371
G1 X111.591 Y119.234 E0.02383
G1 X108.306 Y119.219 E0.10298
G1 X107.401 Y118.905 E0.03006
G1 X106.658 Y118.299 E0.03006
G1 X102.588 Y112.587 E0.21992
G1 X102.359 Y112.039 E0.01860
G1 X102.253 Y111.455 E0.01860
G1 X102.281 Y108.306 E0.09874
G1 X102.439 Y107.730 E0.01873
G1 X102.720 Y107.198 E0.01886
G1 X106.521 Y101.873 E0.20514
G1 X106.971 Y101.392 E0.02065
G1 X107.556 Y101.023 E0.02170
G1 X107.755 Y101.342 F9000.000
G1 F948
G1 X108.419 Y101.145 E0.02170
G1 X111.261 Y101.123 E0.08909
G1 X111.752 Y101.175 E0.01550
G1 X112.226 Y101.329 E0.01562
G1 X112.654 Y101.577 E0.01550
G1 X113.021 Y101.907 E0.01550
G1 X117.058 Y107.554 E0.21765
G1 X117.272 Y108.046 E0.01680
G1 X117.371 Y108.576 E0.01692
G1 X117.346 Y111.640 E0.09606
G1 X117.206 Y112.141 E0.01633
G1 X116.961 Y112.601 E0.01633
G1 X113.173 Y117.906 E0.20438
G1 X112.742 Y118.356 E0.01953
G1 X112.167 Y118.696 E0.02095
G1 X111.520 Y118.862 E0.02095
G1 X108.360 Y118.846 E0.09908
G1 X107.570 Y118.568 E0.02626
G1 X106.926 Y118.033 E0.02626
G1 X102.912 Y112.393 E0.21706
G1 X102.717 Y111.918 E0.01609
G1 X102.628 Y111.409 E0.01621
G1 X102.654 Y108.360 E0.09559
G1 X102.792 Y107.862 E0.01621
G1 X103.037 Y107.402 E0.01633
G1 X106.824 Y102.097 E0.20438
G1 X107.213 Y101.681 E0.01787
G1 X107.705 Y101.373 E0.01817
G1 E-3.50000 F3600.00000
G1 F7200.000
G1 X108.419 Y101.145 E-0.35636
G1 X110.669 Y101.128 E-1.06864
G1 E-0.07500 F3600.00000
G1 X109.999 Y109.044 F9000.000
G1 E5.00000 F2400.00000
G1 F948
G1 X110.029 Y109.222 E0.00565
G1 X110.295 Y109.663 E0.01614
G1 X110.717 Y109.949 E0.01600
G1 X110.971 Y110.001 E0.00813
G1 X110.763 Y110.042 E0.00665
G1 X110.315 Y110.326 E0.01663
G1 X110.042 Y110.765 E0.01622
G1 X110.006 Y110.948 E0.00585
G1 X109.836 Y110.499 E0.01506
G1 X109.384 Y110.084 E0.01924
G1 X109.017 Y109.998 E0.01182
G1 X109.363 Y109.909 E0.01122
G1 X109.771 Y109.571 E0.01661
G1 X109.981 Y109.156 E0.01457
G1 X109.990 Y109.104 E0.00167
G1 X109.187 Y109.565 F9000.000
G1 F948
G1 X109.470 Y109.330 E0.01152
G1 X109.618 Y109.038 E0.01028
G1 X109.659 Y108.790 E0.00786
G1 X109.663 Y104.087 E0.14747
G1 X110.337 Y104.087 E0.02115
G1 X110.340 Y108.793 E0.14755
G1 X110.389 Y109.089 E0.00942
G1 X110.575 Y109.397 E0.01128
G1 X110.866 Y109.595 E0.01103
G1 X111.186 Y109.660 E0.01022
G1 X114.413 Y109.663 E0.10118
G1 X114.413 Y110.337 E0.02115
G1 X111.189 Y110.342 E0.10107
G1 X110.906 Y110.398 E0.00907
G1 X110.590 Y110.598 E0.01172
G1 X110.399 Y110.905 E0.01133
G1 X110.341 Y111.201 E0.00944
G1 X110.337 Y115.913 E0.14775
G1 X109.663 Y115.913 E0.02113
G1 X109.660 Y111.218 E0.14719
G1 X109.633 Y111.002 E0.00685
G1 X109.519 Y110.719 E0.00956
G1 X109.202 Y110.429 E0.01346
G1 X108.822 Y110.340 E0.01224
G1 X105.587 Y110.337 E0.10144
G1 X105.587 Y109.663 E0.02115
G1 X108.828 Y109.658 E0.10161
G1 X109.129 Y109.580 E0.00976
G1 X109.169 Y109.090 F9000.000
G1 F948
G1 X109.256 Y108.920 E0.00598
G1 X109.282 Y108.760 E0.00508
G1 X109.286 Y103.710 E0.15834
G1 X110.714 Y103.710 E0.04477
G1 X110.717 Y108.762 E0.15840
G1 X110.749 Y108.956 E0.00618
G1 X110.855 Y109.132 E0.00642
G1 X111.015 Y109.240 E0.00607
G1 X111.224 Y109.283 E0.00668
G1 X114.790 Y109.286 E0.11181
G1 X114.790 Y110.714 E0.04477
G1 X111.227 Y110.719 E0.11173
G1 X111.048 Y110.754 E0.00571
G1 X110.864 Y110.871 E0.00682
G1 X110.756 Y111.045 E0.00644
G1 X110.718 Y111.237 E0.00613
G1 X110.714 Y116.290 E0.15844
G1 X109.286 Y116.290 E0.04476
G1 X109.283 Y111.242 E0.15827
G1 X109.265 Y111.097 E0.00458
G1 X109.201 Y110.939 E0.00535
G1 X109.021 Y110.773 E0.00768
G1 X108.779 Y110.717 E0.00778
G1 X105.210 Y110.714 E0.11190
G1 X105.210 Y109.286 E0.04477
G1 X108.780 Y109.281 E0.11192
G1 X109.011 Y109.221 E0.00751
G1 X109.123 Y109.128 E0.00455
G1 X109.358 Y109.121 F9000.000
G1 X109.999 Y108.856
G1 F948
G1 X110.000 Y104.276 E0.11585
G1 E-3.50000 F3600.00000
G1 F7200.000
G1 X110.000 Y107.276 E-1.42500
G1 E-0.07500 F3600.00000
G1 X105.776 Y110.000 F9000.000
G1 E5.00000 F2400.00000
G1 F948
G1 X108.829 Y109.999 E0.07741
G1 E-3.50000 F3600.00000
G1 F7200.000
G1 X105.829 Y110.000 E-1.42500
G1 E-0.07500 F3600.00000
G1 X114.224 Y110.000 F9000.000
G1 E5.00000 F2400.00000
G1 F948
G1 X111.160 Y110.001 E0.07771
G1 X110.001 Y111.136 F9000.000
G1 F948
G1 X110.000 Y115.724 E0.11603
M106 S255
;BEFORE_LAYER_CHANGE
;0.32


G1 E-3.50000 F3600.00000
G1 F7200.000
G1 X110.000 Y112.724 E-1.42500
G1 E-0.07500 F3600.00000
G1 Z0.320 F9000.000
;AFTER_LAYER_CHANGE
;0.32
G1 X107.239 Y119.246
G1 E5.00000 F2400.00000
G1 F922
G1 X106.393 Y118.569 E0.02130
G1 X102.269 Y112.788 E0.13968
G1 X102.005 Y112.170 E0.01322
G1 X101.879 Y111.506 E0.01330
G1 X101.906 Y108.260 E0.06385
G1 X102.085 Y107.599 E0.01347
G1 X102.404 Y106.992 E0.01347
G1 X106.218 Y101.649 E0.12913
G1 X106.724 Y101.107 E0.01458
G1 X107.434 Y100.656 E0.01655
G1 X108.243 Y100.409 E0.01663
G1 X111.261 Y100.369 E0.05937
G1 X111.891 Y100.434 E0.01245
G1 X112.494 Y100.624 E0.01245
G1 X113.047 Y100.931 E0.01245
G1 X113.527 Y101.344 E0.01245
G1 X117.685 Y107.132 E0.14018
G1 X117.978 Y107.775 E0.01390
G1 X118.119 Y108.468 E0.01390
G1 X118.094 Y111.740 E0.06436
G1 X117.913 Y112.405 E0.01356
G1 X117.591 Y113.015 E0.01356
G1 X113.777 Y118.358 E0.12913
G1 X113.212 Y118.946 E0.01603
G1 X112.482 Y119.381 E0.01672
G1 X111.662 Y119.605 E0.01672
G1 X108.260 Y119.594 E0.06692
G1 X107.296 Y119.265 E0.02004
G1 X107.419 Y118.911 F9000.000
G1 F922
G1 X106.658 Y118.299 E0.01920
G1 X102.588 Y112.587 E0.13796
G1 X102.359 Y112.039 E0.01167
G1 X102.253 Y111.455 E0.01167
G1 X102.281 Y108.306 E0.06194
G1 X102.439 Y107.730 E0.01175
G1 X102.720 Y107.198 E0.01183
G1 X106.521 Y101.873 E0.12869
G1 X106.971 Y101.392 E0.01295
G1 X107.607 Y100.991 E0.01479
G1 X108.332 Y100.777 E0.01487
G1 X111.261 Y100.746 E0.05761
G1 X111.823 Y100.805 E0.01111
G1 X112.361 Y100.977 E0.01111
G1 X112.852 Y101.255 E0.01111
G1 X113.276 Y101.628 E0.01111
G1 X117.371 Y107.342 E0.13828
G1 X117.626 Y107.914 E0.01231
G1 X117.745 Y108.524 E0.01223
G1 X117.719 Y111.694 E0.06234
G1 X117.558 Y112.277 E0.01191
G1 X117.276 Y112.808 E0.01183
G1 X113.474 Y118.133 E0.12869
G1 X112.975 Y118.652 E0.01415
G1 X112.325 Y119.038 E0.01487
G1 X111.591 Y119.234 E0.01495
G1 X108.306 Y119.219 E0.06460
G1 X107.475 Y118.931 E0.01731
G1 X107.570 Y118.568 F9000.000
G1 F922
G1 X106.926 Y118.033 E0.01647
G1 X102.912 Y112.393 E0.13616
G1 X102.717 Y111.918 E0.01009
G1 X102.628 Y111.409 E0.01017
G1 X102.654 Y108.360 E0.05996
G1 X102.792 Y107.862 E0.01017
G1 X103.037 Y107.402 E0.01024
G1 X106.824 Y102.097 E0.12821
G1 X107.213 Y101.681 E0.01121
G1 X107.777 Y101.328 E0.01307
G1 X108.419 Y101.145 E0.01314
G1 X111.261 Y101.123 E0.05589
G1 X111.752 Y101.175 E0.00972
G1 X112.226 Y101.329 E0.00980
G1 X112.654 Y101.577 E0.00972
G1 X113.021 Y101.907 E0.00972
G1 X117.058 Y107.554 E0.13654
G1 X117.272 Y108.046 E0.01054
G1 X117.371 Y108.576 E0.01062
G1 X117.346 Y111.640 E0.06026
G1 X117.206 Y112.141 E0.01024
G1 X116.961 Y112.601 E0.01024
G1 X113.173 Y117.906 E0.12821
G1 X112.742 Y118.356 E0.01225
G1 X112.167 Y118.696 E0.01314
G1 X111.520 Y118.862 E0.01314
G1 X108.360 Y118.846 E0.06216
G1 X107.627 Y118.588 E0.01529
G1 E-3.50000 F3600.00000
G1 F7200.000
G1 X106.926 Y118.033 E-0.42461
G1 X105.705 Y116.317 E-1.00039
G1 E-0.07500 F3600.00000
G1 X109.817 Y115.427 F9000.000
G1 E5.00000 F2400.00000
G1 F922
G1 X109.816 Y111.720 E0.07846
G1 X109.792 Y111.406 E0.00665
G1 X109.668 Y111.007 E0.00885
G1 X109.410 Y110.634 E0.00960
G1 X109.070 Y110.374 E0.00905
G1 X108.694 Y110.230 E0.00851
G1 X108.384 Y110.186 E0.00664
G1 X106.073 Y110.184 E0.04889
G1 X106.073 Y109.816 E0.00779
G1 X108.407 Y109.815 E0.04939
G1 X108.836 Y109.735 E0.00923
G1 X109.318 Y109.472 E0.01164
G1 X109.701 Y108.953 E0.01365
G1 X109.816 Y108.407 E0.01182
G1 X109.817 Y104.573 E0.08113
G1 X110.184 Y104.573 E0.00778
G1 X110.184 Y108.280 E0.07846
G1 X110.208 Y108.594 E0.00665
G1 X110.332 Y108.993 E0.00885
G1 X110.590 Y109.366 E0.00960
G1 X110.930 Y109.626 E0.00905
G1 X111.306 Y109.770 E0.00851
G1 X111.616 Y109.814 E0.00664
G1 X113.927 Y109.816 E0.04889
G1 X113.927 Y110.184 E0.00779
G1 X111.593 Y110.185 E0.04939
G1 X111.164 Y110.265 E0.00923
G1 X110.682 Y110.528 E0.01164
G1 X110.299 Y111.047 E0.01365
G1 X110.184 Y111.593 E0.01182
G1 X110.183 Y115.427 E0.08113
G1 X109.877 Y115.427 E0.00650
G1 X109.392 Y115.851 F9000.000
G1 F922
G1 X109.392 Y111.736 E0.08710
G1 X109.373 Y111.487 E0.00529
G1 X109.282 Y111.195 E0.00646
G1 X109.099 Y110.930 E0.00681
G1 X108.861 Y110.749 E0.00634
G1 X108.587 Y110.643 E0.00620
G1 X108.353 Y110.610 E0.00499
G1 X105.649 Y110.608 E0.05724
G1 X105.649 Y109.392 E0.02573
G1 X108.368 Y109.390 E0.05754
G1 X108.692 Y109.330 E0.00698
G1 X109.033 Y109.145 E0.00821
G1 X109.305 Y108.776 E0.00970
G1 X109.391 Y108.363 E0.00893
G1 X109.392 Y104.149 E0.08918
G1 X110.608 Y104.149 E0.02573
G1 X110.608 Y108.264 E0.08710
G1 X110.627 Y108.513 E0.00529
G1 X110.718 Y108.805 E0.00646
G1 X110.901 Y109.070 E0.00681
G1 X111.139 Y109.251 E0.00634
G1 X111.413 Y109.357 E0.00620
G1 X111.647 Y109.390 E0.00499
G1 X114.351 Y109.392 E0.05724
G1 X114.351 Y110.608 E0.02573
G1 X111.632 Y110.610 E0.05754
G1 X111.308 Y110.670 E0.00698
G1 X110.967 Y110.855 E0.00821
G1 X110.695 Y111.224 E0.00970
G1 X110.609 Y111.637 E0.00893
G1 X110.608 Y115.851 E0.08918
G1 X109.452 Y115.851 E0.02445
G1 X109.452 Y116.275 F9000.000
G1 F922
G1 X108.968 Y116.275 E0.01025
G1 X108.967 Y111.752 E0.09573
G1 X108.953 Y111.567 E0.00393
G1 X108.896 Y111.383 E0.00408
G1 X108.788 Y111.227 E0.00402
G1 X108.651 Y111.123 E0.00364
G1 X108.480 Y111.057 E0.00390
G1 X108.323 Y111.034 E0.00334
G1 X105.225 Y111.032 E0.06558
G1 X105.225 Y108.968 E0.04368
G1 X108.329 Y108.966 E0.06569
G1 X108.548 Y108.925 E0.00473
G1 X108.747 Y108.817 E0.00479
G1 X108.908 Y108.598 E0.00575
G1 X108.967 Y108.319 E0.00605
G1 X108.968 Y103.725 E0.09723
G1 X111.032 Y103.725 E0.04368
G1 X111.033 Y108.248 E0.09573
G1 X111.047 Y108.433 E0.00393
G1 X111.104 Y108.617 E0.00408
G1 X111.212 Y108.773 E0.00402
G1 X111.349 Y108.877 E0.00364
G1 X111.520 Y108.943 E0.00390
G1 X111.677 Y108.966 E0.00334
G1 X114.775 Y108.968 E0.06558
G1 X114.775 Y111.032 E0.04368
G1 X111.671 Y111.034 E0.06569
G1 X111.452 Y111.075 E0.00473
G1 X111.253 Y111.183 E0.00479
G1 X111.092 Y111.402 E0.00575
G1 X111.033 Y111.681 E0.00605
G1 X111.032 Y116.275 E0.09723
G1 X109.512 Y116.275 E0.03216
G1 X109.130 Y116.038 F9000.000
G1 E-3.50000 F3600.00000
G1 F7200.000
G1 X108.968 Y116.275 E-0.25848
G1 X108.968 Y113.819 E-1.16652
G1 E-0.07500 F3600.00000
G1 X109.964 Y111.125 F9000.000
G1 E5.00000 F2400.00000
G1 F922
G1 X109.927 Y111.050 E0.00030
G1 X109.964 Y111.125 F9000.000
G1 F922
G1 X109.999 Y111.162 E0.00030
G1 X110.078 Y111.058 E0.00076
G1 X109.640 Y110.744 F9000.000
G1 F922
G1 X110.606 Y109.778 E0.03468
G1 X110.357 Y109.588 E0.00794
G1 X110.242 Y109.422 E0.00514
G1 X109.285 Y110.379 E0.03437
G1 X109.922 Y108.942 F9000.000
G1 F922
G1 X110.001 Y108.838 E0.00047
G1 X110.073 Y108.950 E0.00047
;BEFORE_LAYER_CHANGE
;0.44


G1 E-3.50000 F3600.00000
G1 F7200.000
G1 X110.001 Y108.838 E-0.06342
G1 X109.922 Y108.942 E-0.06239
G1 E-1.37419 F3600.00000
G1 Z0.440 F9000.000
;AFTER_LAYER_CHANGE
;0.44
G1 X106.073 Y109.630
G1 E5.00000 F2400.00000
G1 F900
G1 X108.135 Y109.628 E0.04363
G1 X108.456 Y109.580 E0.00687
G1 X108.798 Y109.452 E0.00773
G1 X109.095 Y109.254 E0.00756
G1 X109.385 Y108.926 E0.00929
G1 X109.575 Y108.493 E0.01000
G1 X109.629 Y108.107 E0.00825
G1 X109.630 Y104.573 E0.07478
G1 X110.370 Y104.573 E0.01566
G1 X110.372 Y108.164 E0.07599
G1 X110.505 Y108.737 E0.01245
G1 X110.796 Y109.157 E0.01082
G1 X111.143 Y109.424 E0.00927
G1 X111.535 Y109.577 E0.00891
G1 X111.863 Y109.627 E0.00702
G1 X113.927 Y109.630 E0.04367
G1 X113.927 Y110.370 E0.01567
G1 X111.860 Y110.372 E0.04373
G1 X111.389 Y110.458 E0.01015
G1 X110.955 Y110.702 E0.01052
G1 X110.689 Y110.976 E0.00809
G1 X110.471 Y111.357 E0.00928
G1 X110.372 Y111.852 E0.01069
G1 X110.370 Y115.427 E0.07565
G1 X109.630 Y115.427 E0.01565
G1 X109.628 Y111.836 E0.07599
G1 X109.495 Y111.263 E0.01245
G1 X109.204 Y110.843 E0.01082
G1 X108.857 Y110.576 E0.00927
G1 X108.465 Y110.423 E0.00891
G1 X108.137 Y110.373 E0.00702
G1 X106.073 Y110.370 E0.04367
G1 X106.073 Y109.690 E0.01441
G1 X105.649 Y109.206 F9000.000
G1 F900
G1 X108.103 Y109.203 E0.05194
G1 X108.349 Y109.167 E0.00526
G1 X108.603 Y109.072 E0.00574
G1 X108.814 Y108.932 E0.00535
G1 X109.023 Y108.695 E0.00670
G1 X109.162 Y108.376 E0.00736
G1 X109.204 Y108.077 E0.00639
G1 X109.206 Y104.149 E0.08313
G1 X110.794 Y104.149 E0.03361
G1 X110.796 Y108.115 E0.08394
G1 X110.900 Y108.562 E0.00971
G1 X111.107 Y108.861 E0.00771
G1 X111.354 Y109.051 E0.00659
G1 X111.646 Y109.165 E0.00663
G1 X111.896 Y109.203 E0.00535
G1 X114.351 Y109.206 E0.05197
G1 X114.351 Y110.794 E0.03361
G1 X111.899 Y110.796 E0.05189
G1 X111.535 Y110.863 E0.00784
G1 X111.217 Y111.042 E0.00772
G1 X111.031 Y111.233 E0.00565
G1 X110.874 Y111.508 E0.00670
G1 X110.796 Y111.895 E0.00835
G1 X110.794 Y115.851 E0.08373
G1 X109.206 Y115.851 E0.03360
G1 X109.204 Y111.885 E0.08394
G1 X109.100 Y111.438 E0.00971
G1 X108.893 Y111.139 E0.00771
G1 X108.646 Y110.949 E0.00659
G1 X108.354 Y110.835 E0.00663
G1 X108.104 Y110.797 E0.00535
G1 X105.649 Y110.794 E0.05197
G1 X105.649 Y109.266 E0.03234
G1 X105.225 Y109.266 F9000.000
G1 F900
G1 X105.225 Y108.782 E0.01024
G1 X108.072 Y108.779 E0.06025
G1 X108.242 Y108.754 E0.00365
G1 X108.409 Y108.692 E0.00376
G1 X108.532 Y108.610 E0.00314
G1 X108.661 Y108.464 E0.00412
G1 X108.750 Y108.259 E0.00472
G1 X108.780 Y108.047 E0.00453
G1 X108.782 Y103.725 E0.09148
