; generated by PrusaSlicer 2.2.0+win64 on 2021-05-08 at 21:06:40 UTC

; 

; external perimeters extrusion width = 0.45mm
; perimeters extrusion width = 0.45mm
; infill extrusion width = 0.45mm
; solid infill extrusion width = 0.45mm
; top infill extrusion width = 0.40mm
; first layer extrusion width = 0.42mm

M201 X500 Y500 Z100 E5000 ; sets maximum accelerations, mm/sec^2
M203 X500 Y500 Z10 E60 ; sets maximum feedrates, mm/sec
M204 P500 R1000 T500 ; sets acceleration (P, T) and retract acceleration (R), mm/sec^2
M205 X8.00 Y8.00 Z0.40 E5.00 ; sets the jerk limits, mm/sec
M205 S0 T0 ; sets the minimum extruding and travel feed rate, mm/sec
M107
G90 ; use absolute coordinates
M83 ; extruder relative mode
M104 S200 ; set extruder temp
M140 S60 ; set bed temp
M190 S60 ; wait for bed temp
M109 S200 ; wait for extruder temp
G28 ; home all
G1 Z2 F240
G1 X2 Y10 F3000
G1 Z0.28 F240
G92 E0.0
G1 Y190 E15.0 F1500.0 ; intro line
G1 X2.3 F5000
G1 Y10 E30 F1200.0 ; intro line
G92 E0.0
G21 ; set units to millimeters
G90 ; use absolute coordinates
M83 ; use relative distances for extrusion
; Filament gcode
;BEFORE_LAYER_CHANGE
;0.2


G1 E-5.00000 F3600.00000
G1 Z0.200 F9000.000
;AFTER_LAYER_CHANGE
;0.2
G1 X119.606 Y116.939
G1 E5.00000 F2400.00000
G1 F1200.000
G1 X118.617 Y117.129 E0.03157
G1 X101.392 Y117.129 E0.54008
G1 X100.798 Y117.063 E0.01873
G1 X100.222 Y116.864 E0.01912
G1 X99.706 Y116.547 E0.01899
G1 X96.771 Y113.919 E0.12353
G1 X95.718 Y112.651 E0.05168
G1 X95.106 Y111.454 E0.04215
G1 X94.760 Y110.239 E0.03959
G1 X94.646 Y108.978 E0.03972
G1 X94.767 Y107.729 E0.03934
G1 X95.149 Y106.449 E0.04189
G1 X95.938 Y105.032 E0.05085
G1 X96.772 Y104.084 E0.03958
G1 X97.823 Y103.273 E0.04164
G1 X98.949 Y102.709 E0.03946
G1 X100.143 Y102.366 E0.03895
G1 X101.334 Y102.249 E0.03754
G1 X118.604 Y102.248 E0.54148
G1 X119.841 Y102.363 E0.03895
G1 X121.044 Y102.706 E0.03921
G1 X122.159 Y103.262 E0.03908
G1 X123.162 Y104.022 E0.03946
G1 X123.995 Y104.938 E0.03882
G1 X124.653 Y106.006 E0.03934
G1 X125.101 Y107.170 E0.03908
G1 X125.331 Y108.444 E0.04061
G1 X125.326 Y109.621 E0.03690
G1 X125.120 Y110.763 E0.03639
G1 X124.698 Y111.901 E0.03805
G1 X124.285 Y112.647 E0.02674
G1 X123.664 Y113.469 E0.03228
G1 X123.156 Y113.988 E0.02277
G1 X120.361 Y116.492 E0.11767
G1 X119.657 Y116.909 E0.02564
G1 X119.432 Y116.602 F9000.000
G1 F1200.000
G1 X118.612 Y116.752 E0.02614
G1 X101.392 Y116.752 E0.53992
G1 X100.886 Y116.696 E0.01597
G1 X100.379 Y116.522 E0.01680
G1 X99.924 Y116.239 E0.01680
G1 X97.030 Y113.644 E0.12188
G1 X96.025 Y112.432 E0.04935
G1 X95.444 Y111.280 E0.04046
G1 X95.127 Y110.151 E0.03678
G1 X95.025 Y108.906 E0.03915
G1 X95.154 Y107.723 E0.03733
G1 X95.649 Y106.249 E0.04876
G1 X96.298 Y105.177 E0.03927
G1 X97.093 Y104.299 E0.03714
G1 X98.043 Y103.580 E0.03737
G1 X99.122 Y103.046 E0.03773
G1 X100.225 Y102.734 E0.03595
G1 X101.347 Y102.626 E0.03535
G1 X118.604 Y102.625 E0.54106
G1 X119.772 Y102.734 E0.03680
G1 X120.908 Y103.057 E0.03702
G1 X121.961 Y103.583 E0.03690
G1 X122.908 Y104.300 E0.03726
G1 X123.694 Y105.166 E0.03666
G1 X124.317 Y106.177 E0.03725
G1 X124.739 Y107.276 E0.03690
G1 X124.956 Y108.494 E0.03880
G1 X124.950 Y109.591 E0.03440
G1 X124.753 Y110.674 E0.03452
G1 X124.352 Y111.752 E0.03606
G1 X123.966 Y112.446 E0.02490
G1 X123.375 Y113.227 E0.03070
G1 X122.901 Y113.710 E0.02121
G1 X120.121 Y116.202 E0.11707
G1 X119.484 Y116.572 E0.02308
G1 E-3.50000 F3600.00000
G1 F7200.000
G1 X118.612 Y116.752 E-0.42292
G1 X116.503 Y116.752 E-1.00208
G1 E-0.07500 F3600.00000
G1 X118.995 Y112.003 F9000.000
G1 E5.00000 F2400.00000
G1 F1200.000
G1 X118.600 Y112.028 E0.01241
G1 X118.205 Y112.003 E0.01241
G1 X117.817 Y111.925 E0.01241
G1 X117.442 Y111.798 E0.01241
G1 X117.087 Y111.623 E0.01241
G1 X116.758 Y111.403 E0.01241
G1 X116.460 Y111.142 E0.01241
G1 X116.199 Y110.844 E0.01241
G1 X115.979 Y110.515 E0.01241
G1 X115.804 Y110.160 E0.01241
G1 X115.677 Y109.785 E0.01241
G1 X115.600 Y109.397 E0.01241
G1 X115.574 Y109.002 E0.01241
G1 X115.600 Y108.607 E0.01241
G1 X115.677 Y108.219 E0.01241
G1 X115.804 Y107.844 E0.01241
G1 X115.979 Y107.489 E0.01241
G1 X116.199 Y107.160 E0.01241
G1 X116.460 Y106.862 E0.01241
G1 X116.758 Y106.601 E0.01241
G1 X117.087 Y106.381 E0.01241
G1 X117.442 Y106.206 E0.01241
G1 X117.833 Y106.074 E0.01295
G1 X118.323 Y105.994 E0.01556
G1 X118.600 Y105.976 E0.00870
G1 X118.995 Y106.002 E0.01241
G1 X119.383 Y106.079 E0.01241
G1 X119.758 Y106.206 E0.01241
G1 X120.113 Y106.381 E0.01241
G1 X120.457 Y106.611 E0.01295
G1 X120.818 Y106.951 E0.01556
G1 X121.001 Y107.160 E0.00870
G1 X121.221 Y107.489 E0.01241
G1 X121.396 Y107.844 E0.01241
G1 X121.523 Y108.219 E0.01241
G1 X121.600 Y108.607 E0.01241
G1 X121.626 Y109.002 E0.01241
G1 X121.600 Y109.397 E0.01241
G1 X121.523 Y109.785 E0.01241
G1 X121.396 Y110.160 E0.01241
G1 X121.221 Y110.515 E0.01241
G1 X121.001 Y110.844 E0.01241
G1 X120.740 Y111.142 E0.01241
G1 X120.442 Y111.403 E0.01241
G1 X120.113 Y111.623 E0.01241
G1 X119.758 Y111.798 E0.01241
G1 X119.383 Y111.925 E0.01241
G1 X119.054 Y111.991 E0.01053
G1 X118.980 Y111.621 F9000.000
G1 F1200.000
G1 X118.600 Y111.651 E0.01196
G1 X118.254 Y111.628 E0.01086
G1 X117.915 Y111.560 E0.01086
G1 X117.587 Y111.449 E0.01086
G1 X117.276 Y111.296 E0.01086
G1 X116.988 Y111.103 E0.01086
G1 X116.727 Y110.875 E0.01086
G1 X116.499 Y110.614 E0.01086
G1 X116.306 Y110.326 E0.01086
G1 X116.153 Y110.016 E0.01086
G1 X116.042 Y109.688 E0.01086
G1 X115.974 Y109.348 E0.01086
G1 X115.952 Y109.002 E0.01086
G1 X115.974 Y108.657 E0.01086
G1 X116.042 Y108.317 E0.01086
G1 X116.153 Y107.989 E0.01086
G1 X116.306 Y107.678 E0.01086
G1 X116.499 Y107.390 E0.01086
G1 X116.727 Y107.130 E0.01086
G1 X116.988 Y106.901 E0.01086
G1 X117.276 Y106.709 E0.01086
G1 X117.587 Y106.555 E0.01086
G1 X117.925 Y106.441 E0.01119
G1 X118.366 Y106.369 E0.01401
G1 X118.600 Y106.354 E0.00736
G1 X118.946 Y106.377 E0.01086
G1 X119.285 Y106.444 E0.01086
G1 X119.613 Y106.555 E0.01086
G1 X119.924 Y106.709 E0.01086
G1 X120.221 Y106.907 E0.01119
G1 X120.546 Y107.213 E0.01401
G1 X120.701 Y107.390 E0.00736
G1 X120.894 Y107.678 E0.01086
G1 X121.047 Y107.989 E0.01086
G1 X121.158 Y108.317 E0.01086
G1 X121.226 Y108.657 E0.01086
G1 X121.248 Y109.002 E0.01086
G1 X121.226 Y109.348 E0.01086
G1 X121.158 Y109.688 E0.01086
G1 X121.047 Y110.016 E0.01086
G1 X120.894 Y110.326 E0.01086
G1 X120.701 Y110.614 E0.01086
G1 X120.473 Y110.875 E0.01086
G1 X120.212 Y111.103 E0.01086
G1 X119.924 Y111.296 E0.01086
G1 X119.613 Y111.449 E0.01086
G1 X119.285 Y111.560 E0.01086
G1 X119.039 Y111.609 E0.00787
G1 X118.966 Y111.239 F9000.000
G1 F1200.000
G1 X118.600 Y111.273 E0.01151
G1 X118.304 Y111.253 E0.00931
G1 X118.012 Y111.195 E0.00931
G1 X117.731 Y111.100 E0.00931
G1 X117.465 Y110.968 E0.00931
G1 X117.218 Y110.803 E0.00931
G1 X116.995 Y110.608 E0.00931
G1 X116.799 Y110.384 E0.00931
G1 X116.634 Y110.137 E0.00931
G1 X116.502 Y109.871 E0.00931
G1 X116.407 Y109.590 E0.00931
G1 X116.349 Y109.299 E0.00931
G1 X116.330 Y109.002 E0.00931
G1 X116.349 Y108.706 E0.00931
G1 X116.407 Y108.415 E0.00931
G1 X116.502 Y108.133 E0.00931
G1 X116.634 Y107.867 E0.00931
G1 X116.799 Y107.620 E0.00931
G1 X116.995 Y107.397 E0.00931
G1 X117.218 Y107.201 E0.00931
G1 X117.465 Y107.036 E0.00931
G1 X117.731 Y106.905 E0.00931
G1 X118.016 Y106.808 E0.00943
G1 X118.600 Y106.732 E0.01847
G1 X118.896 Y106.751 E0.00931
G1 X119.188 Y106.809 E0.00931
G1 X119.469 Y106.905 E0.00931
G1 X119.735 Y107.036 E0.00931
G1 X119.985 Y107.203 E0.00943
G1 X120.401 Y107.620 E0.01847
G1 X120.566 Y107.867 E0.00931
G1 X120.698 Y108.133 E0.00931
G1 X120.793 Y108.415 E0.00931
G1 X120.851 Y108.706 E0.00931
G1 X120.870 Y109.002 E0.00931
G1 X120.851 Y109.299 E0.00931
G1 X120.793 Y109.590 E0.00931
G1 X120.698 Y109.871 E0.00931
G1 X120.566 Y110.137 E0.00931
G1 X120.401 Y110.384 E0.00931
G1 X120.205 Y110.608 E0.00931
G1 X119.982 Y110.803 E0.00931
G1 X119.735 Y110.968 E0.00931
G1 X119.469 Y111.100 E0.00931
G1 X119.188 Y111.195 E0.00931
G1 X119.024 Y111.228 E0.00522
G1 X118.832 Y111.581 F9000.000
G1 X117.636 Y112.082
G1 F1200.000
G1 X117.636 Y113.345 E0.03960
G1 X114.564 Y113.345 E0.09631
G1 X114.564 Y105.966 E0.23134
G1 X118.578 Y105.966 E0.12584
G1 X119.161 Y106.020 E0.01836
G1 X119.431 Y106.083 E0.00868
G1 X119.696 Y106.172 E0.00879
G1 X119.953 Y106.286 E0.00879
G1 X120.198 Y106.422 E0.00879
G1 X120.623 Y106.742 E0.01670
G1 X120.845 Y106.960 E0.00975
G1 X121.022 Y107.173 E0.00868
G1 X121.318 Y107.653 E0.01767
G1 X121.430 Y107.906 E0.00868
G1 X121.577 Y108.418 E0.01670
G1 X121.622 Y108.726 E0.00975
G1 X121.635 Y109.002 E0.00868
G1 X121.622 Y109.282 E0.00879
G1 X121.518 Y109.836 E0.01767
G1 X121.430 Y110.099 E0.00868
G1 X121.317 Y110.355 E0.00879
G1 X121.180 Y110.600 E0.00879
G1 X121.022 Y110.831 E0.00879
G1 X120.843 Y111.047 E0.00879
G1 X120.645 Y111.245 E0.00879
G1 X120.429 Y111.424 E0.00879
G1 X119.950 Y111.720 E0.01767
G1 X119.696 Y111.832 E0.00868
G1 X119.184 Y111.979 E0.01670
G1 X118.877 Y112.024 E0.00975
G1 X117.696 Y112.079 E0.03706
G1 X118.013 Y112.442 F9000.000
G1 F1200.000
G1 X118.013 Y113.722 E0.04013
G1 X114.187 Y113.722 E0.11996
G1 X114.187 Y105.589 E0.25498
G1 X118.586 Y105.589 E0.13794
G1 X118.886 Y105.603 E0.00941
G1 X119.229 Y105.648 E0.01084
G1 X119.534 Y105.720 E0.00982
G1 X119.833 Y105.820 E0.00988
G1 X120.121 Y105.948 E0.00988
G1 X120.396 Y106.101 E0.00988
G1 X120.656 Y106.279 E0.00988
G1 X120.877 Y106.462 E0.00898
G1 X121.123 Y106.705 E0.01084
G1 X121.323 Y106.946 E0.00982
G1 X121.485 Y107.182 E0.00898
G1 X121.655 Y107.483 E0.01084
G1 X121.782 Y107.770 E0.00982
G1 X121.882 Y108.068 E0.00988
G1 X121.948 Y108.347 E0.00898
G1 X121.998 Y108.689 E0.01084
G1 X122.012 Y109.002 E0.00982
G1 X121.998 Y109.317 E0.00988
G1 X121.958 Y109.601 E0.00898
G1 X121.881 Y109.938 E0.01084
G1 X121.782 Y110.235 E0.00982
G1 X121.655 Y110.523 E0.00988
G1 X121.501 Y110.799 E0.00988
G1 X121.323 Y111.059 E0.00988
G1 X121.122 Y111.301 E0.00988
G1 X120.899 Y111.524 E0.00988
G1 X120.656 Y111.725 E0.00988
G1 X120.420 Y111.887 E0.00898
G1 X120.119 Y112.058 E0.01084
G1 X119.833 Y112.184 E0.00982
G1 X119.534 Y112.284 E0.00988
G1 X119.255 Y112.350 E0.00898
G1 X118.913 Y112.400 E0.01084
G1 X118.073 Y112.439 E0.02636
G1 X118.390 Y112.802 F9000.000
G1 F1200.000
G1 X118.390 Y114.099 E0.04067
G1 X113.810 Y114.099 E0.14360
G1 X113.810 Y105.212 E0.27863
G1 X118.595 Y105.212 E0.15003
G1 X118.920 Y105.227 E0.01019
G1 X119.297 Y105.277 E0.01194
G1 X119.637 Y105.357 E0.01095
G1 X119.969 Y105.468 E0.01098
G1 X120.289 Y105.610 E0.01098
G1 X120.595 Y105.780 E0.01098
G1 X120.884 Y105.978 E0.01098
G1 X121.130 Y106.182 E0.01003
G1 X121.401 Y106.450 E0.01194
G1 X121.624 Y106.718 E0.01095
G1 X121.805 Y106.982 E0.01003
G1 X121.993 Y107.314 E0.01194
G1 X122.134 Y107.633 E0.01095
G1 X122.245 Y107.965 E0.01098
G1 X122.318 Y108.277 E0.01003
G1 X122.374 Y108.653 E0.01194
G1 X122.390 Y109.002 E0.01095
G1 X122.374 Y109.352 E0.01098
G1 X122.329 Y109.669 E0.01003
G1 X122.245 Y110.040 E0.01194
G1 X122.134 Y110.371 E0.01095
G1 X121.992 Y110.691 E0.01098
G1 X121.822 Y110.997 E0.01098
G1 X121.624 Y111.286 E0.01098
G1 X121.401 Y111.555 E0.01098
G1 X121.153 Y111.803 E0.01098
G1 X120.884 Y112.027 E0.01098
G1 X120.620 Y112.207 E0.01003
G1 X120.289 Y112.395 E0.01194
G1 X119.969 Y112.536 E0.01095
G1 X119.637 Y112.647 E0.01098
G1 X119.326 Y112.721 E0.01003
G1 X118.949 Y112.776 E0.01194
G1 X118.450 Y112.799 E0.01566
G1 X117.990 Y112.813 F9000.000
G1 E-3.50000 F3600.00000
G1 F7200.000
G1 X118.390 Y114.099 E-0.61806
G1 X116.691 Y114.099 E-0.80694
G1 E-0.07500 F3600.00000
G1 X114.677 Y112.457 F9000.000
G1 E5.00000 F2400.00000
G1 F1200.000
G1 X115.282 Y113.062 E0.02725
G1 X115.824 Y113.062 E0.01725
G1 X114.847 Y112.085 E0.04400
G1 X114.847 Y111.543 E0.01725
G1 X116.366 Y113.062 E0.06839
G1 X116.907 Y113.062 E0.01725
G1 X114.847 Y111.002 E0.09279
G1 X114.847 Y110.460 E0.01725
G1 X117.353 Y112.966 E0.11287
G1 X117.353 Y112.424 E0.01725
G1 X114.847 Y109.918 E0.11287
G1 X114.847 Y109.377 E0.01725
G1 X115.441 Y109.971 E0.02676
G1 X115.319 Y109.434 E0.01753
G1 X115.310 Y109.298 E0.00435
G1 X114.847 Y108.835 E0.02084
G1 X114.847 Y108.293 E0.01725
G1 X115.307 Y108.753 E0.02071
G1 X115.319 Y108.570 E0.00584
G1 X115.376 Y108.281 E0.00939
G1 X114.847 Y107.752 E0.02384
G1 X114.847 Y107.210 E0.01725
G1 X115.499 Y107.862 E0.02938
G1 X115.665 Y107.487 E0.01308
G1 X114.847 Y106.668 E0.03685
G1 X114.847 Y106.250 E0.01332
G1 X114.971 Y106.250 E0.00394
G1 X115.867 Y107.147 E0.04040
G1 X115.974 Y106.987 E0.00612
G1 X116.103 Y106.841 E0.00621
G1 X115.514 Y106.252 E0.02653
G1 X116.057 Y106.254 E0.01730
G1 X116.490 Y106.686 E0.01948
G1 X116.929 Y106.232 F9000.000
G1 F1200.000
G1 X117.036 Y106.174 E0.00061
G1 E-3.50000 F3600.00000
G1 F7200.000
G1 X116.929 Y106.232 E-0.05813
G1 E-1.44187 F3600.00000
G1 X104.400 Y108.607 F9000.000
G1 E5.00000 F2400.00000
G1 F1200.000
G1 X104.426 Y109.002 E0.01241
G1 X104.400 Y109.397 E0.01241
G1 X104.323 Y109.785 E0.01241
G1 X104.196 Y110.160 E0.01241
G1 X104.021 Y110.515 E0.01241
G1 X103.801 Y110.844 E0.01241
G1 X103.540 Y111.142 E0.01241
G1 X103.242 Y111.403 E0.01241
G1 X102.913 Y111.623 E0.01241
G1 X102.558 Y111.798 E0.01241
G1 X102.183 Y111.925 E0.01241
G1 X101.795 Y112.003 E0.01241
G1 X101.400 Y112.028 E0.01241
G1 X101.005 Y112.003 E0.01241
G1 X100.617 Y111.925 E0.01241
G1 X100.242 Y111.798 E0.01241
G1 X99.887 Y111.623 E0.01241
G1 X99.558 Y111.403 E0.01241
G1 X99.260 Y111.142 E0.01241
G1 X98.999 Y110.844 E0.01241
G1 X98.779 Y110.515 E0.01241
G1 X98.604 Y110.160 E0.01241
G1 X98.477 Y109.785 E0.01241
G1 X98.400 Y109.397 E0.01241
G1 X98.374 Y109.002 E0.01241
G1 X98.400 Y108.607 E0.01241
G1 X98.477 Y108.219 E0.01241
G1 X98.604 Y107.844 E0.01241
G1 X98.779 Y107.489 E0.01241
G1 X98.999 Y107.160 E0.01241
G1 X99.260 Y106.862 E0.01241
G1 X99.558 Y106.601 E0.01241
G1 X99.887 Y106.381 E0.01241
G1 X100.242 Y106.206 E0.01241
G1 X100.633 Y106.074 E0.01295
G1 X101.123 Y105.994 E0.01556
G1 X101.400 Y105.976 E0.00870
G1 X101.795 Y106.002 E0.01241
G1 X102.183 Y106.079 E0.01241
G1 X102.558 Y106.206 E0.01241
G1 X102.913 Y106.381 E0.01241
G1 X103.257 Y106.611 E0.01295
G1 X103.618 Y106.951 E0.01556
G1 X103.801 Y107.160 E0.00870
G1 X104.021 Y107.489 E0.01241
G1 X104.196 Y107.844 E0.01241
G1 X104.323 Y108.219 E0.01241
G1 X104.389 Y108.548 E0.01053
G1 X104.019 Y108.622 F9000.000
G1 F1200.000
G1 X104.048 Y109.002 E0.01196
G1 X104.026 Y109.348 E0.01086
G1 X103.958 Y109.688 E0.01086
G1 X103.847 Y110.016 E0.01086
G1 X103.694 Y110.326 E0.01086
G1 X103.501 Y110.614 E0.01086
G1 X103.273 Y110.875 E0.01086
G1 X103.012 Y111.103 E0.01086
G1 X102.724 Y111.296 E0.01086
G1 X102.413 Y111.449 E0.01086
G1 X102.085 Y111.560 E0.01086
G1 X101.746 Y111.628 E0.01086
G1 X101.400 Y111.651 E0.01086
G1 X101.054 Y111.628 E0.01086
G1 X100.715 Y111.560 E0.01086
G1 X100.387 Y111.449 E0.01086
G1 X100.076 Y111.296 E0.01086
G1 X99.788 Y111.103 E0.01086
G1 X99.527 Y110.875 E0.01086
G1 X99.299 Y110.614 E0.01086
G1 X99.106 Y110.326 E0.01086
G1 X98.953 Y110.016 E0.01086
G1 X98.842 Y109.688 E0.01086
G1 X98.774 Y109.348 E0.01086
G1 X98.752 Y109.002 E0.01086
G1 X98.774 Y108.657 E0.01086
G1 X98.842 Y108.317 E0.01086
G1 X98.953 Y107.989 E0.01086
G1 X99.106 Y107.678 E0.01086
G1 X99.299 Y107.390 E0.01086
G1 X99.527 Y107.130 E0.01086
G1 X99.788 Y106.901 E0.01086
G1 X100.076 Y106.709 E0.01086
G1 X100.387 Y106.555 E0.01086
G1 X100.725 Y106.441 E0.01119
G1 X101.166 Y106.369 E0.01401
G1 X101.400 Y106.354 E0.00736
G1 X101.746 Y106.377 E0.01086
G1 X102.085 Y106.444 E0.01086
G1 X102.413 Y106.555 E0.01086
G1 X102.724 Y106.709 E0.01086
G1 X103.021 Y106.907 E0.01119
G1 X103.346 Y107.213 E0.01401
G1 X103.501 Y107.390 E0.00736
G1 X103.694 Y107.678 E0.01086
G1 X103.847 Y107.989 E0.01086
G1 X103.958 Y108.317 E0.01086
G1 X104.007 Y108.563 E0.00787
G1 X103.637 Y108.637 F9000.000
G1 F1200.000
G1 X103.670 Y109.002 E0.01151
G1 X103.651 Y109.299 E0.00931
G1 X103.593 Y109.590 E0.00931
G1 X103.498 Y109.871 E0.00931
G1 X103.366 Y110.137 E0.00931
G1 X103.201 Y110.384 E0.00931
G1 X103.005 Y110.608 E0.00931
G1 X102.782 Y110.803 E0.00931
G1 X102.535 Y110.968 E0.00931
G1 X102.269 Y111.100 E0.00931
