; generated by PrusaSlicer 2.2.0+win64 on 2021-05-12 at 07:07:40 UTC

; 

; external perimeters extrusion width = 0.45mm
; perimeters extrusion width = 0.45mm
; infill extrusion width = 0.45mm
; solid infill extrusion width = 0.45mm
; top infill extrusion width = 0.40mm
; first layer extrusion width = 0.42mm

M201 X500 Y500 Z100 E5000 ; sets maximum accelerations, mm/sec^2
M203 X500 Y500 Z10 E60 ; sets maximum feedrates, mm/sec
M204 P500 R1000 T500 ; sets acceleration (P, T) and retract acceleration (R), mm/sec^2
M205 X8.00 Y8.00 Z0.40 E5.00 ; sets the jerk limits, mm/sec
M205 S0 T0 ; sets the minimum extruding and travel feed rate, mm/sec
M107
G90 ; use absolute coordinates
M83 ; extruder relative mode
M104 S200 ; set extruder temp
M140 S60 ; set bed temp
M190 S60 ; wait for bed temp
M109 S200 ; wait for extruder temp
G28 ; home all
G1 Z2 F240
G1 X2 Y10 F3000
G1 Z0.28 F240
G92 E0.0
G1 Y190 E15.0 F1500.0 ; intro line
G1 X2.3 F5000
G1 Y10 E30 F1200.0 ; intro line
G92 E0.0
G21 ; set units to millimeters
G90 ; use absolute coordinates
M83 ; use relative distances for extrusion
; Filament gcode
;BEFORE_LAYER_CHANGE
;0.2


G1 E-5.00000 F3600.00000
G1 Z0.200 F9000.000
;AFTER_LAYER_CHANGE
;0.2
G1 X106.415 Y102.202
G1 E5.00000 F2400.00000
G1 F900
G1 X106.948 Y101.766 E0.02158
G1 X107.555 Y101.442 E0.02158
G1 X108.214 Y101.243 E0.02158
G1 X108.899 Y101.176 E0.02158
G1 X109.792 Y101.293 E0.02821
G1 X110.629 Y101.635 E0.02836
G1 X112.091 Y102.615 E0.05520
G1 X112.876 Y103.435 E0.03560
G1 X113.656 Y105.044 E0.05603
G1 X114.635 Y107.607 E0.08603
G1 X114.886 Y108.746 E0.03658
G1 X114.979 Y109.948 E0.03779
G1 X114.867 Y111.399 E0.04565
G1 X114.535 Y112.742 E0.04337
G1 X113.988 Y114.029 E0.04386
G1 X113.241 Y115.214 E0.04390
G1 X112.142 Y116.427 E0.05134
G1 X110.792 Y117.452 E0.05313
G1 X109.886 Y117.866 E0.03123
G1 X108.895 Y118.009 E0.03138
G1 X107.764 Y117.822 E0.03597
G1 X106.753 Y117.280 E0.03597
G1 X105.971 Y116.440 E0.03597
G1 X105.502 Y115.394 E0.03597
G1 X105.386 Y114.538 E0.02706
G1 X105.386 Y104.684 E0.30896
G1 X105.454 Y103.999 E0.02158
G1 X105.654 Y103.341 E0.02158
G1 X105.978 Y102.734 E0.02158
G1 X106.377 Y102.248 E0.01970
G1 E-3.50000 F3600.00000
G1 F7200.000
G1 X106.948 Y101.766 E-0.35497
G1 X107.555 Y101.442 E-0.32698
G1 X108.214 Y101.243 E-0.32698
G1 X108.899 Y101.176 E-0.32698
G1 X109.085 Y101.200 E-0.08909
G1 E-0.07500 F3600.00000
G1 X109.811 Y101.690 F9000.000
G1 E5.00000 F2400.00000
G1 F900
G1 X110.685 Y102.101 E0.03025
G1 X111.944 Y102.982 E0.04819
G1 X112.581 Y103.671 E0.02941
G1 X113.396 Y105.398 E0.05987
G1 X114.277 Y107.726 E0.07807
G1 X114.513 Y108.799 E0.03442
G1 X114.602 Y109.943 E0.03599
G1 X114.495 Y111.336 E0.04381
G1 X114.178 Y112.621 E0.04147
G1 X113.657 Y113.848 E0.04182
G1 X112.956 Y114.965 E0.04132
G1 X111.966 Y116.075 E0.04666
G1 X110.836 Y116.972 E0.04524
G1 X109.904 Y117.465 E0.03304
G1 X108.895 Y117.632 E0.03207
G1 X107.869 Y117.459 E0.03261
G1 X106.960 Y116.963 E0.03247
G1 X106.260 Y116.194 E0.03261
G1 X105.851 Y115.238 E0.03261
G1 X105.763 Y114.528 E0.02243
G1 X105.763 Y104.684 E0.30863
G1 X105.824 Y104.072 E0.01930
G1 X106.003 Y103.483 E0.01930
G1 X106.293 Y102.941 E0.01930
G1 X106.682 Y102.469 E0.01916
G1 X107.154 Y102.081 E0.01916
G1 X107.697 Y101.791 E0.01930
G1 X108.286 Y101.613 E0.01930
G1 X108.898 Y101.553 E0.01930
G1 X109.752 Y101.682 E0.02707
G1 X109.695 Y102.053 F9000.000
G1 F900
G1 X110.511 Y102.436 E0.02828
G1 X111.703 Y103.273 E0.04566
G1 X112.287 Y103.910 E0.02708
G1 X113.051 Y105.551 E0.05676
G1 X113.919 Y107.846 E0.07693
G1 X114.150 Y108.926 E0.03462
G1 X114.224 Y109.944 E0.03201
G1 X114.122 Y111.278 E0.04196
G1 X113.823 Y112.496 E0.03933
G1 X113.325 Y113.668 E0.03993
G1 X112.667 Y114.722 E0.03896
G1 X111.794 Y115.718 E0.04154
G1 X110.652 Y116.642 E0.04605
G1 X109.802 Y117.101 E0.03030
G1 X108.892 Y117.255 E0.02892
G1 X107.979 Y117.098 E0.02904
G1 X107.167 Y116.646 E0.02917
G1 X106.553 Y115.952 E0.02904
G1 X106.204 Y115.089 E0.02917
G1 X106.140 Y114.520 E0.01796
G1 X106.140 Y104.684 E0.30839
G1 X106.193 Y104.147 E0.01694
G1 X106.350 Y103.630 E0.01694
G1 X106.605 Y103.153 E0.01694
G1 X106.948 Y102.736 E0.01694
G1 X107.366 Y102.393 E0.01694
G1 X107.843 Y102.139 E0.01694
G1 X108.360 Y101.983 E0.01694
G1 X108.898 Y101.930 E0.01694
G1 X109.636 Y102.044 E0.02341
G1 X107.987 Y102.487 F9000.000
G1 F900
G1 X108.897 Y102.307 E0.02907
G1 X109.642 Y102.428 E0.02367
G1 X110.389 Y102.802 E0.02619
G1 X111.472 Y103.571 E0.04164
G1 X111.988 Y104.141 E0.02412
G1 X112.787 Y105.900 E0.06059
G1 X113.561 Y107.963 E0.06906
G1 X113.778 Y108.984 E0.03272
G1 X113.847 Y109.944 E0.03020
G1 X113.779 Y111.024 E0.03393
G1 X113.523 Y112.194 E0.03756
G1 X113.091 Y113.296 E0.03710
G1 X112.473 Y114.345 E0.03818
G1 X111.620 Y115.361 E0.04158
G1 X110.630 Y116.198 E0.04066
G1 X109.762 Y116.714 E0.03165
G1 X108.895 Y116.878 E0.02767
G1 X108.092 Y116.738 E0.02555
G1 X107.383 Y116.336 E0.02555
G1 X106.852 Y115.717 E0.02555
G1 X106.561 Y114.956 E0.02555
G1 X106.517 Y104.684 E0.32207
G1 X106.700 Y103.771 E0.02919
G1 X107.216 Y103.001 E0.02907
G1 X107.938 Y102.520 E0.02719
G1 E-3.50000 F3600.00000
G1 F7200.000
G1 X108.897 Y102.307 E-0.46689
G1 X109.642 Y102.428 E-0.35852
G1 X110.389 Y102.802 E-0.39679
G1 X110.737 Y103.049 E-0.20279
G1 E-0.07500 F3600.00000
G1 X110.063 Y108.332 F9000.000
G1 E5.00000 F2400.00000
G1 F900
G1 X110.291 Y108.938 E0.02030
G1 X110.392 Y109.415 E0.01529
G1 X110.434 Y109.998 E0.01834
G1 X110.397 Y110.552 E0.01740
G1 X110.299 Y111.043 E0.01572
G1 X110.140 Y111.524 E0.01587
G1 X110.060 Y111.691 E0.00580
G1 X110.150 Y111.313 E0.01217
G1 X110.240 Y110.665 E0.02053
G1 X110.271 Y110.006 E0.02068
G1 X110.240 Y109.347 E0.02068
G1 X110.150 Y108.699 E0.02053
G1 X110.076 Y108.390 E0.00994
G1 E-3.50000 F3600.00000
G1 F7200.000
G1 X110.291 Y108.938 E-0.27928
G1 X110.392 Y109.415 E-0.23167
G1 X110.434 Y109.998 E-0.27789
G1 X110.397 Y110.552 E-0.26355
G1 X110.299 Y111.043 E-0.23808
G1 X110.210 Y111.312 E-0.13453
G1 E-0.07500 F3600.00000
G1 X109.481 Y105.818 F9000.000
G1 E5.00000 F2400.00000
G1 F900
G1 X110.087 Y107.329 E0.05104
G1 X110.654 Y108.831 E0.05034
G1 X110.765 Y109.355 E0.01678
G1 X110.812 Y110.004 E0.02040
G1 X110.772 Y110.602 E0.01879
G1 X110.664 Y111.140 E0.01722
G1 X110.490 Y111.665 E0.01733
G1 X110.252 Y112.166 E0.01741
G1 X109.948 Y112.645 E0.01778
G1 X109.784 Y112.856 E0.00838
G1 X109.481 Y113.188 E0.01407
G1 X109.481 Y112.292 E0.02808
G1 X109.637 Y111.841 E0.01495
G1 X109.779 Y111.244 E0.01926
G1 X109.865 Y110.630 E0.01942
G1 X109.893 Y110.006 E0.01959
G1 X109.865 Y109.382 E0.01959
G1 X109.779 Y108.769 E0.01942
G1 X109.637 Y108.171 E0.01926
G1 X109.481 Y107.720 E0.01495
G1 X109.481 Y105.878 E0.05774
G1 X109.104 Y105.074 F9000.000
G1 F900
G1 X109.317 Y105.202 E0.00778
G1 X109.780 Y105.551 E0.01818
G1 X110.439 Y107.192 E0.05547
G1 X111.017 Y108.725 E0.05136
G1 X111.138 Y109.295 E0.01826
G1 X111.175 Y109.632 E0.01063
G1 X111.189 Y110.009 E0.01184
G1 X111.146 Y110.651 E0.02018
G1 X111.030 Y111.237 E0.01872
G1 X110.841 Y111.806 E0.01879
G1 X110.582 Y112.349 E0.01886
G1 X110.257 Y112.862 E0.01904
G1 X110.074 Y113.098 E0.00936
G1 X109.776 Y113.430 E0.01398
G1 X109.322 Y113.840 E0.01921
G1 X109.104 Y113.994 E0.00834
G1 X109.104 Y112.229 E0.05534
G1 X109.274 Y111.736 E0.01635
G1 X109.408 Y111.174 E0.01812
G1 X109.489 Y110.595 E0.01831
G1 X109.516 Y110.006 E0.01849
G1 X109.489 Y109.417 E0.01849
G1 X109.408 Y108.838 E0.01831
G1 X109.274 Y108.276 E0.01812
G1 X109.104 Y107.783 E0.01635
G1 X109.104 Y105.134 E0.08306
G1 X109.265 Y105.263 F9000.000
G1 X109.690 Y106.901
G1 F900
G1 X109.717 Y107.036 E0.00115
G1
G1 X109.743 Y107.172 E0.00173
G1
G1 X109.769 Y107.307 E0.00230
G1
G1 X109.795 Y107.443 E0.00287
G1
G1 X109.815 Y107.552 E0.00267
G1
G1 X109.835 Y107.661 E0.00304
G1
G1 X110.011 Y108.150 E0.01470
G1 E-3.50000 F3600.00000
G1 F7200.000
G1 X109.835 Y107.661 E-0.24715
G1 E-1.25285 F3600.00000
G1 X110.150 Y111.941 F9000.000
G1 E5.00000 F2400.00000
G1 F900
G1 X109.941 Y112.014 E0.00570
G1 X109.806 Y112.295 E0.00807
G1
G1 X109.670 Y112.577 E0.00696
M106 S255
;BEFORE_LAYER_CHANGE
;0.32


G1 E-3.50000 F3600.00000
G1 F7200.000
G1 X109.806 Y112.295 E-0.14840
G1 E-1.35160 F3600.00000
G1 Z0.320 F9000.000
;AFTER_LAYER_CHANGE
;0.32
G1 X105.971 Y116.440
G1 E5.00000 F2400.00000
G1 F900
G1 X105.502 Y115.394 E0.02256
G1 X105.386 Y114.538 E0.01698
G1 X105.386 Y104.684 E0.19382
G1 X105.454 Y103.999 E0.01354
G1 X105.654 Y103.341 E0.01354
G1 X105.978 Y102.734 E0.01354
G1 X106.415 Y102.202 E0.01354
G1 X106.948 Y101.766 E0.01354
G1 X107.555 Y101.442 E0.01354
G1 X108.214 Y101.243 E0.01354
G1 X108.899 Y101.176 E0.01354
G1 X109.792 Y101.293 E0.01770
G1 X110.629 Y101.635 E0.01779
G1 X112.091 Y102.615 E0.03463
G1 X112.876 Y103.435 E0.02233
G1 X113.656 Y105.044 E0.03515
G1 X114.635 Y107.607 E0.05397
G1 X114.886 Y108.746 E0.02295
G1 X114.979 Y109.948 E0.02371
G1 X114.867 Y111.399 E0.02864
G1 X114.535 Y112.742 E0.02721
G1 X113.988 Y114.029 E0.02751
G1 X113.241 Y115.214 E0.02754
G1 X112.142 Y116.427 E0.03221
G1 X110.792 Y117.452 E0.03333
G1 X109.886 Y117.866 E0.01959
G1 X108.895 Y118.009 E0.01968
G1 X107.764 Y117.822 E0.02256
G1 X106.753 Y117.280 E0.02256
G1 X106.012 Y116.484 E0.02138
G1 X106.260 Y116.194 F9000.000
G1 F900
G1 X105.851 Y115.238 E0.02046
G1 X105.763 Y114.528 E0.01407
G1 X105.763 Y104.684 E0.19361
G1 X105.824 Y104.072 E0.01210
G1 X106.003 Y103.483 E0.01210
G1 X106.293 Y102.941 E0.01210
G1 X106.682 Y102.469 E0.01202
G1 X107.154 Y102.081 E0.01202
G1 X107.697 Y101.791 E0.01210
G1 X108.286 Y101.613 E0.01210
G1 X108.898 Y101.553 E0.01210
G1 X109.811 Y101.690 E0.01816
G1 X110.685 Y102.101 E0.01898
G1 X111.944 Y102.982 E0.03023
G1 X112.581 Y103.671 E0.01845
G1 X113.396 Y105.398 E0.03755
G1 X114.277 Y107.726 E0.04898
G1 X114.513 Y108.799 E0.02160
G1 X114.602 Y109.943 E0.02258
G1 X114.495 Y111.336 E0.02748
G1 X114.178 Y112.621 E0.02602
G1 X113.657 Y113.848 E0.02624
G1 X112.956 Y114.965 E0.02592
G1 X111.966 Y116.075 E0.02927
G1 X110.836 Y116.972 E0.02838
G1 X109.904 Y117.465 E0.02073
G1 X108.895 Y117.632 E0.02012
G1 X107.869 Y117.459 E0.02046
G1 X106.960 Y116.963 E0.02037
G1 X106.301 Y116.238 E0.01928
G1 X106.553 Y115.952 F9000.000
G1 F900
G1 X106.204 Y115.089 E0.01830
G1 X106.140 Y114.520 E0.01127
G1 X106.140 Y104.684 E0.19346
G1 X106.193 Y104.147 E0.01063
G1 X106.350 Y103.630 E0.01063
G1 X106.605 Y103.153 E0.01063
G1 X106.948 Y102.736 E0.01063
G1 X107.366 Y102.393 E0.01063
G1 X107.843 Y102.139 E0.01063
G1 X108.360 Y101.983 E0.01063
G1 X108.898 Y101.930 E0.01063
G1 X109.717 Y102.056 E0.01631
G1 X110.511 Y102.436 E0.01732
G1 X111.703 Y103.273 E0.02864
G1 X112.287 Y103.910 E0.01699
G1 X113.051 Y105.551 E0.03561
G1 X113.919 Y107.846 E0.04826
G1 X114.150 Y108.926 E0.02172
G1 X114.224 Y109.944 E0.02008
G1 X114.122 Y111.278 E0.02632
G1 X113.823 Y112.496 E0.02467
G1 X113.325 Y113.668 E0.02505
G1 X112.667 Y114.722 E0.02444
G1 X111.794 Y115.718 E0.02606
G1 X110.652 Y116.642 E0.02889
G1 X109.802 Y117.101 E0.01901
G1 X108.892 Y117.255 E0.01814
G1 X107.979 Y117.098 E0.01822
G1 X107.167 Y116.646 E0.01830
G1 X106.593 Y115.996 E0.01704
G1 X106.561 Y114.956 F9000.000
G1 F900
G1 X106.517 Y104.684 E0.20204
G1 X106.700 Y103.771 E0.01831
G1 X107.216 Y103.001 E0.01824
G1 X107.987 Y102.487 E0.01824
G1 X108.897 Y102.307 E0.01824
G1 X109.642 Y102.428 E0.01485
G1 X110.389 Y102.802 E0.01643
G1 X111.472 Y103.571 E0.02612
G1 X111.988 Y104.141 E0.01513
G1 X112.787 Y105.900 E0.03801
G1 X113.561 Y107.963 E0.04332
G1 X113.778 Y108.984 E0.02053
G1 X113.847 Y109.944 E0.01895
G1 X113.779 Y111.024 E0.02128
G1 X113.523 Y112.194 E0.02356
G1 X113.091 Y113.296 E0.02327
G1 X112.473 Y114.345 E0.02395
G1 X111.620 Y115.361 E0.02609
G1 X110.630 Y116.198 E0.02551
G1 X109.762 Y116.714 E0.01986
G1 X108.895 Y116.878 E0.01736
G1 X108.092 Y116.738 E0.01603
G1 X107.383 Y116.336 E0.01603
G1 X106.852 Y115.717 E0.01603
G1 X106.583 Y115.012 E0.01485
G1 E-3.50000 F3600.00000
G1 F7200.000
G1 X106.564 Y112.012 E-1.42500
G1 E-0.07500 F3600.00000
G1 X110.354 Y110.574 F9000.000
G1 E5.00000 F2400.00000
G1 F900
G1 X110.380 Y110.006 E0.01203
G1 X110.354 Y109.444 E0.01191
G1 X110.396 Y109.969 E0.01115
G1 X110.364 Y110.515 E0.01157
G1 E-3.50000 F3600.00000
G1 F7200.000
G1 X110.380 Y110.006 E-0.24184
G1 X110.354 Y109.444 E-0.26725
G1 X110.396 Y109.969 E-0.25020
G1 X110.364 Y110.515 E-0.25970
G1 E-0.48100 F3600.00000
G1 X109.544 Y113.154 F9000.000
G1 E5.00000 F2400.00000
G1 F900
G1 X109.544 Y112.302 E0.01803
G1 X109.697 Y111.858 E0.00996
G1 X109.840 Y111.254 E0.01313
G1 X109.926 Y110.637 E0.01319
G1 X109.956 Y110.006 E0.01337
G1 X109.926 Y109.375 E0.01337
G1 X109.840 Y108.758 E0.01319
G1 X109.697 Y108.155 E0.01313
G1 X109.544 Y107.710 E0.00996
G1 X109.544 Y106.032 E0.03551
G1 X110.066 Y107.244 E0.02794
G1 X110.670 Y108.866 E0.03662
G1 X110.780 Y109.410 E0.01176
G1 X110.820 Y109.960 E0.01165
G1 X110.783 Y110.591 E0.01338
G1 X110.670 Y111.162 E0.01232
G1 X110.487 Y111.706 E0.01215
G1 X110.235 Y112.225 E0.01221
G1 X109.920 Y112.711 E0.01226
G1 X109.582 Y113.108 E0.01104
G1 X109.119 Y114.065 F9000.000
G1 F900
G1 X109.119 Y112.231 E0.03882
G1 X109.289 Y111.739 E0.01102
G1 X109.423 Y111.175 E0.01226
G1 X109.503 Y110.598 E0.01235
G1 X109.531 Y110.006 E0.01254
G1 X109.503 Y109.414 E0.01254
G1 X109.423 Y108.837 E0.01235
G1 X109.289 Y108.273 E0.01226
G1 X109.119 Y107.781 E0.01102
G1 X109.119 Y105.083 E0.05710
G1 X109.315 Y105.201 E0.00485
G1 X109.809 Y105.576 E0.01313
G1 X110.460 Y107.086 E0.03480
G1 X111.080 Y108.749 E0.03756
G1 X111.201 Y109.353 E0.01304
G1 X111.245 Y109.950 E0.01267
G1 X111.234 Y110.346 E0.00840
G1 X111.203 Y110.653 E0.00653
G1 X111.080 Y111.271 E0.01333
G1 X110.880 Y111.867 E0.01329
G1 X110.605 Y112.434 E0.01334
G1 X110.261 Y112.965 E0.01339
G1 X109.850 Y113.449 E0.01345
G1 X109.379 Y113.881 E0.01351
G1 X109.168 Y114.031 E0.00547
G1 X109.234 Y113.682 F9000.000
G1 X109.756 Y112.485
G1 F900
G1 X109.857 Y112.277 E0.00198
G1
G1 X110.011 Y111.943 E0.00415
G1
G1 X110.078 Y111.755 E0.00269
G1
G1 X110.145 Y111.566 E0.00312
G1
G1 X110.216 Y111.317 E0.00437
G1
G1 X110.323 Y110.784 E0.01061
G1 X110.324 Y109.234 F9000.000
G1 F900
G1 X110.244 Y108.837 E0.00788
G1
G1 X110.209 Y108.697 E0.00256
G1
G1 X110.111 Y108.375 E0.00542
G1
G1 X110.018 Y108.068 E0.00450
G1
G1 X109.871 Y107.655 E0.00527
G1 X109.841 Y107.491 E0.00200
G1
G1 X109.811 Y107.327 E0.00160
G1
G1 X109.782 Y107.163 E0.00129
;BEFORE_LAYER_CHANGE
;0.44


G1 E-3.50000 F3600.00000
G1 F7200.000
G1 X109.811 Y107.327 E-0.07915
G1 E-1.42085 F3600.00000
G1 Z0.440 F9000.000
;AFTER_LAYER_CHANGE
;0.44
G1 X110.290 Y108.911
G1 E5.00000 F2400.00000
G1 F900
G1 X110.361 Y109.170 E0.00569
G1 X110.414 Y109.482 E0.00669
G1 X110.447 Y110.014 E0.01128
G1 X110.410 Y110.568 E0.01175
G1 X110.283 Y111.153 E0.01268
G1 X110.349 Y110.677 E0.01018
G1 X110.380 Y110.006 E0.01421
G1 X110.349 Y109.335 E0.01421
G1 X110.298 Y108.970 E0.00780
G1 E-3.50000 F3600.00000
G1 F7200.000
G1 X110.361 Y109.170 E-0.09942
G1 X110.414 Y109.482 E-0.15023
G1 X110.447 Y110.014 E-0.25313
G1 X110.410 Y110.568 E-0.26373
G1 X110.283 Y111.153 E-0.28467
G1 X110.349 Y110.677 E-0.22840
G1 X110.363 Y110.371 E-0.14542
G1 E-0.07500 F3600.00000
G1 X109.568 Y113.214 F9000.000
G1 E5.00000 F2400.00000
G1 F900
G1 X109.544 Y113.237 E0.00070
G1 X109.544 Y112.302 E0.01977
G1 X109.697 Y111.857 E0.00997
G1 X109.840 Y111.253 E0.01313
G1 X109.926 Y110.638 E0.01316
G1 X109.956 Y110.006 E0.01338
G1 X109.926 Y109.374 E0.01338
G1 X109.840 Y108.759 E0.01316
G1 X109.697 Y108.155 E0.01313
G1 X109.544 Y107.710 E0.00997
G1 X109.544 Y105.946 E0.03732
G1 X110.132 Y107.264 E0.03054
G1 X110.458 Y108.105 E0.01909
G1 X110.711 Y108.830 E0.01627
G1 X110.777 Y109.081 E0.00549
G1 X110.836 Y109.433 E0.00756
G1 X110.872 Y110.008 E0.01219
G1 X110.830 Y110.633 E0.01326
G1 X110.712 Y111.209 E0.01244
G1 X110.525 Y111.757 E0.01226
G1 X110.269 Y112.279 E0.01232
G1 X109.949 Y112.768 E0.01236
G1 X109.607 Y113.169 E0.01115
G1 X109.119 Y114.140 F9000.000
G1 F900
G1 X109.119 Y112.231 E0.04040
G1 X109.289 Y111.738 E0.01103
G1 X109.423 Y111.175 E0.01226
G1 X109.503 Y110.598 E0.01232
G1 X109.531 Y110.006 E0.01255
