; generated by PrusaSlicer 2.2.0+win64 on 2021-05-12 at 07:08:22 UTC

; 

; external perimeters extrusion width = 0.45mm
; perimeters extrusion width = 0.45mm
; infill extrusion width = 0.45mm
; solid infill extrusion width = 0.45mm
; top infill extrusion width = 0.40mm
; first layer extrusion width = 0.42mm

M201 X500 Y500 Z100 E5000 ; sets maximum accelerations, mm/sec^2
M203 X500 Y500 Z10 E60 ; sets maximum feedrates, mm/sec
M204 P500 R1000 T500 ; sets acceleration (P, T) and retract acceleration (R), mm/sec^2
M205 X8.00 Y8.00 Z0.40 E5.00 ; sets the jerk limits, mm/sec
M205 S0 T0 ; sets the minimum extruding and travel feed rate, mm/sec
M107
G90 ; use absolute coordinates
M83 ; extruder relative mode
M104 S200 ; set extruder temp
M140 S60 ; set bed temp
M190 S60 ; wait for bed temp
M109 S200 ; wait for extruder temp
G28 ; home all
G1 Z2 F240
G1 X2 Y10 F3000
G1 Z0.28 F240
G92 E0.0
G1 Y190 E15.0 F1500.0 ; intro line
G1 X2.3 F5000
G1 Y10 E30 F1200.0 ; intro line
G92 E0.0
G21 ; set units to millimeters
G90 ; use absolute coordinates
M83 ; use relative distances for extrusion
; Filament gcode
;BEFORE_LAYER_CHANGE
;0.2


G1 E-5.00000 F3600.00000
G1 Z0.200 F9000.000
;AFTER_LAYER_CHANGE
;0.2
G1 X105.412 Y103.247
G1 E5.00000 F2400.00000
G1 F900
G1 X106.707 Y102.255 E0.05111
G1 X108.438 Y101.406 E0.06048
G1 X110.072 Y100.966 E0.05306
G1 X111.802 Y100.829 E0.05440
G1 X113.165 Y100.952 E0.04290
G1 X114.497 Y101.270 E0.04295
G1 X116.014 Y101.904 E0.05154
G1 X116.757 Y102.438 E0.02868
G1 X117.302 Y103.145 E0.02800
G1 X117.627 Y103.982 E0.02814
G1 X117.705 Y104.588 E0.01916
G1 X117.706 Y106.565 E0.06200
G1 X117.542 Y114.765 E0.25713
G1 X117.435 Y115.419 E0.02080
G1 X117.192 Y116.041 E0.02093
G1 X116.841 Y116.573 E0.01998
G1 X116.394 Y117.020 E0.01984
G1 X115.126 Y117.726 E0.04549
G1 X113.365 Y118.273 E0.05782
G1 X111.509 Y118.436 E0.05840
G1 X109.698 Y118.216 E0.05721
G1 X108.166 Y117.712 E0.05057
G1 X106.753 Y116.931 E0.05061
G1 X105.391 Y115.786 E0.05581
G1 X104.389 Y114.530 E0.05038
G1 X103.646 Y113.099 E0.05054
G1 X103.166 Y111.391 E0.05564
G1 X103.050 Y109.812 E0.04966
G1 X103.229 Y108.276 E0.04848
G1 X103.608 Y107.048 E0.04030
G1 X104.826 Y104.090 E0.10030
G1 X105.378 Y103.296 E0.03032
G1 X105.670 Y103.525 F9000.000
G1 F900
G1 X106.904 Y102.577 E0.04882
G1 X108.573 Y101.758 E0.05829
G1 X110.135 Y101.338 E0.05072
G1 X111.802 Y101.206 E0.05241
G1 X113.101 Y101.324 E0.04089
G1 X114.367 Y101.625 E0.04080
G1 X115.822 Y102.229 E0.04942
G1 X116.491 Y102.706 E0.02574
G1 X116.981 Y103.344 E0.02523
G1 X117.267 Y104.101 E0.02536
G1 X117.329 Y106.562 E0.07720
G1 X117.166 Y114.730 E0.25615
G1 X117.078 Y115.296 E0.01796
G1 X116.873 Y115.836 E0.01809
G1 X116.548 Y116.336 E0.01873
G1 X116.118 Y116.758 E0.01886
G1 X114.840 Y117.437 E0.04540
G1 X113.269 Y117.907 E0.05141
G1 X111.513 Y118.059 E0.05527
G1 X109.778 Y117.848 E0.05480
G1 X108.318 Y117.367 E0.04820
G1 X106.967 Y116.621 E0.04839
G1 X105.660 Y115.521 E0.05356
G1 X104.705 Y114.325 E0.04798
G1 X103.996 Y112.960 E0.04820
G1 X103.537 Y111.324 E0.05330
G1 X103.427 Y109.816 E0.04740
G1 X103.554 Y108.574 E0.03915
G1 X103.890 Y107.380 E0.03887
G1 X105.027 Y104.550 E0.09565
G1 X105.323 Y103.967 E0.02050
G1 X105.633 Y103.573 E0.01572
G1 X105.928 Y103.804 F9000.000
G1 F900
G1 X107.231 Y102.820 E0.05119
G1 X108.712 Y102.109 E0.05151
G1 X110.203 Y101.709 E0.04839
G1 X111.802 Y101.584 E0.05030
G1 X113.037 Y101.695 E0.03889
G1 X114.242 Y101.981 E0.03882
G1 X115.640 Y102.559 E0.04744
G1 X116.226 Y102.974 E0.02249
G1 X116.659 Y103.541 E0.02237
G1 X116.905 Y104.214 E0.02249
G1 X116.952 Y106.555 E0.07341
G1 X116.790 Y114.698 E0.25536
G1 X116.551 Y115.636 E0.03036
G1 X116.256 Y116.097 E0.01716
G1 X115.864 Y116.478 E0.01716
G1 X114.620 Y117.120 E0.04386
G1 X113.187 Y117.539 E0.04682
G1 X111.520 Y117.682 E0.05247
G1 X109.858 Y117.479 E0.05251
G1 X108.465 Y117.020 E0.04598
G1 X107.180 Y116.310 E0.04604
G1 X105.931 Y115.259 E0.05119
G1 X105.021 Y114.119 E0.04571
G1 X104.347 Y112.821 E0.04586
G1 X103.908 Y111.256 E0.05096
G1 X103.804 Y109.820 E0.04514
G1 X103.924 Y108.646 E0.03700
G1 X104.242 Y107.514 E0.03689
G1 X105.366 Y104.716 E0.09453
G1 X105.636 Y104.177 E0.01890
G1 X105.891 Y103.851 E0.01299
G1 E-3.50000 F3600.00000
G1 F7200.000
G1 X107.231 Y102.820 E-0.80311
G1 X108.411 Y102.253 E-0.62189
G1 E-0.07500 F3600.00000
G1 X114.075 Y113.709 F9000.000
G1 E5.00000 F2400.00000
G1 F900
G1 X114.205 Y113.709 E0.00408
G1 X114.205 Y114.367 E0.02064
G1 X113.771 Y114.576 E0.01510
G1 X113.438 Y114.706 E0.01122
G1 X112.823 Y114.878 E0.02001
G1 X113.166 Y114.738 E0.01160
G1 X113.353 Y114.634 E0.00673
G1 X113.651 Y114.414 E0.01160
G1 X113.790 Y114.272 E0.00622
G1 X113.984 Y113.986 E0.01084
G1 X114.056 Y113.766 E0.00728
G1 X114.176 Y113.790 F9000.000
G1 E-3.50000 F3600.00000
G1 F7200.000
G1 X114.205 Y113.709 E-0.07562
G1 X114.205 Y114.367 E-0.31266
G1 X113.771 Y114.576 E-0.22881
G1 X113.438 Y114.706 E-0.16998
G1 X112.823 Y114.878 E-0.30319
G1 X113.166 Y114.738 E-0.17579
G1 X113.353 Y114.634 E-0.10197
G1 X113.450 Y114.563 E-0.05697
G1 E-0.07500 F3600.00000
G1 X107.550 Y111.614 F9000.000
G1 E5.00000 F2400.00000
G1 F900
G1 X107.440 Y111.343 E0.00916
G1 X107.337 Y110.996 E0.01134
G1 X107.242 Y110.482 E0.01641
G1 X107.219 Y110.216 E0.00835
G1 X107.225 Y109.689 E0.01652
G1 X107.253 Y109.426 E0.00831
G1 X107.356 Y108.938 E0.01562
G1 X107.537 Y108.463 E0.01595
G1 X107.482 Y108.720 E0.00825
G1 X107.395 Y109.348 E0.01987
G1 X107.365 Y110.018 E0.02105
G1 X107.394 Y110.641 E0.01954
G1 X107.434 Y110.996 E0.01121
G1 X107.539 Y111.555 E0.01783
G1 E-3.50000 F3600.00000
G1 F7200.000
G1 X107.440 Y111.343 E-0.11095
G1 X107.337 Y110.996 E-0.17186
G1 X107.242 Y110.482 E-0.24868
G1 X107.219 Y110.216 E-0.12653
G1 X107.225 Y109.689 E-0.25031
G1 X107.253 Y109.426 E-0.12593
G1 X107.356 Y108.938 E-0.23660
G1 X107.471 Y108.635 E-0.15414
G1 E-0.07500 F3600.00000
G1 X108.154 Y105.926 F9000.000
G1 E5.00000 F2400.00000
G1 F900
G1 X108.154 Y107.712 E0.05601
G1 X107.923 Y108.460 E0.02452
G1 X107.854 Y108.785 E0.01043
G1 X107.771 Y109.382 E0.01891
G1 X107.742 Y110.018 E0.01996
G1 X107.770 Y110.611 E0.01860
G1 X107.807 Y110.940 E0.01038
G1 X107.922 Y111.551 E0.01952
G1 X108.154 Y112.299 E0.02455
G1 X108.154 Y113.165 E0.02716
G1 X107.962 Y112.971 E0.00857
G1 X107.707 Y112.654 E0.01276
G1 X107.448 Y112.260 E0.01477
G1 X107.261 Y111.902 E0.01269
G1 X107.084 Y111.468 E0.01467
G1 X106.970 Y111.085 E0.01255
G1 X106.868 Y110.532 E0.01762
G1 X106.842 Y110.230 E0.00950
G1 X106.848 Y109.667 E0.01767
G1 X106.880 Y109.366 E0.00947
G1 X106.993 Y108.832 E0.01713
G1 X107.817 Y106.667 E0.07261
G1 X108.178 Y105.783 E0.02995
G1 X108.339 Y105.657 E0.00640
G1 X108.897 Y105.296 E0.02085
G1 X109.453 Y105.021 E0.01944
G1 X109.893 Y104.857 E0.01474
G1 X109.565 Y105.152 E0.01384
G1 X109.385 Y105.374 E0.00896
G1 X109.150 Y105.795 E0.01512
G1 X109.115 Y105.926 E0.00426
G1 X108.214 Y105.926 E0.02823
G1 X108.531 Y106.303 F9000.000
G1 F900
G1 X108.531 Y107.780 E0.04632
G1 X108.446 Y108.009 E0.00767
G1 X108.289 Y108.551 E0.01768
G1 X108.226 Y108.850 E0.00958
G1 X108.147 Y109.417 E0.01794
G1 X108.120 Y110.018 E0.01886
G1 X108.146 Y110.581 E0.01766
G1 X108.180 Y110.883 E0.00956
G1 X108.290 Y111.464 E0.01852
G1 X108.445 Y111.999 E0.01746
G1 X108.531 Y112.231 E0.00778
G1 X108.531 Y113.709 E0.04632
G1 X109.248 Y113.709 E0.02246
G1 X109.267 Y113.829 E0.00382
G1 X109.420 Y114.137 E0.01079
G1 X109.658 Y114.407 E0.01130
G1 X109.963 Y114.634 E0.01191
G1 X110.155 Y114.740 E0.00687
G1 X110.476 Y114.871 E0.01087
G1 X110.096 Y114.773 E0.01230
G1 X109.606 Y114.597 E0.01633
G1 X109.195 Y114.406 E0.01422
G1 X108.748 Y114.144 E0.01624
G1 X108.379 Y113.882 E0.01420
G1 X108.110 Y113.657 E0.01097
G1 X107.680 Y113.222 E0.01918
G1 X107.402 Y112.876 E0.01393
G1 X107.123 Y112.452 E0.01591
G1 X106.918 Y112.060 E0.01385
G1 X106.728 Y111.593 E0.01581
G1 X106.603 Y111.173 E0.01375
G1 X106.494 Y110.583 E0.01882
G1 X106.464 Y110.245 E0.01065
G1 X106.471 Y109.644 E0.01882
G1 X106.507 Y109.307 E0.01064
G1 X106.630 Y108.725 E0.01865
G1 X107.466 Y106.529 E0.07368
G1 X107.867 Y105.548 E0.03321
G1 X108.119 Y105.350 E0.01006
G1 X108.710 Y104.967 E0.02208
G1 X109.301 Y104.675 E0.02065
G1 X109.709 Y104.517 E0.01373
G1 X110.346 Y104.336 E0.02077
G1 X110.747 Y104.260 E0.01280
G1 X111.433 Y104.193 E0.02160
G1 X112.050 Y104.202 E0.01935
G1 X112.528 Y104.253 E0.01506
G1 X113.173 Y104.382 E0.02063
G1 X113.850 Y104.602 E0.02234
G1 X114.365 Y104.838 E0.01775
G1 X114.365 Y106.098 E0.03952
G1 X114.324 Y105.944 E0.00501
G1 X114.229 Y105.748 E0.00682
G1 X113.995 Y105.424 E0.01255
G1 X113.670 Y105.131 E0.01371
G1 X113.297 Y104.904 E0.01370
G1 X113.075 Y104.805 E0.00763
G1 X112.639 Y104.671 E0.01429
G1 X112.391 Y104.625 E0.00790
G1 X111.909 Y104.590 E0.01515
G1 X111.438 Y104.624 E0.01480
G1 X110.956 Y104.732 E0.01548
G1 X110.535 Y104.899 E0.01421
G1 X110.150 Y105.133 E0.01414
G1 X109.840 Y105.413 E0.01309
G1 X109.698 Y105.586 E0.00702
G1 X109.502 Y105.938 E0.01263
G1 X109.404 Y106.303 E0.01185
G1 X108.591 Y106.303 E0.02547
G1 X108.134 Y106.351 F9000.000
G1 X107.945 Y106.919
G1 F900
G1 X107.878 Y107.285 E0.00290
G1
G1 X107.810 Y107.650 E0.00692
G1 X107.759 Y107.788 E0.00274
G1
G1 X107.593 Y108.283 E0.01476
G1 E-3.50000 F3600.00000
G1 F7200.000
G1 X107.759 Y107.788 E-0.24765
G1 E-1.25235 F3600.00000
G1 X107.613 Y111.792 F9000.000
G1 E5.00000 F2400.00000
G1 F900
G1 X107.734 Y112.092 E0.00656
G1 X107.966 Y112.559 E0.01059
G1 E-3.50000 F3600.00000
G1 F7200.000
G1 X107.734 Y112.092 E-0.24785
G1 X107.613 Y111.792 E-0.15361
G1 E-1.09854 F3600.00000
G1 X110.065 Y104.778 F9000.000
G1 E5.00000 F2400.00000
G1 F900
G1 X110.393 Y104.634 E0.00750
G1
G1 X110.875 Y104.497 E0.00609
G1
G1 X111.490 Y104.407 E0.00271
G1 X113.044 Y104.573 F9000.000
G1 F900
G1 X113.152 Y104.603 E0.00051
G1
G1 X113.406 Y104.700 E0.00190
G1
G1 X113.578 Y104.779 E0.00201
G1
G1 X113.751 Y104.858 E0.00270
G1
G1 X113.846 Y104.910 E0.00167
G1
G1 X114.011 Y105.019 E0.00366
G1
G1 X114.177 Y105.127 E0.00426
M106 S255
;BEFORE_LAYER_CHANGE
;0.32


G1 E-3.50000 F3600.00000
G1 F7200.000
G1 X114.011 Y105.019 E-0.09403
G1 E-1.40597 F3600.00000
G1 Z0.320 F9000.000
;AFTER_LAYER_CHANGE
;0.32
G1 X116.757 Y102.438
G1 E5.00000 F2400.00000
G1 F900
G1 X117.302 Y103.145 E0.01757
G1 X117.627 Y103.982 E0.01765
G1 X117.705 Y104.588 E0.01202
G1 X117.706 Y106.565 E0.03889
G1 X117.542 Y114.765 E0.16130
G1 X117.435 Y115.419 E0.01305
G1 X117.192 Y116.041 E0.01313
G1 X116.841 Y116.573 E0.01253
G1 X116.394 Y117.020 E0.01245
G1 X115.126 Y117.726 E0.02854
G1 X113.365 Y118.273 E0.03627
G1 X111.509 Y118.436 E0.03664
G1 X109.698 Y118.216 E0.03589
G1 X108.166 Y117.712 E0.03172
G1 X106.753 Y116.931 E0.03175
G1 X105.391 Y115.786 E0.03501
G1 X104.389 Y114.530 E0.03160
G1 X103.646 Y113.099 E0.03170
G1 X103.166 Y111.391 E0.03491
G1 X103.050 Y109.812 E0.03115
G1 X103.229 Y108.276 E0.03041
G1 X103.608 Y107.048 E0.02528
G1 X104.826 Y104.090 E0.06292
G1 X105.412 Y103.247 E0.02020
G1 X106.707 Y102.255 E0.03206
G1 X108.438 Y101.406 E0.03794
G1 X110.072 Y100.966 E0.03329
G1 X111.802 Y100.829 E0.03413
G1 X113.165 Y100.952 E0.02691
G1 X114.497 Y101.270 E0.02695
G1 X116.014 Y101.904 E0.03233
G1 X116.708 Y102.403 E0.01681
G1 X117.267 Y104.101 F9000.000
G1 F900
G1 X117.329 Y106.562 E0.04843
G1 X117.166 Y114.730 E0.16068
G1 X117.078 Y115.296 E0.01127
G1 X116.873 Y115.836 E0.01135
G1 X116.548 Y116.336 E0.01175
G1 X116.118 Y116.758 E0.01183
G1 X114.840 Y117.437 E0.02848
G1 X113.269 Y117.907 E0.03225
G1 X111.513 Y118.059 E0.03467
G1 X109.778 Y117.848 E0.03437
G1 X108.318 Y117.367 E0.03024
G1 X106.967 Y116.621 E0.03035
G1 X105.660 Y115.521 E0.03360
G1 X104.705 Y114.325 E0.03010
G1 X103.996 Y112.960 E0.03024
G1 X103.537 Y111.324 E0.03344
G1 X103.427 Y109.816 E0.02974
G1 X103.554 Y108.574 E0.02456
G1 X103.890 Y107.380 E0.02438
G1 X105.027 Y104.550 E0.06000
G1 X105.323 Y103.967 E0.01286
G1 X105.680 Y103.513 E0.01135
G1 X106.904 Y102.577 E0.03033
G1 X108.573 Y101.758 E0.03656
G1 X110.135 Y101.338 E0.03182
G1 X111.802 Y101.206 E0.03288
G1 X113.101 Y101.324 E0.02565
G1 X114.367 Y101.625 E0.02559
G1 X115.822 Y102.229 E0.03100
G1 X116.491 Y102.706 E0.01615
G1 X116.981 Y103.344 E0.01583
G1 X117.245 Y104.045 E0.01473
G1 X116.891 Y104.174 F9000.000
G1 F900
G1 X116.905 Y104.214 E0.00083
G1 X116.952 Y106.555 E0.04605
G1 X116.790 Y114.698 E0.16019
G1 X116.551 Y115.636 E0.01905
G1 X116.256 Y116.097 E0.01076
G1 X115.864 Y116.478 E0.01076
G1 X114.620 Y117.120 E0.02751
G1 X113.187 Y117.539 E0.02937
G1 X111.520 Y117.682 E0.03291
G1 X109.858 Y117.479 E0.03294
G1 X108.465 Y117.020 E0.02884
G1 X107.180 Y116.310 E0.02888
G1 X105.931 Y115.259 E0.03211
G1 X105.021 Y114.119 E0.02868
G1 X104.347 Y112.821 E0.02877
G1 X103.908 Y111.256 E0.03197
G1 X103.804 Y109.820 E0.02832
G1 X103.924 Y108.646 E0.02321
G1 X104.242 Y107.514 E0.02314
G1 X105.366 Y104.716 E0.05930
G1 X105.636 Y104.177 E0.01185
G1 X105.950 Y103.776 E0.01002
G1 X107.231 Y102.820 E0.03145
G1 X108.712 Y102.109 E0.03231
G1 X110.203 Y101.709 E0.03036
G1 X111.802 Y101.584 E0.03155
G1 X113.037 Y101.695 E0.02440
G1 X114.242 Y101.981 E0.02435
G1 X115.640 Y102.559 E0.02976
G1 X116.226 Y102.974 E0.01411
G1 X116.659 Y103.541 E0.01403
G1 X116.870 Y104.118 E0.01210
G1 E-3.50000 F3600.00000
G1 F7200.000
G1 X116.905 Y104.214 E-0.04853
G1 X116.952 Y106.555 E-1.11212
G1 X116.941 Y107.111 E-0.26435
G1 E-0.07500 F3600.00000
G1 X111.410 Y115.074 F9000.000
G1 E5.00000 F2400.00000
G1 F900
G1 X111.197 Y115.055 E0.00453
G1 X111.351 Y115.069 E0.00326
G1 X111.423 Y114.860 F9000.000
G1 X111.519 Y115.076
G1 F900
G1 X111.842 Y115.076 E0.00684
G1 X111.579 Y115.077 E0.00557
G1 X111.799 Y115.238 F9000.000
G1 X111.939 Y115.071
G1 F900
G1 X112.552 Y114.976 E0.01313
G1 X112.792 Y114.907 E0.00529
G1 X113.174 Y114.751 E0.00873
G1 X113.367 Y114.643 E0.00468
G1 X113.658 Y114.427 E0.00767
G1 X113.802 Y114.281 E0.00434
G1 X113.992 Y114.002 E0.00714
G1 X114.066 Y113.821 E0.00414
G1 X114.082 Y113.724 E0.00209
G1 X114.190 Y113.724 E0.00229
G1 X114.190 Y114.451 E0.01539
G1 X113.640 Y114.709 E0.01287
G1 X113.280 Y114.837 E0.00808
G1 X112.908 Y114.938 E0.00816
G1 X112.529 Y115.013 E0.00818
G1 X111.999 Y115.068 E0.01127
G1 X112.335 Y115.012 F9000.000
G1 E-3.50000 F3600.00000
G1 F7200.000
G1 X112.552 Y114.976 E-0.26624
G1 X112.792 Y114.907 E-0.11878
G1 X113.174 Y114.751 E-0.19597
G1 X113.367 Y114.643 E-0.10504
G1 X113.658 Y114.427 E-0.17215
G1 X113.802 Y114.281 E-0.09750
G1 X113.992 Y114.002 E-0.16025
G1 X114.066 Y113.821 E-0.09283
G1 X114.082 Y113.724 E-0.04689
G1 X114.190 Y113.724 E-0.05143
G1 X114.190 Y113.972 E-0.11791
G1 E-0.07500 F3600.00000
G1 X107.263 Y110.231 F9000.000
G1 E5.00000 F2400.00000
G1 F900
G1 X107.264 Y109.723 E0.01075
G1 X107.263 Y110.171 E0.00948
G1 E-3.50000 F3600.00000
G1 F7200.000
G1 X107.264 Y109.723 E-0.21281
G1 X107.263 Y110.171 E-0.21281
G1 E-1.07439 F3600.00000
G1 X108.092 Y113.130 F9000.000
G1 E5.00000 F2400.00000
G1 F900
G1 X107.979 Y113.016 E0.00340
G1 X107.652 Y112.606 E0.01110
G1 X107.468 Y112.323 E0.00714
G1 X107.306 Y112.029 E0.00711
G1 X107.100 Y111.547 E0.01110
G1 X107.000 Y111.233 E0.00697
G1 X106.888 Y110.728 E0.01096
G1 X106.835 Y110.220 E0.01082
G1 X106.838 Y109.710 E0.01079
G1 X106.900 Y109.202 E0.01083
G1 X106.980 Y108.854 E0.00754
G1 X107.594 Y107.210 E0.03716
G1 X108.092 Y106.057 E0.02657
G1 X108.092 Y107.709 E0.03497
G1 X107.944 Y108.137 E0.00957
G1 X107.855 Y108.477 E0.00745
G1 X107.743 Y109.078 E0.01293
G1 X107.688 Y109.674 E0.01267
G1 X107.687 Y110.305 E0.01336
G1 X107.747 Y110.954 E0.01379
G1 X107.801 Y111.282 E0.00704
G1 X107.935 Y111.844 E0.01222
G1 X108.092 Y112.302 E0.01024
G1 X108.092 Y113.070 E0.01626
G1 E-3.50000 F3600.00000
G1 F7200.000
G1 X107.979 Y113.016 E-0.05965
G1 X107.652 Y112.606 E-0.24918
G1 X107.468 Y112.323 E-0.16013
G1 X107.306 Y112.029 E-0.15946
G1 X107.100 Y111.547 E-0.24903
G1 X107.000 Y111.233 E-0.15633
G1 X106.888 Y110.728 E-0.24593
G1 X106.856 Y110.424 E-0.14529
G1 E-0.07500 F3600.00000
G1 X108.176 Y105.864 F9000.000
G1 E5.00000 F2400.00000
G1 F900
G1 X108.365 Y105.697 E0.00533
G1 X108.914 Y105.340 E0.01388
G1 X109.393 Y105.098 E0.01134
