; generated by PrusaSlicer 2.2.0+win64 on 2021-05-12 at 07:06:43 UTC

; 

; external perimeters extrusion width = 0.45mm
; perimeters extrusion width = 0.45mm
; infill extrusion width = 0.45mm
; solid infill extrusion width = 0.45mm
; top infill extrusion width = 0.40mm
; support material extrusion width = 0.38mm
; first layer extrusion width = 0.42mm

M201 X500 Y500 Z100 E5000 ; sets maximum accelerations, mm/sec^2
M203 X500 Y500 Z10 E60 ; sets maximum feedrates, mm/sec
M204 P500 R1000 T500 ; sets acceleration (P, T) and retract acceleration (R), mm/sec^2
M205 X8.00 Y8.00 Z0.40 E5.00 ; sets the jerk limits, mm/sec
M205 S0 T0 ; sets the minimum extruding and travel feed rate, mm/sec
M107
G90 ; use absolute coordinates
M83 ; extruder relative mode
M104 S200 ; set extruder temp
M140 S60 ; set bed temp
M190 S60 ; wait for bed temp
M109 S200 ; wait for extruder temp
G28 ; home all
G1 Z2 F240
G1 X2 Y10 F3000
G1 Z0.28 F240
G92 E0.0
G1 Y190 E15.0 F1500.0 ; intro line
G1 X2.3 F5000
G1 Y10 E30 F1200.0 ; intro line
G92 E0.0
G21 ; set units to millimeters
G90 ; use absolute coordinates
M83 ; use relative distances for extrusion
; Filament gcode
;BEFORE_LAYER_CHANGE
;0.2


G1 E-5.00000 F3600.00000
G1 Z0.200 F9000.000
;AFTER_LAYER_CHANGE
;0.2
G1 X96.410 Y88.538
G1 E5.00000 F2400.00000
G1 F1200.000
G1 X97.126 Y88.126 E0.02590
G1 X97.936 Y87.985 E0.02579
G1 X122.205 Y88.159 E0.76095
G1 X122.828 Y88.280 E0.01989
G1 X123.393 Y88.559 E0.01977
G1 X123.865 Y88.977 E0.01977
G1 X124.212 Y89.508 E0.01989
G1 X124.380 Y89.985 E0.01585
G1 X124.443 Y90.490 E0.01597
G1 X124.424 Y101.695 E0.35131
G1 X120.032 Y129.913 E0.89540
G1 X119.866 Y130.442 E0.01740
G1 X119.578 Y130.921 E0.01752
G1 X119.190 Y131.318 E0.01740
G1 X118.721 Y131.613 E0.01740
G1 X118.237 Y131.783 E0.01609
G1 X117.731 Y131.845 E0.01597
G1 X102.314 Y131.841 E0.48340
G1 X101.695 Y131.719 E0.01977
G1 X101.130 Y131.440 E0.01977
G1 X100.659 Y131.021 E0.01977
G1 X100.312 Y130.490 E0.01989
G1 X100.113 Y129.852 E0.02095
G1 X95.560 Y101.351 E0.90497
G1 X95.593 Y89.945 E0.35762
G1 X95.877 Y89.169 E0.02590
G1 X96.371 Y88.584 E0.02402
G1 E-3.50000 F3600.00000
G1 F7200.000
G1 X97.126 Y88.126 E-0.41931
G1 X97.936 Y87.985 E-0.39064
G1 X99.231 Y87.994 E-0.61505
G1 E-0.07500 F3600.00000
G1 X97.933 Y90.362 F9000.000
G1 E5.00000 F2400.00000
G1 F1200.000
G1 X97.933 Y101.217 E0.34036
G1 X98.688 Y101.217 E0.02365
G1 X98.688 Y90.532 E0.33504
G1 X99.442 Y90.532 E0.02365
G1 X99.442 Y101.217 E0.33504
G1 X99.949 Y101.217 E0.01590
G1 X99.949 Y103.572 E0.07382
G1 X100.196 Y103.572 E0.00775
G1 X100.196 Y90.532 E0.40885
G1 X100.950 Y90.532 E0.02365
G1 X100.950 Y103.572 E0.40885
G1 X101.704 Y103.572 E0.02365
G1 X101.704 Y90.532 E0.40885
G1 X102.458 Y90.532 E0.02365
G1 X102.458 Y129.468 E1.22083
G1 X103.213 Y129.468 E0.02365
G1 X103.213 Y90.532 E1.22083
G1 X103.967 Y90.532 E0.02365
G1 X103.967 Y129.468 E1.22083
G1 X104.721 Y129.468 E0.02365
G1 X104.721 Y90.532 E1.22083
G1 X105.475 Y90.532 E0.02365
G1 X105.475 Y100.217 E0.30368
G1 X104.926 Y100.217 E0.01722
G1 X104.926 Y124.491 E0.76109
G1 X105.475 Y124.491 E0.01722
G1 X105.475 Y129.468 E0.15605
G1 X106.229 Y129.468 E0.02365
G1 X106.229 Y124.491 E0.15605
G1 X106.983 Y124.491 E0.02365
G1 X106.983 Y129.468 E0.15605
G1 X107.738 Y129.468 E0.02365
G1 X107.738 Y126.845 E0.08223
G1 X108.492 Y126.845 E0.02365
G1 X108.492 Y129.468 E0.08223
G1 X109.246 Y129.468 E0.02365
G1 X109.246 Y126.845 E0.08223
G1 X110.000 Y126.845 E0.02365
G1 X110.000 Y129.468 E0.08224
G1 X110.754 Y129.468 E0.02365
G1 X110.754 Y126.845 E0.08224
G1 X111.508 Y126.845 E0.02365
G1 X111.508 Y129.468 E0.08224
G1 X112.262 Y129.468 E0.02365
G1 X112.262 Y126.845 E0.08224
G1 X112.720 Y126.845 E0.01435
G1 X112.720 Y124.491 E0.07381
G1 X113.017 Y124.491 E0.00930
G1 X113.017 Y129.468 E0.15605
G1 X113.771 Y129.468 E0.02365
G1 X113.771 Y124.491 E0.15605
G1 X114.525 Y124.491 E0.02365
G1 X114.525 Y129.468 E0.15605
G1 X115.279 Y129.468 E0.02365
G1 X115.279 Y90.532 E1.22083
G1 X116.033 Y90.532 E0.02365
G1 X116.033 Y129.468 E1.22083
G1 X116.787 Y129.468 E0.02365
G1 X116.787 Y90.532 E1.22083
G1 X117.542 Y90.532 E0.02365
G1 X117.542 Y129.468 E1.22083
G1 X117.697 Y129.468 E0.00487
G1 X117.697 Y103.572 E0.81197
G1 X118.296 Y103.572 E0.01877
G1 X118.296 Y90.532 E0.40885
G1 X119.050 Y90.532 E0.02365
G1 X119.050 Y103.572 E0.40885
G1 X119.804 Y103.572 E0.02365
G1 X119.804 Y90.532 E0.40885
G1 X120.558 Y90.532 E0.02365
G1 X120.558 Y101.217 E0.33504
G1 X121.312 Y101.217 E0.02365
G1 X121.312 Y90.532 E0.33504
G1 X122.067 Y90.532 E0.02365
G1 X122.067 Y101.387 E0.34036
G1 E-3.50000 F3600.00000
G1 F7200.000
G1 X122.067 Y98.387 E-1.42500
G1 E-0.07500 F3600.00000
G1 X114.525 Y100.387 F9000.000
G1 E5.00000 F2400.00000
G1 F1200.000
G1 X114.525 Y90.532 E0.30900
G1 X114.074 Y90.532 E0.01413
G1 X114.074 Y92.886 E0.07382
G1 X113.771 Y92.886 E0.00951
G1 X113.771 Y100.217 E0.22987
G1 X113.017 Y100.217 E0.02365
G1 X113.017 Y92.886 E0.22987
G1 X112.262 Y92.886 E0.02365
G1 X112.262 Y100.217 E0.22987
G1 X111.988 Y100.217 E0.00859
G1 X111.988 Y101.419 E0.03767
G1 X112.262 Y101.326 E0.00907
G1 X112.262 Y123.316 E0.68948
G1 X111.731 Y123.738 E0.02127
G1 X111.508 Y123.885 E0.00837
G1 X111.508 Y123.378 E0.01589
G1 X111.138 Y123.569 E0.01305
G1 X110.754 Y123.678 E0.01252
G1 X110.754 Y124.224 E0.01714
G1 X110.000 Y124.208 E0.02365
G1 X110.000 Y123.778 E0.01347
G1 X109.638 Y123.770 E0.01134
G1 X109.246 Y123.678 E0.01264
G1 X109.246 Y124.224 E0.01714
G1 X109.211 Y124.223 E0.00110
G1 X108.951 Y124.126 E0.00867
G1 X108.492 Y123.885 E0.01628
G1 X108.492 Y123.378 E0.01589
G1 X108.432 Y123.347 E0.00210
G1 X108.300 Y123.129 E0.00799
G1 X108.296 Y121.491 E0.05135
G1 X107.926 Y121.491 E0.01161
G1 X107.926 Y103.967 E0.54945
G1 X108.265 Y103.967 E0.01063
G1 X108.268 Y101.460 E0.07860
G1 X108.492 Y101.277 E0.00908
G1 X108.492 Y95.240 E0.18927
G1 X109.246 Y95.240 E0.02365
G1 X109.246 Y101.295 E0.18983
G1 X110.000 Y101.341 E0.02369
G1 X110.000 Y95.240 E0.19128
G1 X110.754 Y95.240 E0.02365
G1 X110.754 Y101.295 E0.18983
G1 X111.397 Y101.186 E0.02045
G1 X111.508 Y101.277 E0.00451
G1 X111.508 Y95.071 E0.19459
G1 E-3.50000 F3600.00000
G1 F7200.000
G1 X111.508 Y98.071 E-1.42500
G1 E-0.07500 F3600.00000
G1 X106.229 Y92.716 F9000.000
G1 E5.00000 F2400.00000
G1 F1200.000
G1 X106.229 Y100.217 E0.23519
G1 X106.983 Y100.217 E0.02365
G1 X106.983 Y92.886 E0.22987
G1 X107.738 Y92.886 E0.02365
G1 X107.738 Y100.217 E0.22987
G1 X108.011 Y100.217 E0.00859
G1 X108.012 Y101.419 E0.03767
G1 X107.738 Y101.326 E0.00907
G1 X107.738 Y123.537 E0.69642
G1 X107.783 Y123.620 F9000.000
G1 F1200.000
G1 X107.783 Y126.480 E0.08016
G1 X108.337 Y126.480 E0.01553
G1 X108.337 Y124.219 E0.06338
G1 X108.892 Y124.494 E0.01735
G1 X108.892 Y126.480 E0.05565
G1 X109.446 Y126.480 E0.01553
G1 X109.446 Y124.583 E0.05315
G1 X110.000 Y124.574 E0.01554
G1 X110.000 Y126.480 E0.05342
G1 X110.554 Y126.480 E0.01553
G1 X110.554 Y124.583 E0.05315
G1 X110.792 Y124.593 E0.00666
G1 X110.882 Y124.579 E0.00256
G1 X111.108 Y124.494 E0.00678
G1 X111.108 Y126.480 E0.05565
G1 X111.663 Y126.480 E0.01553
G1 X111.663 Y124.219 E0.06338
G1 X111.944 Y124.036 E0.00940
G1 X112.217 Y123.822 E0.00972
G1 X112.217 Y126.480 E0.07449
G1 X112.354 Y126.480 E0.00385
G1 X112.354 Y124.125 E0.06599
G1 X112.771 Y124.125 E0.01169
G1 X112.771 Y100.583 E0.65986
G1 X113.325 Y100.583 E0.01553
G1 X113.325 Y124.125 E0.65986
G1 X113.880 Y124.125 E0.01553
G1 X113.880 Y100.583 E0.65986
G1 X114.434 Y100.583 E0.01553
G1 X114.434 Y124.285 E0.66432
G1 E-3.50000 F3600.00000
G1 F7200.000
G1 X114.434 Y121.285 E-1.42500
G1 E-0.07500 F3600.00000
G1 X107.229 Y124.285 F9000.000
G1 E5.00000 F2400.00000
G1 F1200.000
G1 X107.229 Y100.583 E0.66432
G1 X106.675 Y100.583 E0.01553
G1 X106.675 Y124.125 E0.65986
G1 X106.120 Y124.125 E0.01553
G1 X106.120 Y100.583 E0.65986
G1 X105.566 Y100.583 E0.01553
G1 X105.566 Y124.285 E0.66432
G1 E-3.50000 F3600.00000
G1 F7200.000
G1 X105.566 Y121.285 E-1.42500
G1 E-0.07500 F3600.00000
G1 X109.721 Y122.327 F9000.000
G1 E5.00000 F2400.00000
G1 F1200.000
G1 X109.684 Y108.956 E0.41923
G1 X109.689 Y102.751 E0.19455
G1 X110.000 Y102.765 E0.00975
G1 X110.311 Y102.751 E0.00976
G1 X110.317 Y107.708 E0.15541
G1 X110.279 Y122.332 E0.45852
G1 X110.179 Y122.355 E0.00321
G1 X109.779 Y122.341 E0.01256
G1 X109.345 Y122.621 F9000.000
G1 F1200.000
G1 X109.307 Y108.956 E0.42843
G1 X109.313 Y102.353 E0.20705
G1 X110.000 Y102.387 E0.02158
G1 X110.688 Y102.353 E0.02159
G1 X110.694 Y107.708 E0.16791
G1 X110.655 Y122.622 E0.46762
G1 X110.198 Y122.733 E0.01475
G1 X109.775 Y122.729 E0.01327
G1 X109.403 Y122.635 E0.01203
G1 X109.140 Y122.958 F9000.000
G1 F1200.000
G1 X108.968 Y122.871 E0.00604
G1 X108.930 Y108.957 E0.43627
G1 X108.936 Y101.919 E0.22066
G1 X109.393 Y101.983 E0.01448
G1 X110.000 Y102.010 E0.01905
G1 X110.607 Y101.983 E0.01905
G1 X111.064 Y101.919 E0.01448
G1 X111.071 Y107.708 E0.18151
G1 X111.032 Y122.871 E0.47542
G1 X110.859 Y122.958 E0.00607
G1 X110.333 Y123.097 E0.01706
G1 X110.217 Y123.110 E0.00366
G1 X109.726 Y123.106 E0.01538
G1 X109.198 Y122.973 E0.01708
G1 X109.108 Y122.768 F9000.000
G1 X110.000 Y122.165
G1 F1200.000
G1 X109.999 Y115.561 E0.11948
G1 X110.000 Y103.076 E0.26458
M106 S255
;BEFORE_LAYER_CHANGE
;0.32


G1 E-3.50000 F3600.00000
G1 F7200.000
G1 X110.000 Y106.076 E-1.42500
G1 E-0.07500 F3600.00000
G1 Z0.320 F9000.000
;AFTER_LAYER_CHANGE
;0.32
G1 X95.593 Y89.945
G1 E5.00000 F2400.00000
G1 F1128
G1 X95.877 Y89.169 E0.01625
G1 X96.410 Y88.538 E0.01625
G1 X97.126 Y88.126 E0.01625
G1 X97.936 Y87.985 E0.01618
G1 X122.205 Y88.159 E0.47736
G1 X122.828 Y88.280 E0.01247
G1 X123.393 Y88.559 E0.01240
G1 X123.865 Y88.977 E0.01240
G1 X124.212 Y89.508 E0.01247
G1 X124.380 Y89.985 E0.00995
G1 X124.443 Y90.490 E0.01002
G1 X124.424 Y101.695 E0.22038
G1 X120.032 Y129.913 E0.56170
G1 X119.866 Y130.442 E0.01091
G1 X119.578 Y130.921 E0.01099
G1 X119.190 Y131.318 E0.01091
G1 X118.721 Y131.613 E0.01091
G1 X118.237 Y131.783 E0.01009
G1 X117.731 Y131.845 E0.01002
G1 X102.314 Y131.841 E0.30324
G1 X101.695 Y131.719 E0.01240
G1 X101.130 Y131.440 E0.01240
G1 X100.659 Y131.021 E0.01240
G1 X100.312 Y130.490 E0.01247
G1 X100.113 Y129.852 E0.01314
G1 X95.560 Y101.351 E0.56770
G1 X95.593 Y90.005 E0.22316
G1 E-3.50000 F3600.00000
G1 F7200.000
G1 X95.877 Y89.169 E-0.41932
G1 X96.410 Y88.538 E-0.39242
G1 X97.126 Y88.126 E-0.39242
G1 X97.584 Y88.046 E-0.22084
G1 E-0.07500 F3600.00000
G1 X109.019 Y102.805 F9000.000
G1 E5.00000 F2400.00000
G1 F1128
G1 X109.327 Y102.845 E0.00657
G1 X110.000 Y102.874 E0.01426
G1 X110.673 Y102.845 E0.01426
G1 X110.980 Y102.805 E0.00655
G1 X110.963 Y122.467 E0.41615
G1 X110.487 Y122.704 E0.01125
G1 X110.180 Y122.780 E0.00670
G1 X109.783 Y122.774 E0.00840
G1 X109.413 Y122.664 E0.00817
G1 X109.037 Y122.465 E0.00900
G1 X109.019 Y102.865 E0.41485
G1 X109.363 Y102.422 F9000.000
G1 F1128
G1 X110.000 Y102.449 E0.01349
G1 X110.637 Y102.422 E0.01349
G1 X111.405 Y102.313 E0.01643
G1 X111.387 Y122.681 E0.43111
G1 X111.221 Y122.809 E0.00442
G1 X110.835 Y123.017 E0.00930
G1 X110.625 Y123.106 E0.00482
G1 X110.214 Y123.205 E0.00895
G1 X109.786 Y123.205 E0.00905
G1 X109.252 Y123.059 E0.01172
G1 X108.776 Y122.807 E0.01139
G1 X108.613 Y122.681 E0.00436
G1 X108.595 Y102.313 E0.43111
G1 X109.304 Y102.414 E0.01517
G1 X109.358 Y101.994 F9000.000
G1 F1128
G1 X110.000 Y102.025 E0.01359
G1 X110.600 Y101.999 E0.01271
G1 X111.202 Y101.921 E0.01284
G1 X111.474 Y101.867 E0.00589
G1 F1500.000
G1 X111.830 Y101.776 E0.01823
G1 X111.811 Y122.890 E1.04795
G1 X111.453 Y123.166 E0.02242
G1 X111.018 Y123.400 E0.02453
G1 X110.763 Y123.508 E0.01377
G1 X110.248 Y123.629 E0.02626
G1 X109.752 Y123.629 E0.02459
G1 X109.593 Y123.603 E0.00798
G1 X109.091 Y123.453 E0.02603
G1 X108.546 Y123.165 E0.03059
G1 X108.189 Y122.890 E0.02237
G1 X108.170 Y101.776 E1.04796
G1 X108.526 Y101.867 E0.01824
G1 F1128
G1 X109.299 Y101.986 E0.01656
G1 E-3.50000 F3600.00000
G1 F7200.000
G1 X110.000 Y102.025 E-0.33350
G1 X110.600 Y101.999 E-0.28531
G1 X111.202 Y101.921 E-0.28809
G1 X111.474 Y101.867 E-0.13207
G1 E-0.46102 F3600.00000
G1 X109.725 Y122.624 F9000.000
G1 E5.00000 F2400.00000
G1 F1128
G1 X110.645 Y121.704 E0.02783
G1 X110.646 Y121.097 E0.01296
G1 X109.430 Y122.313 E0.03675
G1 X109.355 Y122.274 E0.00180
G1 X109.355 Y121.782 E0.01051
G1 X110.646 Y120.491 E0.03903
G1 X110.647 Y119.884 E0.01296
G1 X109.354 Y121.177 E0.03907
G1 X109.354 Y120.571 E0.01294
G1 X110.647 Y119.278 E0.03910
G1 X110.648 Y118.671 E0.01296
G1 X109.353 Y119.966 E0.03913
G1 X109.353 Y119.361 E0.01294
G1 X110.648 Y118.065 E0.03917
G1 X110.649 Y117.459 E0.01296
G1 X109.352 Y118.755 E0.03920
G1 X109.352 Y118.150 E0.01294
G1 X110.649 Y116.852 E0.03923
G1 X110.650 Y116.246 E0.01296
G1 X109.351 Y117.545 E0.03926
G1 X109.350 Y116.939 E0.01294
G1 X110.650 Y115.639 E0.03930
G1 X110.651 Y115.033 E0.01296
G1 X109.350 Y116.334 E0.03933
G1 X109.349 Y115.729 E0.01294
G1 X110.651 Y114.426 E0.03936
G1 X110.652 Y113.820 E0.01296
G1 X109.349 Y115.123 E0.03940
G1 X109.348 Y114.518 E0.01294
G1 X110.653 Y113.214 E0.03943
G1 X110.653 Y112.607 E0.01296
G1 X109.348 Y113.913 E0.03946
G1 X109.347 Y113.307 E0.01294
G1 X110.654 Y112.001 E0.03950
G1 X110.654 Y111.394 E0.01296
G1 X109.346 Y112.702 E0.03953
G1 X109.346 Y112.097 E0.01294
G1 X110.655 Y110.788 E0.03956
G1 X110.655 Y110.181 E0.01296
G1 X109.345 Y111.491 E0.03959
G1 X109.345 Y110.886 E0.01294
G1 X110.656 Y109.575 E0.03963
G1 X110.656 Y108.969 E0.01296
G1 X109.344 Y110.281 E0.03966
G1 X109.344 Y109.675 E0.01294
G1 X110.657 Y108.362 E0.03969
G1 X110.657 Y107.756 E0.01296
G1 X109.343 Y109.070 E0.03973
G1 X109.343 Y108.465 E0.01294
G1 X110.658 Y107.149 E0.03976
G1 X110.658 Y106.543 E0.01296
G1 X109.342 Y107.859 E0.03979
G1 X109.341 Y107.254 E0.01294
G1 X110.659 Y105.936 E0.03982
G1 X110.659 Y105.330 E0.01296
G1 X109.341 Y106.649 E0.03986
G1 X109.340 Y106.043 E0.01294
G1 X110.660 Y104.724 E0.03989
G1 X110.661 Y104.117 E0.01296
G1 X109.340 Y105.438 E0.03992
G1 X109.339 Y104.833 E0.01294
G1 X110.661 Y103.511 E0.03996
G1 X110.661 Y103.164 E0.00741
G1 X110.390 Y103.176 E0.00580
G1 X109.339 Y104.227 E0.03179
G1 X109.338 Y103.622 E0.01294
G1 X109.960 Y103.000 E0.01881
;BEFORE_LAYER_CHANGE
;0.41


G1 E-3.50000 F3600.00000
G1 F7200.000
G1 X109.338 Y103.622 E-0.41794
G1 X109.339 Y104.227 E-0.28753
G1 X110.390 Y103.176 E-0.70636
G1 X110.418 Y103.175 E-0.01317
G1 E-0.07500 F3600.00000
G1 Z0.410 F9000.000
;AFTER_LAYER_CHANGE
;0.41
G1 X107.229 Y100.897
G1 E5.00000 F2400.00000
G1 F956
G1 X107.229 Y98.229 E0.07803
G1 X106.675 Y98.229 E0.01621
G1 X106.675 Y126.480 E0.82613
G1 X107.229 Y126.480 E0.01621
G1 X107.229 Y123.705 E0.08113
G1 X107.473 Y123.955 E0.01021
G1 X107.783 Y124.218 E0.01188
G1 X107.783 Y126.480 E0.06615
G1 X108.337 Y126.480 E0.01621
G1 X108.337 Y124.613 E0.05459
G1 X108.445 Y124.677 E0.00366
G1 X108.581 Y124.709 E0.00407
G1 X108.892 Y124.685 E0.00912
G1 X108.892 Y126.480 E0.05248
G1 X109.446 Y126.480 E0.01621
G1 X109.446 Y124.658 E0.05328
G1 X110.000 Y124.648 E0.01621
G1 X110.000 Y126.480 E0.05357
G1 X110.554 Y126.480 E0.01621
G1 X110.554 Y124.658 E0.05328
G1 X111.108 Y124.685 E0.01623
G1 X111.108 Y126.480 E0.05248
G1 X111.663 Y126.480 E0.01621
G1 X111.663 Y124.613 E0.05459
G1 X111.990 Y124.395 E0.01150
G1 X112.217 Y124.218 E0.00842
G1 X112.217 Y126.480 E0.06615
G1 X112.771 Y126.480 E0.01621
G1 X112.771 Y123.705 E0.08113
G1 X113.213 Y123.249 E0.01858
G1 X113.278 Y123.088 E0.00508
G1 X113.278 Y122.981 E0.00314
G1 X113.260 Y108.400 E0.42636
G1 X113.276 Y100.944 E0.21803
G1 X112.872 Y100.679 E0.01412
G1 X112.771 Y100.723 E0.00322
G1 X112.771 Y98.229 E0.07295
G1 X113.325 Y98.229 E0.01621
G1 X113.325 Y126.480 E0.82613
G1 X113.880 Y126.480 E0.01621
G1 X113.880 Y98.229 E0.82613
G1 X114.434 Y98.229 E0.01621
G1 X114.434 Y126.639 E0.83079
G1 E-3.50000 F3600.00000
G1 F7200.000
G1 X114.434 Y123.639 E-1.42500
G1 E-0.07500 F3600.00000
G1 X106.120 Y126.639 F9000.000
G1 E5.00000 F2400.00000
G1 F956
G1 X106.120 Y98.229 E0.83079
G1 X105.566 Y98.229 E0.01621
G1 X105.566 Y126.639 E0.83079
G1 E-3.50000 F3600.00000
G1 F7200.000
G1 X105.566 Y123.639 E-1.42500
G1 E-0.07500 F3600.00000
