; generated by PrusaSlicer 2.2.0+win64 on 2021-05-12 at 16:56:53 UTC

; 

; external perimeters extrusion width = 0.45mm
; perimeters extrusion width = 0.45mm
; infill extrusion width = 0.45mm
; solid infill extrusion width = 0.45mm
; top infill extrusion width = 0.40mm
; support material extrusion width = 0.38mm
; first layer extrusion width = 0.42mm

M201 X500 Y500 Z100 E5000 ; sets maximum accelerations, mm/sec^2
M203 X500 Y500 Z10 E60 ; sets maximum feedrates, mm/sec
M204 P500 R1000 T500 ; sets acceleration (P, T) and retract acceleration (R), mm/sec^2
M205 X8.00 Y8.00 Z0.40 E5.00 ; sets the jerk limits, mm/sec
M205 S0 T0 ; sets the minimum extruding and travel feed rate, mm/sec
M107
G90 ; use absolute coordinates
M83 ; extruder relative mode
M104 S200 ; set extruder temp
M140 S60 ; set bed temp
M190 S60 ; wait for bed temp
M109 S200 ; wait for extruder temp
G28 ; home all
G1 Z2 F240
G1 X2 Y10 F3000
G1 Z0.28 F240
G92 E0.0
G1 Y190 E15.0 F1500.0 ; intro line
G1 X2.3 F5000
G1 Y10 E30 F1200.0 ; intro line
G92 E0.0
G21 ; set units to millimeters
G90 ; use absolute coordinates
M83 ; use relative distances for extrusion
; Filament gcode
;BEFORE_LAYER_CHANGE
;0.2


G1 E-5.00000 F3600.00000
G1 Z0.200 F9000.000
;AFTER_LAYER_CHANGE
;0.2
G1 X102.682 Y95.675
G1 E5.00000 F2400.00000
G1 F1200.000
G1 X103.177 Y95.272 E0.02001
G1 X103.751 Y94.994 E0.02001
G1 X104.374 Y94.855 E0.02001
G1 X115.283 Y94.840 E0.34205
G1 X115.973 Y94.929 E0.02180
G1 X116.618 Y95.188 E0.02180
G1 X117.178 Y95.600 E0.02180
G1 X117.615 Y96.135 E0.02167
G1 X122.290 Y105.826 E0.33737
G1 X122.472 Y106.326 E0.01669
G1 X122.558 Y106.995 E0.02116
G1 X122.558 Y120.274 E0.41635
G1 X122.451 Y120.982 E0.02243
G1 X122.168 Y121.634 E0.02231
G1 X121.745 Y122.175 E0.02154
G1 X121.204 Y122.593 E0.02141
G1 X120.573 Y122.865 E0.02154
G1 X119.895 Y122.974 E0.02154
G1 X104.647 Y122.974 E0.47809
G1 X99.933 Y122.793 E0.14791
G1 X99.336 Y122.668 E0.01912
G1 X98.782 Y122.415 E0.01912
G1 X98.264 Y122.014 E0.02052
G1 X97.858 Y121.507 E0.02039
G1 X97.582 Y120.918 E0.02039
G1 X97.451 Y120.276 E0.02052
G1 X97.466 Y106.478 E0.43264
G1 X97.701 Y105.675 E0.02625
G1 X102.293 Y96.181 E0.33065
G1 X102.645 Y95.723 E0.01813
G1 X102.942 Y95.954 F9000.000
G1 F1200.000
G1 X103.400 Y95.577 E0.01860
G1 X103.902 Y95.341 E0.01740
G1 X104.445 Y95.227 E0.01740
G1 X115.283 Y95.217 E0.33981
G1 X115.882 Y95.295 E0.01894
G1 X116.445 Y95.523 E0.01906
G1 X116.932 Y95.887 E0.01906
G1 X117.310 Y96.358 E0.01894
G1 X122.110 Y106.436 E0.35001
G1 X122.181 Y106.998 E0.01775
G1 X122.181 Y120.263 E0.41591
G1 X122.087 Y120.882 E0.01965
G1 X121.835 Y121.456 E0.01965
G1 X121.466 Y121.920 E0.01858
G1 X120.998 Y122.277 E0.01846
G1 X120.456 Y122.507 E0.01846
G1 X119.870 Y122.597 E0.01858
G1 X104.664 Y122.597 E0.47678
G1 X99.981 Y122.419 E0.14692
G1 X99.453 Y122.309 E0.01692
G1 X98.963 Y122.083 E0.01692
G1 X98.517 Y121.734 E0.01775
G1 X98.167 Y121.289 E0.01775
G1 X97.931 Y120.774 E0.01775
G1 X97.825 Y120.222 E0.01763
G1 X97.842 Y106.508 E0.43000
G1 X98.046 Y105.828 E0.02225
G1 X102.625 Y96.361 E0.32974
G1 X102.906 Y96.002 E0.01428
G1 E-3.50000 F3600.00000
G1 F7200.000
G1 X103.400 Y95.577 E-0.30966
G1 X103.902 Y95.341 E-0.26355
G1 X104.445 Y95.227 E-0.26355
G1 X105.683 Y95.226 E-0.58824
G1 E-0.07500 F3600.00000
G1 X100.196 Y106.842 F9000.000
G1 E5.00000 F2400.00000
G1 F1200.000
G1 X100.196 Y120.051 E0.41417
G1 X100.950 Y120.051 E0.02365
G1 X100.950 Y107.011 E0.40885
G1 X101.704 Y107.011 E0.02365
G1 X101.704 Y120.051 E0.40885
G1 X102.458 Y120.051 E0.02365
G1 X102.458 Y104.657 E0.48267
G1 X103.213 Y104.657 E0.02365
G1 X103.213 Y120.051 E0.48267
G1 X103.967 Y120.051 E0.02365
G1 X103.967 Y104.657 E0.48267
G1 X104.657 Y104.657 E0.02165
G1 X104.657 Y97.594 E0.22145
G1 X104.721 Y97.594 E0.00200
G1 X104.721 Y120.221 E0.70944
G1 E-3.50000 F3600.00000
G1 F7200.000
G1 X104.721 Y117.221 E-1.42500
G1 E-0.07500 F3600.00000
G1 X112.217 Y107.486 F9000.000
G1 E5.00000 F2400.00000
G1 F1200.000
G1 X112.217 Y112.332 E0.13581
G1 X111.508 Y113.251 F9000.000
G1 F1200.000
G1 X111.508 Y110.585 E0.08359
G1 X111.286 Y109.936 E0.02153
G1 X111.508 Y109.879 E0.00721
G1 X111.508 Y109.269 E0.01913
G1 X111.344 Y108.728 E0.01772
G1 X111.232 Y108.435 E0.00984
G1 X111.508 Y108.361 E0.00898
G1 X111.508 Y107.840 E0.01632
G1 X111.424 Y107.778 E0.00328
G1 X111.424 Y108.077 E0.00936
G1 X111.116 Y108.135 E0.00983
G1 X111.005 Y107.846 E0.00973
G1 X110.864 Y107.749 E0.00538
G1 X110.754 Y107.749 E0.00343
G1 X110.754 Y111.659 E0.12260
G1 X110.615 Y111.532 E0.00591
G1 X110.372 Y111.388 E0.00886
G1 X110.267 Y111.350 E0.00350
G1 X110.000 Y111.307 E0.00848
G1 X110.000 Y107.749 E0.11158
G1 X109.246 Y107.749 E0.02365
G1 X109.246 Y111.655 E0.12249
G1 X109.060 Y111.856 E0.00856
G1 X108.852 Y112.156 E0.01147
G1 X108.646 Y112.522 E0.01316
G1 X108.492 Y112.861 E0.01168
G1 X108.492 Y110.587 E0.07130
G1 X108.727 Y109.919 E0.02221
G1 X108.492 Y109.849 E0.00768
G1 X108.492 Y109.258 E0.01854
G1 X108.764 Y108.425 E0.02749
G1 X108.492 Y108.356 E0.00881
G1 X108.492 Y107.629 E0.02279
G1 E-3.50000 F3600.00000
G1 F7200.000
G1 X108.492 Y108.356 E-0.34529
G1 X108.764 Y108.425 E-0.13342
G1 X108.492 Y109.258 E-0.41648
G1 X108.492 Y109.849 E-0.28089
G1 X108.727 Y109.919 E-0.11637
G1 X108.634 Y110.182 E-0.13255
G1 E-0.07500 F3600.00000
G1 X105.566 Y109.841 F9000.000
G1 E5.00000 F2400.00000
G1 F1200.000
G1 X105.566 Y114.709 E0.13644
G1 X106.120 Y114.709 E0.01553
G1 X106.120 Y110.000 E0.13197
G1 X106.675 Y110.000 E0.01553
G1 X106.675 Y114.709 E0.13197
G1 X107.229 Y114.709 E0.01553
G1 X107.229 Y110.000 E0.13197
G1 X107.646 Y110.000 E0.01169
G1 X107.646 Y107.646 E0.06599
G1 X107.783 Y107.646 E0.00385
G1 X107.783 Y111.698 E0.11358
G1 X107.489 Y112.854 E0.03342
G1 X107.439 Y113.130 E0.00786
G1 X107.707 Y113.447 E0.01165
G1 X107.783 Y113.447 E0.00214
G1 X107.783 Y114.709 E0.03535
G1 X108.337 Y114.709 E0.01553
G1 X108.337 Y113.447 E0.03535
G1 X108.892 Y113.447 E0.01553
G1 X108.892 Y114.709 E0.03535
G1 X109.446 Y114.709 E0.01553
G1 X109.446 Y113.447 E0.03535
G1 X110.000 Y113.447 E0.01553
G1 X110.000 Y114.709 E0.03535
G1 X110.554 Y114.709 E0.01553
G1 X110.554 Y113.447 E0.03535
G1 X111.108 Y113.447 E0.01553
G1 X111.108 Y114.709 E0.03535
G1 X111.663 Y114.709 E0.01553
G1 X111.663 Y113.447 E0.03535
G1 X112.217 Y113.447 E0.01553
G1 X112.217 Y114.709 E0.03535
G1 X112.771 Y114.709 E0.01553
G1 X112.771 Y110.000 E0.13197
G1 X113.325 Y110.000 E0.01553
G1 X113.325 Y114.709 E0.13197
G1 X113.880 Y114.709 E0.01553
G1 X113.880 Y110.000 E0.13197
G1 X114.434 Y110.000 E0.01553
G1 X114.434 Y114.868 E0.13644
G1 E-3.50000 F3600.00000
G1 F7200.000
G1 X114.434 Y111.868 E-1.42500
G1 E-0.07500 F3600.00000
G1 X114.525 Y120.221 F9000.000
G1 E5.00000 F2400.00000
G1 F1200.000
G1 X114.525 Y115.074 E0.16137
G1 X113.771 Y115.074 E0.02365
G1 X113.771 Y120.051 E0.15605
G1 X113.017 Y120.051 E0.02365
G1 X113.017 Y115.074 E0.15605
G1 X112.262 Y115.074 E0.02365
G1 X112.262 Y120.051 E0.15605
G1 X111.508 Y120.051 E0.02365
G1 X111.508 Y115.074 E0.15605
G1 X110.754 Y115.074 E0.02365
G1 X110.754 Y120.051 E0.15605
G1 X110.000 Y120.051 E0.02365
G1 X110.000 Y115.074 E0.15605
G1 X109.246 Y115.074 E0.02365
G1 X109.246 Y120.051 E0.15605
G1 X108.492 Y120.051 E0.02365
G1 X108.492 Y115.074 E0.15605
G1 X107.738 Y115.074 E0.02365
G1 X107.738 Y120.051 E0.15605
G1 X106.983 Y120.051 E0.02365
G1 X106.983 Y115.074 E0.15605
G1 X106.229 Y115.074 E0.02365
G1 X106.229 Y120.051 E0.15605
G1 X105.475 Y120.051 E0.02365
G1 X105.475 Y115.074 E0.15605
G1 X104.926 Y115.074 E0.01722
G1 X104.926 Y109.634 E0.17057
G1 X105.475 Y109.634 E0.01722
G1 X105.475 Y97.594 E0.37750
G1 X106.229 Y97.594 E0.02365
G1 X106.229 Y109.634 E0.37750
G1 X106.983 Y109.634 E0.02365
G1 X106.983 Y97.594 E0.37750
G1 X107.738 Y97.594 E0.02365
G1 X107.738 Y107.280 E0.30368
G1 X108.492 Y107.280 E0.02365
G1 X108.492 Y97.594 E0.30368
G1 X109.246 Y97.594 E0.02365
G1 X109.246 Y107.280 E0.30368
G1 X110.000 Y107.280 E0.02365
G1 X110.000 Y97.594 E0.30368
G1 X110.754 Y97.594 E0.02365
G1 X110.754 Y107.280 E0.30368
G1 X111.508 Y107.280 E0.02365
G1 X111.508 Y97.594 E0.30368
G1 X112.262 Y97.594 E0.02365
G1 X112.262 Y107.280 E0.30368
G1 X112.720 Y107.280 E0.01434
G1 X112.720 Y109.634 E0.07382
G1 X113.017 Y109.634 E0.00930
G1 X113.017 Y97.594 E0.37750
G1 X113.771 Y97.594 E0.02365
G1 X113.771 Y109.634 E0.37750
G1 X114.525 Y109.634 E0.02365
G1 X114.525 Y97.594 E0.37750
G1 X115.279 Y97.594 E0.02365
G1 X115.279 Y120.051 E0.70412
G1 X116.033 Y120.051 E0.02365
G1 X116.033 Y104.657 E0.48267
G1 X116.787 Y104.657 E0.02365
G1 X116.787 Y120.051 E0.48267
G1 X117.542 Y120.051 E0.02365
G1 X117.542 Y104.657 E0.48267
G1 X117.697 Y104.657 E0.00487
G1 X117.697 Y107.011 E0.07382
G1 X118.296 Y107.011 E0.01877
G1 X118.296 Y120.051 E0.40885
G1 X119.050 Y120.051 E0.02365
G1 X119.050 Y107.011 E0.40885
G1 X119.804 Y107.011 E0.02365
G1 X119.804 Y120.221 E0.41417
G1 E-3.50000 F3600.00000
G1 F7200.000
G1 X119.804 Y117.221 E-1.42500
G1 E-0.07500 F3600.00000
G1 X110.028 Y112.413 F9000.000
G1 E5.00000 F2400.00000
G1 F1200.000
G1 X109.969 Y112.413 E0.00184
G1 X109.983 Y112.397 E0.00067
G1 X109.997 Y111.984 F9000.000
G1 F1200.000
G1 X110.099 Y112.002 E0.00326
G1 X110.223 Y112.076 E0.00451
G1 X110.379 Y112.230 E0.00688
G1 X110.576 Y112.505 E0.01062
G1 X110.723 Y112.790 E0.01005
G1 X109.274 Y112.790 E0.04544
G1 X109.412 Y112.521 E0.00949
G1 X109.579 Y112.279 E0.00920
G1 X109.739 Y112.107 E0.00738
G1 X109.875 Y112.013 E0.00519
G1 X109.938 Y111.998 E0.00203
G1 X110.051 Y112.072 F9000.000
M106 S255
;BEFORE_LAYER_CHANGE
;0.32


G1 E-3.50000 F3600.00000
G1 F7200.000
G1 X110.099 Y112.002 E-0.07633
G1 X110.223 Y112.076 E-0.06839
G1 X110.379 Y112.230 E-0.10416
G1 X110.576 Y112.505 E-0.16092
G1 X110.723 Y112.790 E-0.15224
G1 X109.274 Y112.790 E-0.68841
G1 X109.412 Y112.521 E-0.14372
G1 X109.449 Y112.468 E-0.03082
G1 E-0.07500 F3600.00000
G1 Z0.320 F9000.000
;AFTER_LAYER_CHANGE
;0.32
G1 X97.466 Y106.478
G1 E5.00000 F2400.00000
G1 F900
G1 X97.701 Y105.675 E0.01647
G1 X102.293 Y96.181 E0.20742
G1 X102.682 Y95.675 E0.01255
G1 X103.177 Y95.272 E0.01255
G1 X103.751 Y94.994 E0.01255
G1 X104.374 Y94.855 E0.01255
G1 X115.283 Y94.840 E0.21458
G1 X115.973 Y94.929 E0.01367
G1 X116.618 Y95.188 E0.01367
G1 X117.178 Y95.600 E0.01367
G1 X117.615 Y96.135 E0.01359
G1 X122.290 Y105.826 E0.21164
G1 X122.472 Y106.326 E0.01047
G1 X122.558 Y106.995 E0.01327
G1 X122.558 Y120.274 E0.26118
G1 X122.451 Y120.982 E0.01407
G1 X122.168 Y121.634 E0.01399
G1 X121.745 Y122.175 E0.01351
G1 X121.204 Y122.593 E0.01343
G1 X120.573 Y122.865 E0.01351
G1 X119.895 Y122.974 E0.01351
G1 X104.647 Y122.974 E0.29991
G1 X99.933 Y122.793 E0.09279
G1 X99.336 Y122.668 E0.01199
G1 X98.782 Y122.415 E0.01199
G1 X98.264 Y122.014 E0.01287
G1 X97.858 Y121.507 E0.01279
G1 X97.582 Y120.918 E0.01279
G1 X97.451 Y120.276 E0.01287
G1 X97.466 Y106.538 E0.27022
G1 X97.842 Y106.538 F9000.000
G1 F900
G1 X98.046 Y105.828 E0.01454
G1 X102.625 Y96.361 E0.20685
G1 X102.967 Y95.923 E0.01091
G1 X103.400 Y95.577 E0.01091
G1 X103.902 Y95.341 E0.01091
G1 X104.445 Y95.227 E0.01091
G1 X115.283 Y95.217 E0.21317
G1 X115.882 Y95.295 E0.01188
G1 X116.445 Y95.523 E0.01195
G1 X116.932 Y95.887 E0.01195
G1 X117.310 Y96.358 E0.01188
G1 X122.110 Y106.436 E0.21957
G1 X122.181 Y106.998 E0.01114
G1 X122.181 Y120.263 E0.26091
G1 X122.087 Y120.882 E0.01233
G1 X121.835 Y121.456 E0.01233
G1 X121.466 Y121.920 E0.01166
G1 X120.998 Y122.277 E0.01158
G1 X120.456 Y122.507 E0.01158
G1 X119.870 Y122.597 E0.01166
G1 X104.664 Y122.597 E0.29909
G1 X99.981 Y122.419 E0.09216
G1 X99.453 Y122.309 E0.01062
G1 X98.963 Y122.083 E0.01062
G1 X98.517 Y121.734 E0.01114
G1 X98.167 Y121.289 E0.01114
G1 X97.931 Y120.774 E0.01114
G1 X97.825 Y120.222 E0.01106
G1 X97.842 Y106.598 E0.26797
G1 E-3.50000 F3600.00000
G1 F7200.000
G1 X98.046 Y105.828 E-0.37857
G1 X99.005 Y103.845 E-1.04643
G1 E-0.07500 F3600.00000
G1 X110.249 Y111.927 F9000.000
G1 E5.00000 F2400.00000
G1 F900
G1 X109.748 Y111.927 E0.01060
G1 X109.881 Y111.586 E0.00773
G1 F1500.000
G1 X109.995 Y111.325 E0.01415
G1 X110.118 Y111.588 E0.01436
G1 F900
G1 X110.227 Y111.871 E0.00642
G1 X109.152 Y112.351 F9000.000
G1 F900
G1 X109.271 Y112.009 E0.00767
G1 F1500.000
G1 X109.564 Y111.241 E0.04077
G1 X109.731 Y110.900 E0.01884
G1 X109.888 Y110.641 E0.01504
G1 X109.998 Y110.506 E0.00868
G1 X110.076 Y110.592 E0.00578
G1 X110.224 Y110.823 E0.01361
G1 X110.487 Y111.368 E0.03004
G1 X110.741 Y112.028 E0.03511
G1 F900
G1 X110.850 Y112.351 E0.00720
G1 X109.212 Y112.351 E0.03468
G1 X109.212 Y112.775 F9000.000
G1 F900
G1 X108.810 Y112.775 E0.00850
G1 F1500.000
G1 X108.572 Y112.775 E0.01180
G1 X109.002 Y111.489 E0.06732
G1 X109.177 Y111.067 E0.02267
G1 X109.358 Y110.697 E0.02042
G1 X109.540 Y110.396 E0.01746
G1 X109.716 Y110.180 E0.01382
G1 X109.866 Y110.064 E0.00943
G1 X110.002 Y110.028 E0.00700
G1 X110.097 Y110.046 E0.00477
G1 X110.242 Y110.142 E0.00864
G1 X110.414 Y110.335 E0.01285
G1 X110.595 Y110.615 E0.01654
G1 X110.877 Y111.199 E0.03216
G1 X111.126 Y111.842 E0.03424
G1 X111.427 Y112.775 E0.04867
G1 X111.187 Y112.775 E0.01192
G1 F900
G1 X109.272 Y112.775 E0.04055
;BEFORE_LAYER_CHANGE
;0.41


G1 E-3.50000 F3600.00000
G1 F7200.000
G1 X108.810 Y112.775 E-0.21935
G1 E-1.28065 F3600.00000
G1 Z0.410 F9000.000
;AFTER_LAYER_CHANGE
;0.41
G1 X107.783 Y110.982
G1 E5.00000 F2400.00000
G1 F900
G1 X107.783 Y107.646 E0.09755
G1 X107.229 Y107.646 E0.01621
G1 X107.229 Y114.709 E0.20653
G1 X106.675 Y114.709 E0.01621
G1 X106.675 Y107.646 E0.20653
G1 X106.120 Y107.646 E0.01621
G1 X106.120 Y114.709 E0.20653
G1 X105.566 Y114.709 E0.01621
G1 X105.566 Y107.486 E0.21119
G1 X105.097 Y110.000 F9000.000
G1 F900
G1 X102.937 Y110.000 E0.06315
G1 X102.937 Y112.354 E0.06884
G1 X104.937 Y112.354 E0.05848
G1 X104.937 Y114.708 E0.06884
G1 X102.937 Y114.708 E0.05848
G1 X102.937 Y117.063 E0.06884
G1 X107.805 Y117.063 E0.14235
G1 E-3.50000 F3600.00000
G1 F7200.000
G1 X104.805 Y117.063 E-1.42500
G1 E-0.07500 F3600.00000
G1 X107.841 Y114.708 F9000.000
G1 E5.00000 F2400.00000
G1 F900
G1 X112.159 Y114.708 E0.12629
G1 X112.771 Y114.868 F9000.000
G1 F900
G1 X112.771 Y107.646 E0.21119
G1 X113.325 Y107.646 E0.01621
G1 X113.325 Y114.709 E0.20653
G1 X113.880 Y114.709 E0.01621
G1 X113.880 Y107.646 E0.20653
G1 X114.434 Y107.646 E0.01621
G1 X114.434 Y114.868 E0.21119
G1 X117.222 Y117.063 F9000.000
G1 F900
G1 X112.354 Y117.063 E0.14235
G1 X112.354 Y115.063 E0.05848
G1 X115.063 Y115.063 E0.07920
G1 X115.063 Y114.708 E0.01036
G1 X117.063 Y114.708 E0.05848
G1 X117.063 Y112.354 E0.06884
G1 X115.063 Y112.354 E0.05848
G1 X115.063 Y110.000 E0.06884
G1 X117.222 Y110.000 E0.06315
G1 E-3.50000 F3600.00000
G1 F7200.000
G1 X115.063 Y110.000 E-1.02573
G1 X115.063 Y110.841 E-0.39927
G1 E-0.07500 F3600.00000
G1 X112.217 Y110.964 F9000.000
G1 E5.00000 F2400.00000
G1 F900
G1 X112.217 Y107.486 E0.10168
G1 X107.486 Y105.292 F9000.000
G1 F900
G1 X112.354 Y105.292 E0.14235
G1 X112.354 Y102.937 E0.06884
G1 X107.646 Y102.937 E0.13769
G1 X107.646 Y100.583 E0.06884
G1 X112.514 Y100.583 E0.14235
;BEFORE_LAYER_CHANGE
;0.44


G1 E-3.50000 F3600.00000
G1 F7200.000
G1 X109.514 Y100.583 E-1.42500
G1 E-0.07500 F3600.00000
G1 Z0.440 F9000.000
;AFTER_LAYER_CHANGE
;0.44
G1 X110.055 Y109.972
G1 E5.00000 F2400.00000
G1 F900
G1 X110.219 Y110.385 E0.00941
G1 X110.548 Y111.391 E0.02239
G1 X110.690 Y111.927 E0.01173
G1 X109.300 Y111.927 E0.02943
G1 X109.570 Y110.999 E0.02045
G1 X109.907 Y110.058 E0.02117
G1 X109.999 Y109.854 E0.00473
G1 X110.029 Y109.918 E0.00150
G1 E-3.50000 F3600.00000
G1 F7200.000
G1 X110.219 Y110.385 E-0.23968
G1 X110.548 Y111.391 E-0.50258
G1 X110.690 Y111.927 E-0.26326
G1 X109.807 Y111.927 E-0.41948
G1 E-0.07500 F3600.00000
G1 X111.242 Y112.351 F9000.000
G1 E5.00000 F2400.00000
G1 F900
G1 X108.749 Y112.351 E0.05277
G1 X109.166 Y110.868 E0.03261
G1 X109.582 Y109.747 E0.02530
G1 F1500.000
G1 X109.687 Y109.514 E0.01270
G1 X109.856 Y109.211 E0.01723
G1 X109.997 Y109.025 E0.01160
G1 X110.103 Y109.153 E0.00826
G1 X110.269 Y109.431 E0.01606
G1 X110.419 Y109.749 E0.01744
G1 F900
G1 X110.618 Y110.241 E0.01124
G1 X110.955 Y111.270 E0.02292
G1 X111.226 Y112.293 E0.02239
