; generated by PrusaSlicer 2.2.0+win64 on 2021-05-12 at 06:44:47 UTC

; 

; external perimeters extrusion width = 0.45mm
; perimeters extrusion width = 0.45mm
; infill extrusion width = 0.45mm
; solid infill extrusion width = 0.45mm
; top infill extrusion width = 0.40mm
; support material extrusion width = 0.38mm
; first layer extrusion width = 0.42mm

M201 X500 Y500 Z100 E5000 ; sets maximum accelerations, mm/sec^2
M203 X500 Y500 Z10 E60 ; sets maximum feedrates, mm/sec
M204 P500 R1000 T500 ; sets acceleration (P, T) and retract acceleration (R), mm/sec^2
M205 X8.00 Y8.00 Z0.40 E5.00 ; sets the jerk limits, mm/sec
M205 S0 T0 ; sets the minimum extruding and travel feed rate, mm/sec
M107
G90 ; use absolute coordinates
M83 ; extruder relative mode
M104 S200 ; set extruder temp
M140 S60 ; set bed temp
M190 S60 ; wait for bed temp
M109 S200 ; wait for extruder temp
G28 ; home all
G1 Z2 F240
G1 X2 Y10 F3000
G1 Z0.28 F240
G92 E0.0
G1 Y190 E15.0 F1500.0 ; intro line
G1 X2.3 F5000
G1 Y10 E30 F1200.0 ; intro line
G92 E0.0
G21 ; set units to millimeters
G90 ; use absolute coordinates
M83 ; use relative distances for extrusion
; Filament gcode
;BEFORE_LAYER_CHANGE
;0.2


G1 E-5.00000 F3600.00000
G1 Z0.200 F9000.000
;AFTER_LAYER_CHANGE
;0.2
G1 X103.313 Y95.191
G1 E5.00000 F2400.00000
G1 F1200.000
G1 X103.938 Y94.936 E0.02116
G1 X104.590 Y94.841 E0.02065
G1 X114.531 Y94.671 E0.31175
G1 X116.082 Y94.941 E0.04935
G1 X116.916 Y95.334 E0.02892
G1 X117.336 Y95.693 E0.01733
G1 X119.756 Y98.311 E0.11179
G1 X124.620 Y108.334 E0.34931
G1 X124.820 Y109.309 E0.03119
G1 X124.820 Y117.908 E0.26961
G1 X124.726 Y118.584 E0.02141
G1 X124.465 Y119.220 E0.02154
G1 X124.030 Y119.798 E0.02269
G1 X121.558 Y122.175 E0.10752
G1 X120.896 Y122.580 E0.02434
G1 X120.147 Y122.784 E0.02434
G1 X104.678 Y122.975 E0.48505
G1 X99.950 Y122.794 E0.14837
G1 X99.376 Y122.680 E0.01835
G1 X98.842 Y122.450 E0.01822
G1 X98.323 Y122.071 E0.02014
G1 X95.911 Y119.737 E0.10525
G1 X95.527 Y119.207 E0.02052
G1 X95.279 Y118.601 E0.02052
G1 X95.179 Y117.897 E0.02231
G1 X95.183 Y109.226 E0.27186
G1 X95.430 Y108.217 E0.03258
G1 X100.059 Y98.596 E0.33476
G1 X100.413 Y98.104 E0.01899
G1 X102.766 Y95.592 E0.10791
G1 X103.265 Y95.226 E0.01940
G1 X103.486 Y95.529 F9000.000
G1 F1200.000
G1 X104.053 Y95.296 E0.01920
G1 X104.602 Y95.218 E0.01740
G1 X114.530 Y95.048 E0.31132
G1 X115.981 Y95.305 E0.04621
G1 X116.720 Y95.657 E0.02567
G1 X119.465 Y98.552 E0.12510
G1 X124.273 Y108.483 E0.34594
G1 X124.443 Y109.322 E0.02684
G1 X124.443 Y117.901 E0.26899
G1 X124.359 Y118.495 E0.01882
G1 X124.128 Y119.049 E0.01882
G1 X123.756 Y119.539 E0.01929
G1 X121.325 Y121.878 E0.10578
G1 X120.749 Y122.232 E0.02119
G1 X120.094 Y122.411 E0.02130
G1 X104.687 Y122.598 E0.48311
G1 X99.993 Y122.420 E0.14728
G1 X99.486 Y122.320 E0.01621
G1 X99.015 Y122.114 E0.01609
G1 X98.575 Y121.790 E0.01716
G1 X96.192 Y119.484 E0.10396
G1 X95.853 Y119.016 E0.01811
G1 X95.637 Y118.481 E0.01811
G1 X95.556 Y117.886 E0.01882
G1 X95.561 Y109.225 E0.27156
G1 X95.775 Y108.369 E0.02767
G1 X100.396 Y98.768 E0.33409
G1 X100.697 Y98.352 E0.01609
G1 X103.022 Y95.869 E0.10665
G1 X103.438 Y95.564 E0.01618
G1 E-3.50000 F3600.00000
G1 F7200.000
G1 X104.053 Y95.296 E-0.31866
G1 X104.602 Y95.218 E-0.26355
G1 X106.376 Y95.188 E-0.84279
G1 E-0.07500 F3600.00000
G1 X114.525 Y97.425 F9000.000
G1 E5.00000 F2400.00000
G1 F1200.000
G1 X114.525 Y107.280 E0.30900
G1 X113.771 Y107.280 E0.02365
G1 X113.771 Y97.594 E0.30368
G1 X113.017 Y97.594 E0.02365
G1 X113.017 Y107.280 E0.30368
G1 X112.720 Y107.280 E0.00930
G1 X112.720 Y104.926 E0.07382
G1 X112.262 Y104.926 E0.01434
G1 X112.262 Y97.594 E0.22987
G1 X111.508 Y97.594 E0.02365
G1 X111.508 Y104.926 E0.22987
G1 X110.754 Y104.926 E0.02365
G1 X110.754 Y97.594 E0.22987
G1 X110.000 Y97.594 E0.02365
G1 X110.000 Y104.926 E0.22987
G1 X109.246 Y104.926 E0.02365
G1 X109.246 Y97.594 E0.22987
G1 X108.492 Y97.594 E0.02365
G1 X108.492 Y104.926 E0.22987
G1 X107.738 Y104.926 E0.02365
G1 X107.738 Y97.594 E0.22987
G1 X106.983 Y97.594 E0.02365
G1 X106.983 Y107.280 E0.30368
G1 X106.229 Y107.280 E0.02365
G1 X106.229 Y97.594 E0.30368
G1 X105.475 Y97.594 E0.02365
G1 X105.475 Y107.280 E0.30368
G1 X104.926 Y107.280 E0.01722
G1 X104.926 Y115.074 E0.24438
G1 X105.475 Y115.074 E0.01722
G1 X105.475 Y120.051 E0.15605
G1 X106.229 Y120.051 E0.02365
G1 X106.229 Y115.074 E0.15605
G1 X106.983 Y115.074 E0.02365
G1 X106.983 Y120.051 E0.15605
G1 X107.738 Y120.051 E0.02365
G1 X107.738 Y115.074 E0.15605
G1 X108.492 Y115.074 E0.02365
G1 X108.492 Y120.051 E0.15605
G1 X109.246 Y120.051 E0.02365
G1 X109.246 Y115.074 E0.15605
G1 X110.000 Y115.074 E0.02365
G1 X110.000 Y120.051 E0.15605
G1 X110.754 Y120.051 E0.02365
G1 X110.754 Y115.074 E0.15605
G1 X111.508 Y115.074 E0.02365
G1 X111.508 Y120.051 E0.15605
G1 X112.262 Y120.051 E0.02365
G1 X112.262 Y115.074 E0.15605
G1 X113.017 Y115.074 E0.02365
G1 X113.017 Y120.051 E0.15605
G1 X113.771 Y120.051 E0.02365
G1 X113.771 Y115.074 E0.15605
G1 X114.525 Y115.074 E0.02365
G1 X114.525 Y120.051 E0.15605
G1 X115.279 Y120.051 E0.02365
G1 X115.279 Y97.594 E0.70412
G1 X115.343 Y97.594 E0.00199
G1 X115.343 Y99.949 E0.07382
G1 X116.033 Y99.949 E0.02165
G1 X116.033 Y120.051 E0.63030
G1 X116.787 Y120.051 E0.02365
G1 X116.787 Y99.949 E0.63030
G1 X117.542 Y99.949 E0.02365
G1 X117.542 Y120.051 E0.63030
G1 X118.296 Y120.051 E0.02365
G1 X118.296 Y107.011 E0.40885
G1 X119.050 Y107.011 E0.02365
G1 X119.050 Y120.051 E0.40885
G1 X119.804 Y120.051 E0.02365
G1 X119.804 Y107.011 E0.40885
G1 X120.051 Y107.011 E0.00775
G1 X120.051 Y109.366 E0.07382
G1 X120.558 Y109.366 E0.01590
G1 X120.558 Y117.697 E0.26122
G1 X121.312 Y117.697 E0.02365
G1 X121.312 Y109.366 E0.26122
G1 X122.067 Y109.366 E0.02365
G1 X122.067 Y117.867 E0.26654
G1 E-3.50000 F3600.00000
G1 F7200.000
G1 X122.067 Y114.867 E-1.42500
G1 E-0.07500 F3600.00000
G1 X105.566 Y107.486 F9000.000
G1 E5.00000 F2400.00000
G1 F1200.000
G1 X105.566 Y114.708 E0.20243
G1 X106.120 Y114.708 E0.01553
G1 X106.120 Y107.646 E0.19796
G1 X106.675 Y107.646 E0.01553
G1 X106.675 Y114.708 E0.19796
G1 X107.229 Y114.708 E0.01553
G1 X107.229 Y107.646 E0.19796
G1 X107.646 Y107.646 E0.01169
G1 X107.646 Y105.291 E0.06599
G1 X107.783 Y105.291 E0.00385
G1 X107.783 Y108.986 E0.10355
G1 X108.173 Y107.834 E0.03408
G1 X108.337 Y107.431 E0.01221
G1 X108.337 Y105.291 E0.05996
G1 X108.892 Y105.291 E0.01553
G1 X108.892 Y106.833 E0.04320
G1 X109.446 Y106.833 E0.01553
G1 X109.446 Y105.291 E0.04320
G1 X110.000 Y105.291 E0.01553
G1 X110.000 Y107.181 E0.05296
G1 X110.183 Y107.209 E0.00520
G1 X110.183 Y106.833 E0.01054
G1 X110.554 Y106.833 E0.01039
G1 X110.554 Y105.291 E0.04320
G1 X111.108 Y105.291 E0.01553
G1 X111.108 Y106.833 E0.04320
G1 X111.183 Y106.833 E0.00208
G1 X111.511 Y107.057 E0.01114
G1 X111.663 Y107.449 E0.01177
G1 X111.663 Y105.291 E0.06047
G1 X112.217 Y105.291 E0.01553
G1 X112.217 Y109.024 E0.10462
G1 X112.508 Y109.979 E0.02797
G1 X112.217 Y110.067 E0.00852
G1 X112.217 Y110.468 E0.01122
G1 X112.506 Y111.431 E0.02820
G1 X112.217 Y111.510 E0.00841
G1 X112.217 Y112.286 E0.02175
G1 X110.754 Y111.905 F9000.000
G1 F1200.000
G1 X110.754 Y112.359 E0.01426
G1 X111.001 Y112.600 E0.01080
G1 X111.172 Y112.819 E0.00873
G1 X111.508 Y113.358 E0.01990
G1 X111.508 Y112.074 E0.04024
G1 X111.929 Y112.074 E0.01320
G1 X112.262 Y113.172 E0.03596
G1 X112.262 Y114.001 E0.02600
G1 E-3.50000 F3600.00000
G1 F7200.000
G1 X112.262 Y113.172 E-0.39392
G1 X111.929 Y112.074 E-0.54479
G1 X111.508 Y112.074 E-0.20001
G1 X111.508 Y112.677 E-0.28628
G1 E-0.07500 F3600.00000
G1 X114.434 Y114.868 F9000.000
G1 E5.00000 F2400.00000
G1 F1200.000
G1 X114.434 Y107.646 E0.20243
G1 X113.880 Y107.646 E0.01553
G1 X113.880 Y114.708 E0.19796
G1 X113.325 Y114.708 E0.01553
G1 X113.325 Y107.646 E0.19796
G1 X112.771 Y107.646 E0.01553
G1 X112.771 Y114.708 E0.19796
G1 X112.217 Y114.708 E0.01553
G1 X112.217 Y114.197 E0.01433
G1 X111.663 Y114.197 E0.01553
G1 X111.663 Y114.708 E0.01433
G1 X111.108 Y114.708 E0.01553
G1 X111.108 Y114.197 E0.01433
G1 X110.554 Y114.197 E0.01553
G1 X110.554 Y114.708 E0.01433
G1 X110.000 Y114.708 E0.01553
G1 X110.000 Y114.197 E0.01433
G1 X109.446 Y114.197 E0.01553
G1 X109.446 Y114.708 E0.01433
G1 X108.892 Y114.708 E0.01553
G1 X108.892 Y114.197 E0.01433
G1 X108.337 Y114.197 E0.01553
G1 X108.337 Y114.708 E0.01433
G1 X107.783 Y114.708 E0.01553
G1 X107.783 Y114.038 E0.01880
G1 E-3.50000 F3600.00000
G1 F7200.000
G1 X107.783 Y114.708 E-0.31863
G1 X108.337 Y114.708 E-0.26327
G1 X108.337 Y114.197 E-0.24291
G1 X108.892 Y114.197 E-0.26327
G1 X108.892 Y114.708 E-0.24291
G1 X109.089 Y114.708 E-0.09403
G1 E-0.07500 F3600.00000
G1 X109.246 Y112.594 F9000.000
G1 E5.00000 F2400.00000
G1 F1200.000
G1 X109.246 Y112.074 E0.01629
G1 X108.492 Y112.074 E0.02365
G1 X108.492 Y113.361 E0.04033
G1 X108.398 Y113.534 E0.00616
G1 X108.304 Y113.831 E0.00980
G1 X107.738 Y113.831 E0.01775
G1 X107.738 Y112.572 E0.03950
G1 X107.783 Y112.291 F9000.000
G1 F1200.000
G1 X107.783 Y111.545 E0.02091
G1 X107.485 Y111.459 E0.00871
G1 X107.783 Y110.427 E0.03013
G1 X107.783 Y109.748 E0.01901
G1 E-3.50000 F3600.00000
G1 F7200.000
G1 X107.783 Y110.427 E-0.32214
G1 X107.485 Y111.459 E-0.51061
G1 X107.783 Y111.545 E-0.14753
G1 X107.783 Y112.291 E-0.35429
G1 E-0.16543 F3600.00000
G1 X108.492 Y107.571 F9000.000
G1 E5.00000 F2400.00000
G1 F1200.000
G1 X108.492 Y110.280 E0.08494
G1 X109.246 Y110.280 E0.02365
G1 X109.246 Y107.199 E0.09661
G1 X109.470 Y107.199 E0.00702
G1 X109.470 Y107.695 E0.01557
G1 X109.896 Y107.551 E0.01412
G1 X110.000 Y107.551 E0.00325
G1 X110.000 Y110.280 E0.08557
G1 X110.754 Y110.280 E0.02365
G1 X110.754 Y107.199 E0.09661
G1 X111.070 Y107.199 E0.00989
G1 X111.211 Y107.295 E0.00536
G1 X111.508 Y108.062 E0.02579
G1 X111.508 Y110.450 E0.07486
G1 E-3.50000 F3600.00000
G1 F7200.000
G1 X111.508 Y108.062 E-1.13403
G1 X111.287 Y107.491 E-0.29097
G1 E-0.07500 F3600.00000
G1 X104.721 Y120.221 F9000.000
G1 E5.00000 F2400.00000
G1 F1200.000
G1 X104.721 Y97.594 E0.70944
G1 X104.657 Y97.594 E0.00200
G1 X104.657 Y99.949 E0.07382
G1 X103.967 Y99.949 E0.02165
G1 X103.967 Y120.051 E0.63030
G1 X103.213 Y120.051 E0.02365
G1 X103.213 Y99.949 E0.63030
G1 X102.458 Y99.949 E0.02365
G1 X102.458 Y120.051 E0.63030
G1 X101.704 Y120.051 E0.02365
G1 X101.704 Y107.011 E0.40885
G1 X100.950 Y107.011 E0.02365
G1 X100.950 Y120.051 E0.40885
G1 X100.196 Y120.051 E0.02365
G1 X100.196 Y107.011 E0.40885
G1 X99.949 Y107.011 E0.00775
G1 X99.949 Y109.366 E0.07382
G1 X99.442 Y109.366 E0.01590
G1 X99.442 Y117.697 E0.26122
G1 X98.688 Y117.697 E0.02365
G1 X98.688 Y109.366 E0.26122
G1 X97.933 Y109.366 E0.02365
G1 X97.933 Y117.867 E0.26654
G1 E-3.50000 F3600.00000
G1 F7200.000
G1 X97.933 Y114.867 E-1.42500
G1 E-0.07500 F3600.00000
G1 X109.922 Y113.163 F9000.000
G1 E5.00000 F2400.00000
G1 F1200.000
G1 X110.002 Y113.117 E0.00288
G1 X110.072 Y113.163 E0.00262
G1 X109.982 Y113.163 E0.00279
G1 X110.769 Y113.415 F9000.000
G1 F1200.000
G1 X110.837 Y113.540 E0.00446
G1 X109.161 Y113.540 E0.05254
G1 X109.440 Y113.112 E0.01604
G1 X109.644 Y112.896 E0.00931
G1 X109.827 Y112.773 E0.00693
G1 X109.983 Y112.732 E0.00504
G1 X110.131 Y112.756 E0.00471
G1 X110.273 Y112.836 E0.00512
G1 X110.507 Y113.052 E0.00999
G1 X110.734 Y113.366 E0.01214
G1 X110.703 Y113.541 F9000.000
M106 S255
;BEFORE_LAYER_CHANGE
;0.32


G1 E-3.50000 F3600.00000
G1 F7200.000
G1 X110.837 Y113.540 E-0.09581
G1 X109.161 Y113.540 E-0.79600
G1 X109.440 Y113.112 E-0.24295
G1 X109.644 Y112.896 E-0.14102
G1 X109.827 Y112.773 E-0.10491
G1 X109.918 Y112.749 E-0.04431
G1 E-0.07500 F3600.00000
G1 Z0.320 F9000.000
;AFTER_LAYER_CHANGE
;0.32
G1 X120.896 Y122.580
G1 E5.00000 F2400.00000
G1 F900
G1 X120.147 Y122.784 E0.01527
G1 X104.678 Y122.975 E0.30428
G1 X99.950 Y122.794 E0.09307
G1 X99.376 Y122.680 E0.01151
G1 X98.842 Y122.450 E0.01143
G1 X98.323 Y122.071 E0.01263
G1 X95.911 Y119.737 E0.06602
G1 X95.527 Y119.207 E0.01287
G1 X95.279 Y118.601 E0.01287
G1 X95.179 Y117.897 E0.01399
G1 X95.183 Y109.226 E0.17054
G1 X95.430 Y108.217 E0.02044
G1 X100.059 Y98.596 E0.21000
G1 X100.413 Y98.104 E0.01191
G1 X102.766 Y95.592 E0.06770
G1 X103.313 Y95.191 E0.01335
G1 X103.938 Y94.936 E0.01327
G1 X104.590 Y94.841 E0.01295
G1 X114.531 Y94.671 E0.19557
G1 X116.082 Y94.941 E0.03096
G1 X116.916 Y95.334 E0.01814
G1 X117.336 Y95.693 E0.01087
G1 X119.756 Y98.311 E0.07013
G1 X124.620 Y108.334 E0.21913
G1 X124.820 Y109.309 E0.01957
G1 X124.820 Y117.908 E0.16913
G1 X124.726 Y118.584 E0.01343
G1 X124.465 Y119.220 E0.01351
G1 X124.030 Y119.798 E0.01423
G1 X121.558 Y122.175 E0.06745
G1 X120.947 Y122.548 E0.01409
G1 X120.752 Y122.231 F9000.000
G1 F900
G1 X120.094 Y122.411 E0.01342
G1 X104.687 Y122.598 E0.30306
G1 X99.993 Y122.420 E0.09239
G1 X99.486 Y122.320 E0.01017
G1 X99.015 Y122.114 E0.01009
G1 X98.575 Y121.790 E0.01076
G1 X96.192 Y119.484 E0.06522
G1 X95.853 Y119.016 E0.01136
G1 X95.637 Y118.481 E0.01136
G1 X95.556 Y117.886 E0.01181
G1 X95.561 Y109.225 E0.17036
G1 X95.775 Y108.369 E0.01736
G1 X100.396 Y98.768 E0.20958
G1 X100.697 Y98.352 E0.01009
G1 X103.022 Y95.869 E0.06690
G1 X103.503 Y95.516 E0.01173
G1 X104.053 Y95.296 E0.01166
G1 X104.602 Y95.218 E0.01091
G1 X114.530 Y95.048 E0.19529
G1 X115.981 Y95.305 E0.02899
G1 X116.720 Y95.657 E0.01610
G1 X119.465 Y98.552 E0.07848
G1 X124.273 Y108.483 E0.21701
G1 X124.443 Y109.322 E0.01684
G1 X124.443 Y117.901 E0.16874
G1 X124.359 Y118.495 E0.01181
G1 X124.128 Y119.049 E0.01181
G1 X123.756 Y119.539 E0.01210
G1 X121.325 Y121.878 E0.06636
G1 X120.803 Y122.199 E0.01206
G1 E-3.50000 F3600.00000
G1 F7200.000
G1 X120.094 Y122.411 E-0.35147
G1 X117.834 Y122.438 E-1.07353
G1 E-0.07500 F3600.00000
G1 X110.400 Y112.677 F9000.000
G1 E5.00000 F2400.00000
G1 F900
G1 X109.596 Y112.677 E0.01700
G1 X109.727 Y112.376 E0.00694
G1 F1500.000
G1 X110.000 Y111.872 E0.02843
G1 X110.261 Y112.362 E0.02756
G1 F900
G1 X110.375 Y112.622 E0.00601
G1 X111.015 Y113.101 F9000.000
G1 F900
G1 X108.972 Y113.101 E0.04324
G1 X108.995 Y113.040 E0.00137
G1 F1500.000
G1 X109.336 Y112.208 E0.04465
G1 X109.545 Y111.798 E0.02284
G1 X109.744 Y111.481 E0.01855
G1 X109.912 Y111.282 E0.01297
G1 X109.999 Y111.218 E0.00534
G1 X110.053 Y111.252 E0.00320
G1 X110.209 Y111.421 E0.01140
G1 X110.403 Y111.712 E0.01736
G1 X110.609 Y112.101 E0.02186
G1 X110.861 Y112.671 E0.03094
G1 X110.974 Y112.987 E0.01663
G1 F900
G1 X110.994 Y113.044 E0.00130
G1 X111.304 Y113.525 F9000.000
G1 F900
G1 X108.695 Y113.525 E0.05522
G1 F1500.000
G1 X108.375 Y113.525 E0.01591
G1 X108.735 Y112.532 E0.05244
G1 X108.952 Y112.028 E0.02724
G1 X109.175 Y111.589 E0.02445
G1 X109.400 Y111.230 E0.02100
G1 X109.620 Y110.971 E0.01685
G1 X109.816 Y110.824 E0.01217
G1 X109.990 Y110.777 E0.00893
G1 X110.138 Y110.803 E0.00745
G1 X110.327 Y110.924 E0.01117
G1 X110.543 Y111.157 E0.01577
G1 X110.768 Y111.494 E0.02009
G1 X110.991 Y111.916 E0.02369
G1 X111.255 Y112.514 E0.03245
G1 X111.617 Y113.525 E0.05330
G1 X111.364 Y113.525 E0.01255
;BEFORE_LAYER_CHANGE
;0.41


G1 E-3.50000 F3600.00000
G1 F7200.000
G1 X108.695 Y113.525 E-1.26781
G1 E-0.23219 F3600.00000
G1 Z0.410 F9000.000
;AFTER_LAYER_CHANGE
;0.41
G1 X107.841 Y114.708
G1 E5.00000 F2400.00000
G1 F900
G1 X112.159 Y114.708 E0.12629
G1 X112.771 Y114.868 F9000.000
G1 F900
G1 X112.771 Y114.038 E0.02428
G1 X114.434 Y114.868 F9000.000
G1 F900
G1 X114.434 Y105.291 E0.28004
G1 X113.880 Y105.291 E0.01621
G1 X113.880 Y114.709 E0.27538
G1 X113.325 Y114.709 E0.01621
G1 X113.325 Y105.291 E0.27538
G1 X112.771 Y105.291 E0.01621
G1 X112.771 Y112.285 E0.20452
G1 X112.563 Y111.498 E0.02381
G1 X112.217 Y110.339 E0.03538
G1 X112.217 Y110.067 E0.00793
G1 X112.508 Y109.979 E0.00889
G1 X112.217 Y109.024 E0.02918
G1 X112.217 Y108.421 E0.01762
G1 X112.450 Y108.356 E0.00708
G1 X112.217 Y107.530 E0.02509
G1 X112.217 Y105.291 E0.06545
G1 X111.663 Y105.291 E0.01621
G1 X111.663 Y106.833 E0.04508
G1 X111.264 Y106.833 E0.01165
G1 X111.264 Y106.889 E0.00163
G1 X111.183 Y106.833 E0.00289
G1 X111.108 Y106.833 E0.00217
G1 X111.108 Y105.291 E0.04508
G1 X110.554 Y105.291 E0.01621
G1 X110.554 Y106.833 E0.04508
G1 X110.183 Y106.833 E0.01084
G1 X110.183 Y107.172 E0.00992
G1 X110.000 Y107.145 E0.00542
