; generated by PrusaSlicer 2.2.0+win64 on 2021-05-12 at 06:46:08 UTC

; 

; external perimeters extrusion width = 0.45mm
; perimeters extrusion width = 0.45mm
; infill extrusion width = 0.45mm
; solid infill extrusion width = 0.45mm
; top infill extrusion width = 0.40mm
; first layer extrusion width = 0.42mm

M201 X500 Y500 Z100 E5000 ; sets maximum accelerations, mm/sec^2
M203 X500 Y500 Z10 E60 ; sets maximum feedrates, mm/sec
M204 P500 R1000 T500 ; sets acceleration (P, T) and retract acceleration (R), mm/sec^2
M205 X8.00 Y8.00 Z0.40 E5.00 ; sets the jerk limits, mm/sec
M205 S0 T0 ; sets the minimum extruding and travel feed rate, mm/sec
M107
G90 ; use absolute coordinates
M83 ; extruder relative mode
M104 S200 ; set extruder temp
M140 S60 ; set bed temp
M190 S60 ; wait for bed temp
M109 S200 ; wait for extruder temp
G28 ; home all
G1 Z2 F240
G1 X2 Y10 F3000
G1 Z0.28 F240
G92 E0.0
G1 Y190 E15.0 F1500.0 ; intro line
G1 X2.3 F5000
G1 Y10 E30 F1200.0 ; intro line
G92 E0.0
G21 ; set units to millimeters
G90 ; use absolute coordinates
M83 ; use relative distances for extrusion
; Filament gcode
;BEFORE_LAYER_CHANGE
;0.2


G1 E-5.00000 F3600.00000
G1 Z0.200 F9000.000
;AFTER_LAYER_CHANGE
;0.2
G1 X103.554 Y104.282
G1 E5.00000 F2400.00000
G1 F900
G1 X104.828 Y103.085 E0.05481
G1 X106.207 Y102.228 E0.05089
G1 X107.383 Y101.772 E0.03956
G1 X107.994 Y101.700 E0.01930
G1 X111.120 Y101.699 E0.09800
G1 X112.538 Y101.756 E0.04451
G1 X113.760 Y102.211 E0.04089
G1 X115.264 Y103.155 E0.05566
G1 X116.592 Y104.454 E0.05825
G1 X117.538 Y105.873 E0.05348
G1 X118.202 Y107.520 E0.05567
G1 X118.510 Y109.260 E0.05540
G1 X118.455 Y111.008 E0.05482
G1 X118.051 Y112.687 E0.05417
G1 X117.486 Y113.958 E0.04362
G1 X116.526 Y115.363 E0.05335
G1 X115.255 Y116.589 E0.05534
G1 X113.765 Y117.524 E0.05518
G1 X112.165 Y118.120 E0.05353
G1 X110.778 Y118.363 E0.04414
G1 X109.032 Y118.344 E0.05474
G1 X107.353 Y117.979 E0.05388
G1 X105.736 Y117.258 E0.05551
G1 X104.312 Y116.226 E0.05515
G1 X103.159 Y114.964 E0.05359
G1 X102.418 Y113.777 E0.04389
G1 X101.777 Y112.139 E0.05512
G1 X101.489 Y110.454 E0.05363
G1 X101.546 Y108.723 E0.05430
G1 X101.977 Y106.969 E0.05663
G1 X102.717 Y105.427 E0.05362
G1 X103.519 Y104.330 E0.04259
G1 E-3.50000 F3600.00000
G1 F7200.000
G1 X104.828 Y103.085 E-0.85842
G1 X105.841 Y102.455 E-0.56658
G1 E-0.07500 F3600.00000
G1 X107.552 Y102.123 F9000.000
G1 E5.00000 F2400.00000
G1 F900
G1 X111.120 Y102.076 E0.11189
G1 X112.585 Y102.152 E0.04600
G1 X114.005 Y102.766 E0.04850
G1 X115.432 Y103.787 E0.05500
G1 X116.543 Y105.004 E0.05167
G1 X117.397 Y106.440 E0.05241
G1 X117.860 Y107.701 E0.04211
G1 X118.135 Y109.318 E0.05142
G1 X118.068 Y111.045 E0.05421
G1 X117.664 Y112.652 E0.05193
G1 X116.952 Y114.129 E0.05142
G1 X115.927 Y115.467 E0.05283
G1 X114.932 Y116.360 E0.04195
G1 X113.552 Y117.208 E0.05077
G1 X111.970 Y117.781 E0.05275
G1 X110.298 Y118.017 E0.05294
G1 X108.637 Y117.908 E0.05220
G1 X107.040 Y117.465 E0.05197
G1 X105.837 Y116.879 E0.04196
G1 X104.523 Y115.909 E0.05118
G1 X103.402 Y114.660 E0.05263
G1 X102.555 Y113.194 E0.05309
G1 X102.043 Y111.645 E0.05117
G1 X101.861 Y110.344 E0.04119
G1 X101.932 Y108.685 E0.05206
G1 X102.342 Y107.067 E0.05232
G1 X103.086 Y105.546 E0.05309
G1 X104.130 Y104.208 E0.05322
G1 X105.379 Y103.151 E0.05130
G1 X106.458 Y102.524 E0.03914
G1 X107.495 Y102.143 E0.03464
G1 X107.625 Y102.494 F9000.000
G1 F900
G1 X111.120 Y102.453 E0.10960
G1 X112.494 Y102.518 E0.04314
G1 X113.819 Y103.094 E0.04530
G1 X115.176 Y104.064 E0.05230
G1 X116.242 Y105.231 E0.04957
G1 X117.058 Y106.605 E0.05010
G1 X117.492 Y107.787 E0.03948
G1 X117.758 Y109.329 E0.04905
G1 X117.695 Y110.988 E0.05205
G1 X117.310 Y112.521 E0.04957
G1 X116.605 Y113.974 E0.05065
G1 X115.612 Y115.252 E0.05076
G1 X114.422 Y116.265 E0.04897
G1 X113.332 Y116.894 E0.03947
G1 X111.809 Y117.431 E0.05064
G1 X110.268 Y117.641 E0.04878
G1 X108.684 Y117.533 E0.04978
G1 X107.169 Y117.111 E0.04928
G1 X106.034 Y116.557 E0.03962
G1 X104.777 Y115.631 E0.04894
G1 X103.706 Y114.436 E0.05031
G1 X102.898 Y113.038 E0.05064
G1 X102.409 Y111.554 E0.04898
G1 X102.237 Y110.329 E0.03879
G1 X102.306 Y108.734 E0.05004
G1 X102.696 Y107.198 E0.04969
G1 X103.407 Y105.744 E0.05076
G1 X104.404 Y104.468 E0.05076
G1 X105.606 Y103.453 E0.04933
G1 X106.620 Y102.864 E0.03677
G1 X107.568 Y102.515 E0.03168
G1 E-3.50000 F3600.00000
G1 F7200.000
G1 X110.568 Y102.463 E-1.42500
G1 E-0.07500 F3600.00000
G1 X108.489 Y105.462 F9000.000
G1 E5.00000 F2400.00000
G1 F900
G1 X108.849 Y105.355 E0.01179
G1 X109.187 Y105.282 E0.01086
G1 X109.545 Y105.233 E0.01132
G1 X109.906 Y105.211 E0.01133
G1 X110.267 Y105.218 E0.01133
G1 X110.641 Y105.255 E0.01179
G1 X110.982 Y105.315 E0.01086
G1 X111.332 Y105.405 E0.01132
G1 X111.674 Y105.522 E0.01133
G1 X112.006 Y105.664 E0.01133
G1 X112.339 Y105.840 E0.01179
G1 X112.632 Y106.025 E0.01086
G1 X112.921 Y106.240 E0.01132
G1 X113.194 Y106.478 E0.01133
G1 X113.447 Y106.735 E0.01133
G1 X113.688 Y107.024 E0.01179
G1 X113.890 Y107.306 E0.01086
G1 X114.077 Y107.615 E0.01132
G1 X114.239 Y107.937 E0.01133
G1 X114.376 Y108.272 E0.01133
G1 X114.490 Y108.630 E0.01179
G1 X114.570 Y108.967 E0.01086
G1 X114.626 Y109.324 E0.01132
G1 X114.654 Y109.684 E0.01133
G1 X114.655 Y110.045 E0.01133
G1 X114.625 Y110.420 E0.01179
G1 X114.572 Y110.762 E0.01086
G1 X114.489 Y111.114 E0.01132
G1 X114.379 Y111.458 E0.01133
G1 X114.242 Y111.793 E0.01133
G1 X114.073 Y112.128 E0.01179
G1 X113.894 Y112.425 E0.01086
G1 X113.684 Y112.719 E0.01132
G1 X113.452 Y112.996 E0.01133
G1 X113.199 Y113.254 E0.01133
G1 X112.916 Y113.501 E0.01179
G1 X112.638 Y113.708 E0.01086
G1 X112.332 Y113.901 E0.01132
G1 X112.013 Y114.069 E0.01133
G1 X111.667 Y114.218 E0.01179
G1 X111.340 Y114.330 E0.01086
G1 X110.990 Y114.420 E0.01132
G1 X110.634 Y114.483 E0.01133
G1 X110.260 Y114.519 E0.01179
G1 X109.913 Y114.526 E0.01086
G1 X109.553 Y114.505 E0.01132
G1 X109.195 Y114.456 E0.01133
G1 X108.827 Y114.376 E0.01179
G1 X108.496 Y114.277 E0.01086
G1 X108.159 Y114.147 E0.01132
G1 X107.832 Y113.991 E0.01133
G1 X107.507 Y113.803 E0.01179
G1 X107.221 Y113.607 E0.01086
G1 X106.940 Y113.381 E0.01132
G1 X106.677 Y113.133 E0.01133
G1 X106.434 Y112.865 E0.01133
G1 X106.204 Y112.568 E0.01179
G1 X106.014 Y112.278 E0.01086
G1 X105.839 Y111.962 E0.01132
G1 X105.689 Y111.634 E0.01133
G1 X105.565 Y111.294 E0.01133
G1 X105.465 Y110.932 E0.01179
G1 X105.398 Y110.592 E0.01086
G1 X105.356 Y110.233 E0.01132
G1 X105.342 Y109.872 E0.01133
G1 X105.356 Y109.511 E0.01133
G1 X105.400 Y109.138 E0.01179
G1 X105.467 Y108.798 E0.01086
G1 X105.563 Y108.450 E0.01132
G1 X105.686 Y108.110 E0.01133
G1 X105.836 Y107.781 E0.01133
G1 X106.018 Y107.452 E0.01179
G1 X106.208 Y107.163 E0.01086
G1 X106.429 Y106.877 E0.01132
G1 X106.672 Y106.609 E0.01133
G1 X106.934 Y106.361 E0.01133
G1 X107.227 Y106.126 E0.01179
G1 X107.513 Y105.930 E0.01086
G1 X107.826 Y105.749 E0.01132
G1 X108.151 Y105.593 E0.01133
G1 X108.433 Y105.484 E0.00945
G1 X108.561 Y105.093 F9000.000
G1 X108.059 Y105.057
G1 F900
G1 X111.942 Y105.057 E0.12176
G1 X112.270 Y105.201 E0.01123
G1 X112.590 Y105.371 E0.01135
G1 X112.897 Y105.563 E0.01136
G1 X113.184 Y105.770 E0.01111
G1 X113.469 Y106.008 E0.01162
G1 X113.730 Y106.259 E0.01136
G1 X113.967 Y106.522 E0.01111
G1 X114.196 Y106.814 E0.01162
G1 X114.399 Y107.114 E0.01136
G1 X114.739 Y107.753 E0.02272
G1 X114.875 Y108.089 E0.01136
G1 X115.076 Y108.786 E0.02272
G1 X115.139 Y109.142 E0.01136
G1 X115.177 Y109.503 E0.01136
G1 X115.190 Y109.857 E0.01111
G1 X115.177 Y110.227 E0.01162
G1 X115.140 Y110.587 E0.01136
G1 X115.077 Y110.944 E0.01136
G1 X114.992 Y111.288 E0.01111
G1 X114.878 Y111.641 E0.01162
G1 X114.742 Y111.977 E0.01136
G1 X114.402 Y112.617 E0.02272
G1 X114.200 Y112.917 E0.01136
G1 X113.734 Y113.472 E0.02272
G1 X113.471 Y113.727 E0.01148
G1 X112.905 Y114.169 E0.02253
G1 X112.591 Y114.365 E0.01161
G1 X111.951 Y114.677 E0.02230
G1 X111.603 Y114.805 E0.01164
G1 X111.252 Y114.905 E0.01145
G1 X110.547 Y115.029 E0.02243
G1 X110.175 Y115.055 E0.01170
G1 X109.460 Y115.030 E0.02242
G1 X109.099 Y114.979 E0.01146
G1 X108.404 Y114.807 E0.02244
G1 X108.054 Y114.680 E0.01167
G1 X107.409 Y114.365 E0.02248
G1 X107.095 Y114.169 E0.01161
G1 X106.529 Y113.727 E0.02253
G1 X106.265 Y113.472 E0.01149
G1 X106.023 Y113.203 E0.01136
G1 X105.795 Y112.910 E0.01162
G1 X105.597 Y112.617 E0.01111
G1 X105.416 Y112.303 E0.01136
G1 X105.258 Y111.977 E0.01136
G1 X105.120 Y111.633 E0.01162
G1 X105.010 Y111.296 E0.01111
G1 X104.923 Y110.944 E0.01136
G1 X104.860 Y110.588 E0.01136
G1 X104.822 Y110.219 E0.01162
G1 X104.810 Y109.865 E0.01111
G1 X104.823 Y109.503 E0.01136
G1 X104.861 Y109.142 E0.01136
G1 X104.926 Y108.777 E0.01162
G1 X105.012 Y108.434 E0.01111
G1 X105.125 Y108.089 E0.01136
G1 X105.264 Y107.746 E0.01162
G1 X105.420 Y107.428 E0.01111
G1 X105.601 Y107.114 E0.01136
G1 X105.809 Y106.807 E0.01162
G1 X106.028 Y106.528 E0.01111
G1 X106.270 Y106.259 E0.01136
G1 X106.538 Y106.003 E0.01162
G1 X106.809 Y105.775 E0.01111
G1 X107.103 Y105.563 E0.01136
G1 X107.410 Y105.371 E0.01136
G1 X108.004 Y105.081 E0.02071
G1 X108.312 Y105.366 F9000.000
G1 X108.417 Y105.266
G1 F900
G1 X108.114 Y105.322 E0.00217
G1 X107.851 Y105.440 E0.00204
G1 X107.375 Y105.705 E0.00385
G1 X106.974 Y105.986 E0.00346
G1 X106.484 Y106.422 E0.00463
G1 X106.231 Y106.700 E0.00266
G1 X105.994 Y107.006 E0.00274
G1 X105.793 Y107.313 E0.00259
G1 X105.601 Y107.660 E0.00280
G1 X105.441 Y108.013 E0.00274
G1 X105.310 Y108.372 E0.00270
G1 X105.188 Y108.833 E0.00337
G1 X105.091 Y109.487 E0.00467
G1 X105.076 Y109.865 E0.00267
G1 X105.092 Y110.251 E0.00273
G1 X105.136 Y110.630 E0.00270
G1 X105.207 Y110.990 E0.00259
G1 X105.315 Y111.378 E0.00284
G1 X105.446 Y111.737 E0.00270
G1 X105.653 Y112.177 E0.00344
G1 X105.987 Y112.720 E0.00450
G1 X106.227 Y113.032 E0.00279
G1 X106.486 Y113.317 E0.00272
G1 X106.764 Y113.578 E0.00270
G1 X107.061 Y113.818 E0.00270
G1 X107.368 Y114.028 E0.00263
G1 X107.712 Y114.227 E0.00280
G1 X108.154 Y114.432 E0.00344
G1 X108.758 Y114.632 E0.00450
G1 X109.145 Y114.718 E0.00280
G1 X109.524 Y114.769 E0.00271
G1 X109.911 Y114.790 E0.00274
G1 X110.272 Y114.783 E0.00255
G1 X110.673 Y114.745 E0.00284
G1 X111.049 Y114.678 E0.00270
G1 X111.520 Y114.550 E0.00345
G1 X112.124 Y114.310 E0.00459
G1 X112.458 Y114.135 E0.00266
G1 X112.785 Y113.928 E0.00274
G1 X113.080 Y113.709 E0.00259
G1 X113.378 Y113.449 E0.00280
G1 X113.650 Y113.171 E0.00274
G1 X113.895 Y112.878 E0.00270
G1 X114.176 Y112.475 E0.00347
G1 X114.482 Y111.905 E0.00457
G1 X114.628 Y111.550 E0.00271
G1 X114.743 Y111.188 E0.00269
G1 X114.831 Y110.816 E0.00270
G1 X114.888 Y110.454 E0.00259
G1 X114.919 Y110.053 E0.00284
G1 X114.919 Y109.671 E0.00270
G1 X114.874 Y109.180 E0.00348
G1 X114.746 Y108.562 E0.00446
G1 X114.627 Y108.184 E0.00280
G1 X114.482 Y107.830 E0.00270
G1 X114.310 Y107.489 E0.00270
G1 X114.112 Y107.163 E0.00270
G1 X113.896 Y106.860 E0.00263
G1 X113.641 Y106.556 E0.00280
G1 X113.290 Y106.207 E0.00349
G1 X112.784 Y105.808 E0.00456
G1 X112.474 Y105.612 E0.00259
G1 X112.123 Y105.427 E0.00280
G1 X111.708 Y105.246 E0.00320
G1 X111.576 Y105.267 F9000.000
G1 F900
G1 X111.667 Y105.282 E0.00059
G1
G1 X112.204 Y105.380 E0.00473
M106 S255
;BEFORE_LAYER_CHANGE
;0.32


G1 E-3.50000 F3600.00000
G1 F7200.000
G1 X111.667 Y105.282 E-0.25915
G1 E-1.24085 F3600.00000
G1 Z0.320 F9000.000
;AFTER_LAYER_CHANGE
;0.32
G1 X112.538 Y101.756
G1 E5.00000 F2400.00000
G1 F900
G1 X113.760 Y102.211 E0.02565
G1 X115.264 Y103.155 E0.03492
G1 X116.592 Y104.454 E0.03654
G1 X117.538 Y105.873 E0.03355
G1 X118.202 Y107.520 E0.03492
G1 X118.510 Y109.260 E0.03475
G1 X118.455 Y111.008 E0.03439
G1 X118.051 Y112.687 E0.03398
G1 X117.486 Y113.958 E0.02736
G1 X116.526 Y115.363 E0.03347
G1 X115.255 Y116.589 E0.03472
G1 X113.765 Y117.524 E0.03462
G1 X112.165 Y118.120 E0.03358
G1 X110.778 Y118.363 E0.02769
G1 X109.032 Y118.344 E0.03434
G1 X107.353 Y117.979 E0.03380
G1 X105.736 Y117.258 E0.03482
G1 X104.312 Y116.226 E0.03459
G1 X103.159 Y114.964 E0.03362
G1 X102.418 Y113.777 E0.02753
G1 X101.777 Y112.139 E0.03458
G1 X101.489 Y110.454 E0.03364
G1 X101.546 Y108.723 E0.03407
G1 X101.977 Y106.969 E0.03552
G1 X102.717 Y105.427 E0.03364
G1 X103.554 Y104.282 E0.02790
G1 X104.828 Y103.085 E0.03439
G1 X106.207 Y102.228 E0.03193
G1 X107.383 Y101.772 E0.02481
G1 X107.994 Y101.700 E0.01210
G1 X111.120 Y101.699 E0.06148
G1 X112.478 Y101.754 E0.02674
G1 X112.585 Y102.152 F9000.000
G1 F900
G1 X114.005 Y102.766 E0.03043
G1 X115.432 Y103.787 E0.03450
G1 X116.543 Y105.004 E0.03242
G1 X117.397 Y106.440 E0.03287
G1 X117.860 Y107.701 E0.02642
G1 X118.135 Y109.318 E0.03226
G1 X118.068 Y111.045 E0.03401
G1 X117.664 Y112.652 E0.03258
G1 X116.952 Y114.129 E0.03226
G1 X115.927 Y115.467 E0.03314
G1 X114.932 Y116.360 E0.02632
G1 X113.552 Y117.208 E0.03185
G1 X111.970 Y117.781 E0.03309
G1 X110.298 Y118.017 E0.03321
G1 X108.637 Y117.908 E0.03275
G1 X107.040 Y117.465 E0.03260
G1 X105.837 Y116.879 E0.02632
G1 X104.523 Y115.909 E0.03211
G1 X103.402 Y114.660 E0.03302
G1 X102.555 Y113.194 E0.03330
G1 X102.043 Y111.645 E0.03210
G1 X101.861 Y110.344 E0.02584
G1 X101.932 Y108.685 E0.03266
G1 X102.342 Y107.067 E0.03282
G1 X103.086 Y105.546 E0.03330
G1 X104.130 Y104.208 E0.03338
G1 X105.379 Y103.151 E0.03218
G1 X106.458 Y102.524 E0.02456
G1 X107.552 Y102.123 E0.02291
G1 X111.120 Y102.076 E0.07019
G1 X112.525 Y102.149 E0.02768
G1 X112.494 Y102.518 F9000.000
G1 F900
G1 X113.819 Y103.094 E0.02842
G1 X115.176 Y104.064 E0.03281
G1 X116.242 Y105.231 E0.03110
G1 X117.058 Y106.605 E0.03143
G1 X117.492 Y107.787 E0.02476
G1 X117.758 Y109.329 E0.03077
G1 X117.695 Y110.988 E0.03265
G1 X117.310 Y112.521 E0.03109
G1 X116.605 Y113.974 E0.03177
G1 X115.612 Y115.252 E0.03184
G1 X114.422 Y116.265 E0.03072
G1 X113.332 Y116.894 E0.02476
G1 X111.809 Y117.431 E0.03177
G1 X110.268 Y117.641 E0.03060
G1 X108.684 Y117.533 E0.03123
G1 X107.169 Y117.111 E0.03092
G1 X106.034 Y116.557 E0.02486
G1 X104.777 Y115.631 E0.03070
G1 X103.706 Y114.436 E0.03156
G1 X102.898 Y113.038 E0.03177
G1 X102.409 Y111.554 E0.03072
G1 X102.237 Y110.329 E0.02434
G1 X102.306 Y108.734 E0.03139
G1 X102.696 Y107.198 E0.03117
G1 X103.407 Y105.744 E0.03184
G1 X104.404 Y104.468 E0.03184
G1 X105.606 Y103.453 E0.03095
G1 X106.620 Y102.864 E0.02307
G1 X107.631 Y102.491 E0.02120
G1 X111.120 Y102.453 E0.06862
G1 X112.434 Y102.515 E0.02588
G1 E-3.50000 F3600.00000
G1 F7200.000
G1 X113.819 Y103.094 E-0.71293
G1 X115.038 Y103.966 E-0.71207
G1 E-0.07500 F3600.00000
G1 X111.445 Y105.428 F9000.000
G1 E5.00000 F2400.00000
G1 F900
G1 X112.008 Y105.648 E0.01280
G1 X112.365 Y105.839 E0.00857
G1 X112.923 Y106.222 E0.01433
G1 X113.200 Y106.462 E0.00776
G1 X113.454 Y106.721 E0.00768
G1 X113.714 Y107.032 E0.00857
G1 X114.085 Y107.598 E0.01433
G1 X114.250 Y107.926 E0.00776
G1 X114.388 Y108.261 E0.00768
G1 X114.510 Y108.648 E0.00857
G1 X114.640 Y109.312 E0.01433
G1 X114.669 Y109.677 E0.00776
G1 X114.670 Y110.040 E0.00768
G1 X114.637 Y110.444 E0.00857
G1 X114.506 Y111.108 E0.01433
G1 X114.395 Y111.457 E0.00776
G1 X114.258 Y111.794 E0.00768
G1 X114.075 Y112.155 E0.00857
G1 X113.702 Y112.720 E0.01433
G1 X113.467 Y113.001 E0.00776
G1 X113.214 Y113.261 E0.00768
G1 X112.907 Y113.526 E0.00857
G1 X112.349 Y113.909 E0.01433
G1 X112.025 Y114.080 E0.00776
G1 X111.692 Y114.225 E0.00768
G1 X111.308 Y114.354 E0.00857
G1 X110.646 Y114.497 E0.01433
G1 X110.282 Y114.533 E0.00776
G1 X109.919 Y114.541 E0.00768
G1 X109.514 Y114.516 E0.00857
G1 X108.848 Y114.397 E0.01433
G1 X108.497 Y114.293 E0.00776
G1 X108.158 Y114.163 E0.00768
G1 X107.793 Y113.987 E0.00857
G1 X107.221 Y113.625 E0.01433
G1 X106.935 Y113.396 E0.00776
G1 X106.670 Y113.147 E0.00768
G1 X106.399 Y112.846 E0.00857
G1 X106.006 Y112.295 E0.01433
G1 X105.828 Y111.974 E0.00777
G1 X105.662 Y111.605 E0.00857
G1 X105.456 Y110.960 E0.01433
G1 X105.384 Y110.600 E0.00777
G1 X105.339 Y110.197 E0.00857
G1 X105.340 Y109.520 E0.01433
G1 X105.382 Y109.156 E0.00777
G1 X105.461 Y108.758 E0.00857
G1 X105.669 Y108.114 E0.01433
G1 X105.820 Y107.779 E0.00777
G1 X106.017 Y107.426 E0.00857
G1 X106.411 Y106.875 E0.01433
G1 X106.657 Y106.603 E0.00776
G1 X106.920 Y106.354 E0.00768
